!!!!SEGMENT: 008-1c-KI-004.krn
!!!COM: F. Chopin
!!!OPS: Op. 8
!!!OMV: 4
!!!PTL: Premier | TRIO | pour | Pianoforte, Violon et Violoncelle
!!!PPR: Kistner
!!!PPP: Leipzig
!!!NIFC-rismID: 1001002848
!!!NIFC-shelfmark: PL-Wbfc 3997/n
!!!OMD: ALLEGRETTO.
!!!OTL: Trio
**kern	**kern	**fing	**dynam	**kern	**dynam	**kern	**dynam
*part3	*part3	*	*part3	*part2	*part2	*part1	*part1
*	*I"[Piano].	*	*	*I"VIOLONCELLO.	*	*I"VIOLINO.	*
*staff4	*staff3	*	*	*staff2	*	*staff1	*
*clefF4	*clefG2	*	*	*clefF4	*	*clefG2	*
*k[b-e-]	*k[b-e-]	*	*	*k[b-e-]	*	*k[b-e-]	*
*g:	*g:	*	*	*g:	*	*g:	*
*M2/4	*M2/4	*	*	*M2/4	*	*M2/4	*
!LO:TX:B:t=FINALE.	!LO:TX:B:t=FINALE.	!	!	!LO:TX:B:t=FINALE.	!	!LO:TX:B:t=FINALE.	!
!	!LO:TX:B:i:t=sotto voce.	!	!	!	!	!	!
8r	8dd	.	.	8r	.	8r	.
*ped	*	*	*	*	*	*	*
=1	=1	=1	=1	=1	=1	=1	=1
*^	*	*	*	*	*	*	*
*	*	*8va	*	*	*	*	*	*
!	!	!	!	!	!	!	!LO:TX:t=P:problem: liczby: "7", "1" i "8" pod pięciolinią	!
8DD`<L	8rGGGyy	4ddd	.	.	2r	.	2ree	.
(>8DJ	4.D	.	.	.	.	.	.	.
4d\ 4cny\ 4A\)	.	(>16ccc#XLL	.	.	.	.	.	.
.	.	16ddd	.	.	.	.	.	.
*Xped	*	*	*	*	*	*	*	*
.	.	16eeen	.	.	.	.	.	.
.	.	16fff#XJJ)	.	.	.	.	.	.
=2	=2	=2	=2	=2	=2	=2	=2	=2
*ped	*	*	*	*	*	*	*	*
8GG`<L	8rFFFyy	8ggg`>L	.	.	2r	.	2ree	.
(>8DJ	4.D	8bb-`>J	.	.	.	.	.	.
*Xped	*	*	*	*	*	*	*	*
4d\ 4B-\ 4G\)	.	4ddd^^>	.	.	.	.	.	.
=3	=3	=3	=3	=3	=3	=3	=3	=3
*ped	*	*	*	*	*	*	*	*
8GG`<L	8rFFFyy	4aa/	.	.	2r	.	2ree	.
(>8DJ	4.D	.	.	.	.	.	.	.
*Xped	*	*	*	*	*	*	*	*
4d\ 4c\ 4F#X\)	.	(</16gg#XLL	.	.	.	.	.	.
.	.	16aa	.	.	.	.	.	.
.	.	16bb-	.	.	.	.	.	.
.	.	16aaJJ)	.	.	.	.	.	.
=4	=4	=4	=4	=4	=4	=4	=4	=4
*ped	*	*	*	*	*	*	*	*
8GG`<L	8rFFFyy	8ggn`<L	.	.	2r	.	2ree	.
(>8DJ	4.D	8bb-`<J	.	.	.	.	.	.
*Xped	*	*	*	*	*	*	*	*
4d\ 4B-\ 4G\)	.	4dd^^>/	.	.	.	.	.	.
=5	=5	=5	=5	=5	=5	=5	=5	=5
*ped	*	*	*	*	*	*	*	*
8GG`<L	8rFFFyy	4ddd\	.	.	2r	.	2ree	.
(>8DJ	4.D	.	.	.	.	.	.	.
4d\ 4c\ 4A\)	.	(>\16ccc#XLL	.	<	.	.	.	.
.	.	16ddd	.	.	.	.	.	.
.	.	16eeen	.	.	.	.	.	.
*Xped	*	*	*	*	*	*	*	*
.	.	16fff#XJJ)	.	[	.	.	.	.
=6	=6	=6	=6	=6	=6	=6	=6	=6
*ped	*	*	*	*	*	*	*	*
8GG`<L	8rFFFyy	8ggg\`>L	.	.	2r	.	2rdd	.
(>8DJ	4.D	8bb-`>J	.	.	.	.	.	.
*Xped	*	*	*	*	*	*	*	*
4d\ 4B-\ 4G\)	.	[>\4ddd	.	.	.	.	.	.
=7	=7	=7	=7	=7	=7	=7	=7	=7
*ped	*	*	*	*	*	*	*	*
8BB-`<L	8rCCyy	8ddd\L]	.	p	2r	.	2rdd	.
!	!	!LO:TX:B:i:t=poco	!	!	!	!	!	!
(>8DJ	4.D	8bb-`>J	.	.	.	.	.	.
*Xped	*	*	*	*	*	*	*	*
4d\ 4B-\ 4F\)	.	[4ddd^^>	.	.	.	.	.	.
!!LO:LB:g=original
=8	=8	=8	=8	=8	=8	=8	=8	=8
!	!	!LO:TX:B:i:t=ritard.	!	!	!LO:TX:B:a:i:t=rallent.	!	!LO:TX:B:a:i:t=ritard.	!
*ped	*	*	*	*	*	*	*	*
8BB-`<L	8rCCyy	8dddL]	.	.	2r	.	2rdd	.
(>8DJ	4.D	8bb-`>^>J	.	.	.	.	.	.
4d\ 4B-\ 4F\)	.	4ddd^^>	.	.	.	.	.	.
*Xped	*	*	*	*	*	*	*	*
!	!	!	!	!	!LO:TX:B:b:t=1	!	!LO:TX:B:b:t=1	!
=9	=9	=9	=9	=9	=9	=9	=9	=9
!	!	!LO:TX:a:i:B:t=a Tempo.	!	!	!LO:TX:t=P:problem: liczby: "10" pod pięciolinią	!	!LO:TX:B:a:i:t=a Tempo.	!
!	!	!	!	!	!LO:TX:B:a:i:t=Tempo 1|o.	!	!	!
.	.	8qdd/	.	.	.	.	.	.
8AAL	8rDDyy	4ddd^^>	.	.	2r	.	2rdd	.
8DJ	4.D	.	.	.	.	.	.	.
4d\ 4c\ 4A\	.	(>16ccc#XLL	.	.	.	.	.	.
.	.	16ddd	.	.	.	.	.	.
.	.	16eeen	.	.	.	.	.	.
.	.	16fff#XJJ)	.	.	.	.	.	.
*	*	*	*	*	*clefC4	*	*	*
=10	=10	=10	=10	=10	=10	=10	=10	=10
8GGL	8rBBByy	8ggg`>L	.	.	2r	.	2rdd	.
8DJ	4.D	8bb-`>J	.	.	.	.	.	.
4d\ 4B-\ 4G\	.	4ddd^^>	.	.	.	.	.	.
=11	=11	=11	=11	=11	=11	=11	=11	=11
8GGL	8rCCyy	4aa	.	.	2r	.	2rdd	.
8DJ	4.D	.	.	.	.	.	.	.
4d\ 4c\ 4F#X\	.	(<16gg#XLL	.	.	.	.	.	.
.	.	16aa	.	.	.	.	.	.
.	.	16bb-	.	.	.	.	.	.
.	.	16aaJJ)	.	.	.	.	.	.
=12	=12	=12	=12	=12	=12	=12	=12	=12
8GGL	8rCCyy	8ggnL	.	.	2r	.	2rdd	.
8DJ	4.D	8bb-J	.	.	.	.	.	.
4d\ 4B-\ 4G\	.	4dd	.	.	.	.	.	.
=13	=13	=13	=13	=13	=13	=13	=13	=13
8GGL	8rBBByy	4ddd^^>	.	.	2r	.	2rdd	.
8DJ	4.D	.	.	.	.	.	.	.
4d\ 4c\ 4A\	.	(>16ccc#XLL	.	<	.	.	.	.
.	.	16ddd	.	.	.	.	.	.
.	.	16eeen	.	.	.	.	.	.
.	.	16fff#XJJ	.	[	.	.	.	.
*v	*v	*	*	*	*	*	*	*
=14	=14	=14	=14	=14	=14	=14	=14
8GG`>L	16gggLL	.	.	2r	.	2rdd	.
.	16aaaJ	.	.	.	.	.	.
8dJ 8B- 8G	8bbb-J)	.	.	.	.	.	.
!	!LO:TX:i:B:t=leggiero.	!	!	!	!	!	!
8C`>L	16aaa`>LL	.	.	.	.	.	.
.	32rfff	.	.	.	.	.	.
.	(>32gggM>k	.	.	.	.	.	.
8e-J 8A 8G	16fffny)	.	.	.	.	.	.
.	32rddd	.	.	.	.	.	.
.	(>32eee-M>JJk	.	.	.	.	.	.
=15	=15	=15	=15	=15	=15	=15	=15
8D`>L	16dddLL)	.	.	2r	.	2rdd	.
.	32r	.	.	.	.	.	.
.	(>32cccM>k	.	.	.	.	.	.
8dJ 8B- 8G	16bb-)	.	.	.	.	.	.
.	32r	.	.	.	.	.	.
.	(>32aam>JJk	.	.	.	.	.	.
8E-X`>L	8gg\`>)L	.	.	.	.	.	.
8c#XJ 8A 8G	(>8aa`>J	.	.	.	.	.	.
*	*X8va	*	*	*	*	*	*
!!LO:LB:g=original
=16	=16	=16	=16	=16	=16	=16	=16
*^	*	*	*	*	*	*	*
!	!	!LO:TX:a:B:i:t=loco.	!	!	!	!	!	!
*ped	*	*	*	*	*	*	*	*
!	!	!LO:TX:t=P:brak zakończenia łuku:problem	!	!	!	!	!	!
8DL/	8reyy	[>4ff#X)	.	.	2r	.	2rdd	.
8AJ	(>\4.A	.	.	.	.	.	.	.
4a\) 4f#X\ 4d\	.	(>16ff#LL]	.	.	.	.	.	.
.	.	16een	.	.	.	.	.	.
.	.	16dd	.	.	.	.	.	.
*Xped	*	*	*	*	*	*	*	*
.	.	16bbnJJ)	.	.	.	.	.	.
=17	=17	=17	=17	=17	=17	=17	=17	=17
!	!LO:TX:a:B:i:t=dolce.	!	!	!	!	!	!	!LO:DY:rj
8AA	8rfyy	(>4aa	.	.	2r	.	[<2a	p
8ryy	(>4.A	.	.	.	.	.	.	.
4a\ 4g\ 4en\)	.	16gg#XLL	.	.	.	.	.	.
.	.	16aa	.	.	.	.	.	.
.	.	16bbn	.	.	.	.	.	.
.	.	16ccc#XJJ	.	.	.	.	.	.
=18	=18	=18	=18	=18	=18	=18	=18	=18
*ped	*	*	*	*	*	*	*	*
4rdyy	8D	8dddL	.	.	2r	.	2a_<	.
.	4.A	8ff#XJ)	.	.	.	.	.	.
*Xped	*	*	*	*	*	*	*	*
4a\ 4f#X\ 4d\	.	4aa^^	.	.	.	.	.	.
=19	=19	=19	=19	=19	=19	=19	=19	=19
4rgyy	8D	4een	.	.	(>2g	p	2a_<	.
.	4.A	.	.	.	.	.	.	.
4a\ 4g\ 4c#X\	.	(>16dd#XLL	.	<	.	.	.	.
.	.	16ee	.	.	.	.	.	.
.	.	16gg	.	.	.	.	.	.
.	.	16ff#XJJ	.	[	.	.	.	.
=20	=20	=20	=20	=20	=20	=20	=20	=20
4rayy	8D	16eenLL	.	>	2f#X)	.	2a]	.
.	.	16dd	.	.	.	.	.	.
.	4.A	16cc#X	.	.	.	.	.	.
.	.	16bnJJ	.	.	.	.	.	.
4f#X\ 4d\	.	16aLL	.	<	.	.	.	.
.	.	16ff#X	.	.	.	.	.	.
.	.	16dd	.	.	.	.	.	.
.	.	16bbnJJ)	.	[	.	.	.	.
=21	=21	=21	=21	=21	=21	=21	=21	=21
*	*	*	*	*	*	*	*^	*
8AA	8reyy	8aamL	.	[	(>2c#	.	2a	4rc	.
8ryy	4.A	(>16gg#XL	.	.	.	.	.	.	.
.	.	16aaJJ	.	.	.	.	.	.	.
4a\ 4g\ 4c#X\	.	16bbnLL	.	.	.	.	.	(>\4g	.
.	.	16ccc#X	.	.	.	.	.	.	.
.	.	16ddd	.	.	.	.	.	.	.
.	.	16eeenJJ	.	.	.	.	.	.	.
!!LO:LB:g=original
=22	=22	=22	=22	=22	=22	=22	=22	=22	=22
*	*	*^	*	*	*	*	*	*	*
4rcyy	8D	4rbbbyy	16gggnyLL	.	[	2d)	.	2a)	2f#X	.
.	.	.	16fff#X	.	.	.	.	.	.	.
.	4.A\	.	16eeen	.	.	.	.	.	.	.
.	.	.	16dddJJ)	.	.	.	.	.	.	.
4a\ 4f#X\ 4d\	.	16rfffyy	16ccc#X^<LL	.	.	.	.	.	.	.
.	.	8ddd^>L	16ddd	.	.	.	.	.	.	.
.	.	.	16ff#X	.	.	.	.	.	.	.
.	.	16ccc#Jk	16ccc#JJ	.	.	.	.	.	.	.
*	*	*	*	*	*	*clefF4	*	*	*	*
=23	=23	=23	=23	=23	=23	=23	=23	=23	=23	=23
8AA/	8rfyy	4rgggyy	(>16bbnLL	.	.	(>2A	.	(>2a/	(<2g	.
.	.	.	16aa	.	.	.	.	.	.	.
8ryy	4.A\	.	16een	.	.	.	.	.	.	.
.	.	.	16ff#XJJ)	.	.	.	.	.	.	.
!LO:TX:t=P:problem:problem z łukami	!	!	!	!	!	!	!	!	!	!
!LO:S:s=1:note:problem:note-level slur	!	!	!	!	!	!	!	!	!	!
!LO:S:s=3:note:problem:note-level slur	!	!	!	!	!	!	!	!	!	!
!LO:S:s=3:note:problem:note-level slur	!	!	!	!	!	!	!	!	!	!
(>4a\ \4g (>(<4en\	.	16rdddyy	16aaLL	.	.	.	.	.	.	.
.	.	8gg^>L	16gg	.	.	.	.	.	.	.
.	.	.	16bn	.	.	.	.	.	.	.
.	.	16ff#Jk	(>16cc#XJJ	.	.	.	.	.	.	.
*	*	*	*	*	*	*	*	*v	*v	*
=24	=24	=24	=24	=24	=24	=24	=24	=24	=24
!LO:S:s=1:note:problem:note-level slur	!	!	!	!	!	!	!	!	!
!LO:S:s=1:note:problem:note-level slur	!	!	!	!	!	!	!	!	!
!LO:S:s=2:note:problem:note-level slur	!	!	!	!	!	!	!	!	!
8f#X)) 8d))	4rAAAyy	8ryy	8dd\L)	.	.	8D)	.	8f#X))	.
8r	.	8raayy	16cc#XL	.	.	8r	.	8r	.
.	.	.	16ddJJ	.	.	.	.	.	.
!	!	!	!	!	!LO:DY:rj	!	!	!	!
[>4cny/ [>4A/	8Cny\L	8ee-XL	16rf	.	f	4r	.	4r	.
.	.	.	16a^<LL	.	.	.	.	.	.
.	16DL	[>8ccnyJ	16a	.	.	.	.	.	.
.	16E-JJ	.	16gJJ	.	.	.	.	.	.
=25	=25	=25	=25	=25	=25	=25	=25	=25	=25
4c/] 4A/]	8D\	(<16ccLL]	4f#X	.	.	2r	.	2rdd	.
.	.	16a	.	.	.	.	.	.	.
.	8ryy	16cc#X	.	.	.	.	.	.	.
.	.	16ddJJ)	.	.	.	.	.	.	.
[>4cny [>4A	8CnyL	8ee-^>L	16rf	.	.	.	.	.	.
.	.	.	16a^<LL	.	.	.	.	.	.
.	16DL	8ccnJ	16a	.	.	.	.	.	.
.	16E-JJ	.	16gJJ	.	.	.	.	.	.
*	*	*v	*v	*	*	*	*	*	*
=26	=26	=26	=26	=26	=26	=26	=26	=26
*	*^	*	*	*	*	*	*	*
4ryy	8c\] 8A\] 8D\	4ryy	16ddLL 16f#X	.	.	2r	.	2rdd	.
.	.	.	(<16d	.	.	.	.	.	.
.	8r	.	16c#X	.	.	.	.	.	.
.	.	.	16dJJ	.	.	.	.	.	.
16rf	4Cny^>/ /4AA	8CCnyL	8e-L)	.	.	.	.	.	.
16ALL	.	.	.	.	.	.	.	.	.
!	!	!LO:TX:t=P:problem:brak zakończenia łuku	!	!	!	!	!	!	!
16A	.	(>16DDL	8cnJ	.	.	.	.	.	.
16GJJ	.	16EE-JJ	.	.	.	.	.	.	.
*	*v	*v	*	*	*	*	*	*	*
!!LO:LB:g=original
=27	=27	=27	=27	=27	=27	=27	=27	=27
16F#XLL	8AA\ 8DD\)	8dL	.	.	4r	.	2rdd	.
16AJJ	.	.	.	.	.	.	.	.
8r	8rFFyy	16dL	.	<	.	.	.	.
.	.	16f#XJJ	.	.	.	.	.	.
4r	4rCCyy	16aLL	.	.	8r	.	.	.
.	.	16dd	.	.	.	.	.	.
.	.	16ff#X	.	.	(>8D	.	.	.
.	.	16aaJJ	.	[	.	.	.	.
*ped	*	*	*	*	*clefC4	*	*	*
=28	=28	=28	=28	=28	=28	=28	=28	=28
8DD	8ryy	(>16eee-XLL	.	p	4d)	.	2rdd	.
.	.	16ff#X)	.	.	.	.	.	.
8ryy	4.D	(>16ddd	.	.	.	.	.	.
.	.	16ddJJ)	.	.	.	.	.	.
4d\ 4c\ 4A\	.	(>16ccc#XLL	.	.	(>16c#XLL	.	.	.
.	.	16ff#)	.	.	16d	.	.	.
.	.	(>16cccn	.	.	16en	.	.	.
*Xped	*	*	*	*	*	*	*	*
.	.	16ddJJ)	.	.	16f#XJJ)	.	.	.
!!LO:LB:g=original
=29	=29	=29	=29	=29	=29	=29	=29	=29
*ped	*	*	*	*	*	*	*	*
8GG/	8ryy	(>16bb-LL 16gg	.	.	8g`>L	.	2rdd	.
.	.	16dd)	.	.	.	.	.	.
8ryy	4.D	(>16gg 16b-	.	.	8B-`>J	.	.	.
.	.	16aJJ)	.	.	.	.	.	.
8B-\ 8G\	.	16b-LL 16g	.	.	4d^>	.	.	.
.	.	16d	.	.	.	.	.	.
8r	.	16B-	.	.	.	.	.	.
*Xped	*	*	*	*	*	*	*	*
.	.	16G<JJ	.	.	.	.	.	.
=30	=30	=30	=30	=30	=30	=30	=30	=30
*ped	*	*	*	*	*	*	*	*
8DD	8ryy	(>16cLL 16F#X<	.	.	4A\	.	2rdd	.
.	.	16d	.	.	.	.	.	.
8rAyy	4.D\	16cc 16f#X	.	.	.	.	.	.
.	.	16ddJJ	.	.	.	.	.	.
8d\ 8A\	.	16cccLL 16ff#X	.	.	(</16G#XLL	.	.	.
.	.	16ee-	.	.	16A	.	.	.
8r	.	16dd	.	.	16B-	.	.	.
*Xped	*	*	*	*	*	*	*	*
.	.	16ccJJ)	.	.	16AJJ)	.	.	.
=31	=31	=31	=31	=31	=31	=31	=31	=31
*ped	*	*	*	*	*	*	*	*
8GG/	8ryy	16b-LL 16g	.	.	8Gny/`<L	.	2rdd	.
.	.	16dd	.	.	.	.	.	.
8rAyy	4.D\	16bb- 16gg	.	.	8B-`<J	.	.	.
.	.	16cccJJ 16aa	.	.	.	.	.	.
*	*	*8va	*	*	*	*	*	*
8d\ 8B-\ 8G\	.	16dddLL 16bb-	.	.	4D	.	.	.
.	.	16gg	.	.	.	.	.	.
8r	.	16gggJJ 16bb-	.	.	.	.	.	.
*	*	*X8va	*	*	*	*	*	*
!	!	!LO:TX:B:a:i:t=loco.	!	!	!	!	!	!
!	!	!LO:TX:t=P:problem:łuk kończy się nad nutami	!	!	!	!	!	!
.	.	(<16g	.	.	.	.	.	.
*v	*v	*	*	*	*	*	*	*
!!LO:LB:g=original
=32	=32	=32	=32	=32	=32	=32	=32
8DD\L	16f#X/LL<	.	.	4d	.	2rdd	.
.	16cc	.	.	.	.	.	.
8cJ 8A 8D	16ee-	.	.	.	.	.	.
.	16ddJJ	.	.	.	.	.	.
8r	16cc#XLL)	.	.	(>16c#XLL	.	.	.
.	(<16d	.	.	16d	.	.	.
(</8DD	16f#	.	.	16e-	.	.	.
.	16ccnJJ	.	.	16dJJ)	.	.	.
=33	=33	=33	=33	=33	=33	=33	=33
8EE-/)	16b-LL)	.	.	8g`>L	.	2rdd	.
.	(>16g	.	.	.	.	.	.
4G^\	16e-	.	.	8B-`>J	.	.	.
.	16cJJ	.	.	.	.	.	.
.	16B-LL	.	.	(>4c#X^<	.	.	.
.	16e-	.	.	.	.	.	.
(</8EE-	16g	.	.	.	.	.	.
.	16b-JJ	.	.	.	.	.	.
=34	=34	=34	=34	=34	=34	=34	=34
8DD/)	16B-LL	.	.	8d`>)	.	2rdd	.
.	16d	.	.	.	.	.	.
4D^\	16g	.	.	(>16B-LL	>	.	.
.	16cJJ	.	.	16AJJ	.	.	.
.	16B-LL	.	.	8G/L	.	.	.
.	16d	.	.	.	.	.	.
8DD/	16A	.	.	8F#XJ	.	.	.
.	16dJJ	.	.	.	.	.	.
=35	=35	=35	=35	=35	=35	=35	=35
!	!	!	!	!	!	!LO:TX:a:B:i:t=con fuoco.	!
8GG'>\L	16g^<LL 16B-	.	.	4G/)	.	4r	.
.	16d	.	.	.	.	.	.
8GGGJ'>	16B-< 16G<	.	.	.	.	.	.
.	16A<JJ 16D<)	.	.	.	.	.	.
!	!	!	!	!	!	!	!LO:DY:rj
8rDD	8G< 8BB-<	.	.	8r	.	8d\L	f
!	!	!	!LO:DY:rj	!	!	!	!
!LO:TX:t=P:cross-measure beam:problem	!LO:TX:B:i:a:t=con fuoco.	!	!	!	!	!	!
*	*	*	*	*clefF4	*	*	*
!	!	!	!	!LO:TX:a:B:i:t=con fuoco.	!	!	!
8D/ 8DD/	8a 8f#X 8d 8A	.	f<[	8DD`<	.	(>16ddL	.
.	.	.	.	.	.	16ccJJ	[[
!!LO:LB:g=original
=36	=36	=36	=36	=36	=36	=36	=36
8GG/	16b-LL 16d (<16B-	.	>	8GG`<	.	8b-\L	>
.	16g	.	]	.	.	.	.
!LO:N:vis=8	!	!	!	!	!	!	!
16rGG	16d 16B-	.	.	8r	.	8gJ)	]
!LO:N:vis=8	!	!	!	!	!	!	!
16rGG	16cJJ 16A)	.	.	.	.	.	.
8rGG	8B-</ 8G</	.	.	(>8DL	<	8r	.
!	!	!	!LO:DY:rj	!	!	!	!LO:DY:rj
8d\ 8D\	8ff#X/ 8dd/ 8a/ 8f#X/	.	f	16dL	.	(<8a	p
.	.	.	.	16cJJ	[	.	.
!!LO:PB:g=original
=37	=37	=37	=37	=37	=37	=37	=37
8G/ 8GG/	16ggLL 16b- (<16g	.	.	8B-\L	>	8g)	.
.	16dd	.	.	.	.	.	.
8r	16b- 16g	.	.	8GJ)	]	8r	.
.	16aJJ 16d)	.	.	.	.	.	.
8r	8g/`< 8B-/	.	.	8r	.	(>\8dL	<
!	!	!	!LO:DY:rj	!	!	!	!
8d 8D	8aa`> 8ff#X 8dd 8a	.	f	8D	.	16ddL	.
.	.	.	.	.	.	16ccJJ	[[
=38	=38	=38	=38	=38	=38	=38	=38
8G`<L 8GG	8bb-`>L 8gg 8dd 8b-	.	.	(>8GL	[	8b-L	.
8B-`< 8BB-	8een`> 8dd 8g	.	.	8B-	.	16aL	>
.	.	.	.	.	.	16gJJ	]
8A`< 8AA	8ffny`> 8dd 8a	.	.	8A	.	16fLL	.
.	.	.	.	.	.	16g	.
8AAJ 8AAA	(>8cc#XJ 8g 8en	.	.	(>8AAJ)	.	16en	.
.	.	.	.	.	.	16aJJ)	.
=39	=39	=39	=39	=39	=39	=39	=39
!	!LO:S:s=1:note:problem:note-level slur	!	!	!	!	!	!
8D 8DD	16dd^<LL) 16f 16d	.	.	4D\)	.	8fL	.
.	(<16a	.	.	.	.	.	.
8r	16f 16d	.	.	.	.	8dJ	.
.	16enJJ 16A)	.	.	.	.	.	.
*	*	*	*	*clefC4	*	*	*
8rGG	8d< 8F<	.	.	(>8AL	.	8r	.
!LO:TX:t=P:cross-measure beam:problem	!	!	!	!	!	!	!
!	!	!	!LO:DY:rj	!	!	!	!
(<8A/ 8AA/	8een 8cc#y 8a 8e	.	f	16aL	.	(>8cc#X	.
.	.	.	.	16gJJ	.	.	.
!!LO:LB:g=original
=40	=40	=40	=40	=40	=40	=40	=40
8D 8DD)	(<16ffLL 16a 16f^<	.	.	8fL	.	8dd)	.
.	16dd	.	.	.	.	.	.
8r	16a 16f	.	.	8dJ)	.	8r	.
.	16gJJ 16en)	.	.	.	.	.	.
8r	8f 8d	.	.	8r	.	8aL	.
!LO:TX:t=P:cross-measure beam:problem	!	!	!LO:DY:rj	!	!	!	!
*	*	*	*	*clefF4	*	*	*
(<8A/ 8AA/	8aa 8een 8cc#X 8a	.	f	8AA'<	.	(>16aaL	.
.	.	.	.	.	.	16ggJJ	.
=41	=41	=41	=41	=41	=41	=41	=41
8D 8DD)	(>16dddLL 16ff 16dd	.	.	8DD'<	.	8ffL	.
.	16aa	.	.	.	.	.	.
8r	16ff 16dd	.	.	8r	.	8ddJ)	.
.	16eenJJ 16a)	.	.	.	.	.	.
8r	8dd\ 8f\	.	.	(>8DL	.	8r	.
!	!	!	!LO:DY:rj	!	!	!	!
8d\ 8D\	8ff#X\ 8dd\ 8a\ 8f#\	.	f	16dL	.	[>8dd	.
.	.	.	.	16cJJ	.	.	.
!!LO:LB:g=original
=42	=42	=42	=42	=42	=42	=42	=42
*	*^	*	*	*	*	*	*
8B-\L 8BB-\	8rcccyy	8gg^> 8dd 8g	.	.	16B-LL	.	(>8ddL]	.
.	.	.	.	.	16A	.	.	.
8G 8GG	4gg^>	8dd 8b-	.	.	16B-^<	.	8ddJ	.
.	.	.	.	.	16GJJ	.	.	.
8c 8C	.	8ee-X\L 8a\	.	.	16c^<LL	.	8ee-^<L	.
.	.	.	.	.	16A	.	.	.
8dJ 8D	8ff#X	8ddJ 8a	.	.	16d^<	.	16ddL	.
.	.	.	.	.	16DJJ	.	(>16ccJJ)	.
=43	=43	=43	=43	=43	=43	=43	=43	=43
8G\ 8GG\	/8gg 8dd/ 8b-/ 8g/	4rdyy	.	.	8G)	.	8b-L	.
8r	(<16bb-/LL 16gg/	.	.	.	8r	.	8gJ)	.
.	16cccJJ 16aa)	.	.	.	.	.	.	.
8G`L	8dddL	16bb-LL	.	.	4r	.	4r	.
.	.	16gg	.	.	.	.	.	.
16gL	16cccL	16aa	.	.	.	.	.	.
16fJJ	16dddJJ	16bbnJJ	.	.	.	.	.	.
=44	=44	=44	=44	=44	=44	=44	=44	=44
*	*	*^	*	*	*	*	*	*
*	*8va	*	*	*	*	*	*	*	*
(>8e-L	16eee-LL	4ccc	8.rAyy	.	.	4r	.	8r	.
.	16fff	.	.	.	.	.	.	.	.
8cJ)	16ggg	.	.	.	.	.	.	[8g^<	.
.	16ee-JJ	.	16ee-\	.	.	.	.	.	.
8G`	8cccL	16ffLL	4rEyy	.	.	8r	.	(>8gL]	.
.	.	16aa-X	.	.	.	.	.	.	.
!LO:TX:t=P:cross-measure beam:problem	!	!	!	!	!	!	!	!	!
*	*	*	*	*	*	*clefC4	*	*	*
(<8GG/	8bbnJ	16gg	.	.	.	[<8G	.	16ggL	.
.	.	16ddJJ	.	.	.	.	.	16ffJJ	.
!!LO:LB:g=original
*	*	*v	*v	*	*	*	*	*	*
=45	=45	=45	=45	=45	=45	=45	=45	=45
8C/)	(<16ccc/LL 16ee-/	4rByy	.	.	8GL]	.	8ee-L	.
.	16gg	.	.	.	.	.	.	.
8r	16eee- 16ccc	.	.	.	(>16gL	.	8ccJ)	.
.	16fffJJ 16ddd)	.	.	.	16fJJ	.	.	.
*clefG2	*	*	*	*	*	*	*	*
8cL<	8gggL	16eee-LL	.	.	8e-L	.	4r	.
.	.	16ccc	.	.	.	.	.	.
(>16ccL	16fffL	16ddd	.	.	8cJ	.	.	.
16b-XJJ	16gggJJ	16eeenJJ	.	.	.	.	.	.
=46	=46	=46	=46	=46	=46	=46	=46	=46
*	*	*^	*	*	*	*	*	*
8a-XL)	16aaa-XLL	4fff	8.rByy	.	.	8f)	.	8r	.
.	16bbb-	.	.	.	.	.	.	.	.
8f'J	16cccc	.	.	.	.	8r	.	[>8cc	.
.	16aa-yJJ	.	16aa-y\	.	.	.	.	.	.
*clefF4	*	*	*	*	*	*	*	*	*
8c'L	8fffL	16bb-LL	4rEyy	.	.	8r	.	8ccL]	.
.	.	16ddd-X	.	.	.	.	.	.	.
*	*	*	*	*	*	*clefG2	*	*	*
(>8CJ	8eeenJ	16ccc	.	.	.	[<8c	.	16cccL	.
.	.	16ggJJ	.	.	.	.	.	16bb-JJ	.
*	*v	*v	*v	*	*	*	*	*	*
!!LO:LB:g=original
=47	=47	=47	=47	=47	=47	=47	=47
!	!	!	!LO:DY:rj	!LO:TX:t=P:mixed beam:problem	!	!	!
8FL)	16fffLL 16aa-X	.	f	8c/L]	.	8aa-XL	.
.	16ff	.	.	.	.	.	.
8en 8c 8B- 8G	16ccc 16een	.	.	(>16cc\L	<	(>8ccJ	.
.	(<16ggJJ	.	.	16b-\JJ	[	.	.
*	*X8va	*	*	*	*	*	*
!	!LO:TX:a:B:i:t=loco.	!	!	!	!	!	!
8fJ 8c 8A-X	16aa-XLL 16ff	.	.	8a-X/L	>	8fL)	.
.	16ccc	.	.	.	.	.	.
8r	16ff	.	.	8fJ)	]	(>16ffL	.
.	16ccJJ)	.	.	.	.	16ee-JJ	.
*	*	*	*	*clefF4	*	*	*
!!LO:LB:g=original
=48	=48	=48	=48	=48	=48	=48	=48
*	*^	*	*	*	*	*	*
8fL 8d-X 8A-X 8F	8aa-XL	16dd-X^<LL	.	.	(>8FL	<	8dd-XL	.
.	.	16a-XJ	.	.	.	.	.	.
8f 8dn 8G	16ggL	8bnJ	.	.	8G	.	8ddnJ	.
.	16ffJJ	.	.	.	.	.	.	.
8e-XJ 8c	16ee-XLL	16cc	.	.	8cJ)	[	8ee-LL)	.
.	16gg	8.ryy	.	.	.	.	.	.
8r	16ccc	.	.	.	8r	.	(>16gg	.
.	16dddnJJ	.	.	.	.	.	16ffJJ	.
*clefG2	*	*	*	*	*clefC4	*	*	*
=49	=49	=49	=49	=49	=49	=49	=49	=49
(<8ccL 8g 8e- 8c	8eee-L	16ccc^LL	.	.	(>8cL	.	8ee-L	.
.	.	16ggJ	.	.	.	.	.	.
8cc 8a 8d	16dddL	8ff#XJ	.	.	8dJ	.	8ccJ	.
.	16cccJJ	.	.	.	.	.	.	.
8b-J 8g)	16bb-LL	16gg	.	.	8G\L)	.	8b-)	.
.	16ddd	8.rfyy	.	.	.	.	.	.
8r	16gg	.	.	.	(>16gL	.	8r	.
.	16ddJJ	.	.	.	16fJJ	[	.	.
=50	=50	=50	=50	=50	=50	=50	=50	=50
(<8gL 8e- 8B- 8G	8bb-L	16ee-X^LL	.	.	8e-L	[	8r	.
.	.	16b-J	.	.	.	.	.	.
8g 8en 8A	16aaL	8cc#XJ	.	.	8enJ	.	[<8a	.
.	16ggJJ	.	.	.	.	.	.	.
8fJ 8d)	(<16ffnyLL	16dd	.	.	8f\)	.	8aL]	.
.	16aa	8.rfyy	.	.	.	.	.	.
8r	16ddd	.	.	.	8r	.	(>16aaL	.
.	16eeenJJ)	.	.	.	.	.	16ggJJ	.
*clefF4	*	*	*	*	*clefF4	*	*	*
=51	=51	=51	=51	=51	=51	=51	=51	=51
*	*8va	*	*	*	*	*	*	*
!	!	!	!	!	!	!LO:DY:rj	!	!
(>\8DL	8fffL	16dddLL	.	.	(>\8DL	p	8ff`>L)	.
.	.	16ff	.	.	.	.	.	.
8EnJ	16eeenL	16gg#X	.	.	8En	.	(>8eenJ	.
.	16dddJJ	16bbnJJ	.	.	.	.	.	.
8F`>\L)	8cccL	16aaLL	.	.	8FJ)	.	[<4a)	.
.	.	16cc	.	.	.	.	.	.
16fL	16cccL	16aa	.	.	8r	.	.	.
16enJJ	16ccc#XJJ	16ggnJJ	.	.	.	.	.	.
!!LO:LB:g=original
=52	=52	=52	=52	=52	=52	=52	=52	=52
8dL	8dddL	16ffLL	.	.	8r	.	8a]	.
.	.	16ddJ	.	.	.	.	.	.
!	!	!	!	!	!	!LO:DY:rj	!	!LO:DY:rj
(>8D	16aaL	8ffJ	.	<	(<8D/L	f	8dL	f
.	16bbnJJ	.	.	.	.	.	.	.
8C	8cccnyL	16eenLL	.	.	8C	.	8c	.
.	.	16ccJ	.	.	.	.	.	.
8BB-J	16ffL	8ddJ	.	.	8BB-J	.	8B-J	.
.	16ggJJ	.	.	.	.	.	.	.
=53	=53	=53	=53	=53	=53	=53	=53	=53
*	*X8va	*	*	*	*	*	*	*
!	!LO:TX:a:B:i:t=loco.	!	!	!	!	!	!	!
8AA`L)	8aaL	16cc#XLL	.	fz	8AA)	.	8A	.
.	.	16a	.	p	.	.	.	.
(>16AL	16ddL	16bn	.	<	8r	.	8r	.
16GJJ	16eenJJ	16cc#XJJ	.	.	.	.	.	.
8FL)	16ffLL	8ddL	.	.	8r	.	8dL	.
.	16gg	.	.	.	.	.	.	.
(>8DJ	16aa	8ffJ	.	.	(>\8D	.	(>\16ddL	.
.	16bb-JJ	.	.	.	.	.	16ccJJ	.
=54	=54	=54	=54	=54	=54	=54	=54	=54
8CL)	8cccnyL	16eenLL	.	.	8C/)	.	8b-\L	.
.	.	16cc	.	.	.	.	.	.
(>16cL	16ffL	16dd	.	.	8r	.	8gJ	.
!	!	!LO:TX:i:t=cres-cen-do.:dur=2q2s:ext=ud:problem:text with extention lines 	!	!	!	!	!	!
16B-JJ	16ggJJ	16eenyJJ	.	.	.	.	.	.
8AL)	16aaLL	8ffL	.	.	8r	.	8fL)	.
.	16bb-	.	.	.	.	.	.	.
(>8FJ	16ccc	8aaJ	.	.	(>8F	.	(>16ffL	<
.	16dddJJ	.	.	.	.	.	16eenJJ	.
!!LO:LB:g=original
=55	=55	=55	=55	=55	=55	=55	=55	=55
*	*8va	*	*	*	*	*	*	*
8EnL)	8eeenL	16gg#XLL	.	.	8En)	.	8ddL	.
.	.	16een	.	.	.	.	.	.
(>16enL	16aaL	16ff#X	.	.	8r	.	8bn	.
16dJJ	16bbnJJ	16gg#XJJ	.	.	.	.	.	.
8cL)	16cccLL	8aaL	.	.	8r	.	8a	.
.	16ddd	.	.	.	.	.	.	.
8AJ	16eee	8cccJ	.	.	[<8AA	.	8ccJ)	.
.	16aaaJJ	.	.	.	.	.	.	.
*	*v	*v	*	*	*	*	*	*
=56	=56	=56	=56	=56	=56	=56	=56
8B-X\ 8G\ 8D\ 8BB-X\	16gggny^>\LL 16ddd\	.	.	8AA]	.	8b-XL/	.
!	!	!	!LO:DY:rj	!	!	!	!
.	16gg	.	ff	.	.	.	.
4B- 4G 4E-X 4BB-	16ggg^> 16eee-X	.	.	4BB-^	.	[<8gJ	>
.	16ggJJ	.	.	.	.	.	.
.	16eee-^>\LL 16bb-\	.	.	.	.	16gLL]	]
.	16ee-	.	.	.	.	16f#X	.
(>8B- 8G 8D 8BB-	16bb-^> 16gg	.	.	(<8BB-	.	(<16g	.
.	16b-JJ	.	.	.	.	16dJJ	.
!!LO:LB:g=original
=57	=57	=57	=57	=57	=57	=57	=57
!	!	!	!LO:DY:rj	!	!	!	!
16A 16G 16En 16AA)	16ccc#X\ 16aa\ 16gg\ 16cc#X\	.	fz	8AA)	.	16c#X)	.
*	*X8va	*	*	*	*	*	*
!	!LO:TX:B:i:t=con forza.	!	!	!	!	!	!
!	!LO:TX:a:i:B:t=loco.	!	!	!	!	!	!
16A	(>16aLL	.	.	.	.	16r	.
(>16BB-LL	16aaJJ)	.	.	8r	.	8r	.
16B-JJ)	(>16b-LL	.	.	.	.	.	.
(>\16GGLL	16bb-JJ)	.	.	4r	.	4r	.
16GJJ)	(>16gLL	.	.	.	.	.	.
(>\16EEnLL	16ggJJ)	.	.	.	.	.	.
16EnJJ)	(>/16en	.	.	.	.	.	.
=58	=58	=58	=58	=58	=58	=58	=58
(<16GGLL	16een\)	.	.	2r	.	2rdd	.
16GJJ)	(>16gLL	.	.	.	.	.	.
(</16AALL	16ggJJ)	.	.	.	.	.	.
16AJJ)	(>16aLL	.	.	.	.	.	.
(<16FFLL	16aaJJ)	.	.	.	.	.	.
16FJJ)	(>16fLL	.	.	.	.	.	.
(<16DDLL	16ffJJ)	.	.	.	.	.	.
!	!LO:TX:t=P:cross-measure beam:problem	!	!	!	!	!	!
16DJJ)	(>\16d	.	.	.	.	.	.
=59	=59	=59	=59	=59	=59	=59	=59
(<16FFLL	16dd\)	.	.	2r	.	2rdd	.
16FJJ)	(>16fLL	.	.	.	.	.	.
(<16GGLL	16ffJJ)	.	.	.	.	.	.
16GJJ)	(>16gLL	.	.	.	.	.	.
(<16EEnLL	16ggJJ)	.	.	.	.	.	.
16EnJJ)	(>\16enLL	.	.	.	.	.	.
(<16CC#XLL	16eenJJ)	.	.	.	.	.	.
!	!LO:TX:t=P:cross-measure beam:problem	!	!	!	!	!	!
16C#JJ)	(>\16c#X	.	.	.	.	.	.
!!LO:LB:g=original
=60	=60	=60	=60	=60	=60	=60	=60
!	!	!	!	!LO:TX:t=P:łamanie systemu:problem	!	!	!
(<16BBB-XLL	16cc#X\)	.	.	4r	.	2rdd	.
16BB-JJ)	(<16B-XLL	.	.	.	.	.	.
(<16GGGLL	16b-JJ)	.	.	.	.	.	.
16GGJJ)	(<16GLL	.	>	.	.	.	.
(<16AAALL	16gJJ)	.	.	8r	.	.	.
16AAJJ)	(<16ALL	.	.	.	.	.	.
!	!	!	!	!LO:TX:B:b:i:t=espress.	!	!	!
16FLL	16aJJ)	.	.	(>8AA	.	.	.
16EnyJJ	(<16c#X	.	]	.	.	.	.
=61	=61	=61	=61	=61	=61	=61	=61
*ped	*	*	*	*	*	*	*
4D 4DD	(>16dLL)	.	.	4A^<	.	2rdd	.
.	16a	.	p<	.	.	.	.
.	16f	.	.	.	.	.	.
.	16aJJ	.	.	.	.	.	.
4A 4F 4D	16ffLL	.	.	4D	.	.	.
.	16dd	.	.	.	.	.	.
.	16aa	.	.	.	.	.	.
*Xped	*	*	*	*	*	*	*
.	16fffJJ	.	[[	.	.	.	.
!!LO:LB:g=original
=62	=62	=62	=62	=62	=62	=62	=62
*ped	*	*	*	*	*	*	*
4D 4DD	16ccc#XLL	.	.	8GL)	.	2rdd	.
.	16eeen	.	.	.	.	.	.
.	16bb-X	.	.	(>8GJ	.	.	.
.	16ggJJ	.	.	.	.	.	.
4B- 4G 4D	16cc#XLL	.	.	(>4En)	.	.	.
.	16b-	.	.	.	.	.	.
.	16g	.	.	.	.	.	.
*Xped	*	*	*	*	*	*	*
.	16cc#JJ)	.	.	.	.	.	.
=63	=63	=63	=63	=63	=63	=63	=63
*ped	*	*	*	*	*	*	*
4D 4DD	16ddLL	.	.	4A^<)	.	2rdd	.
.	16aa	.	.	.	.	.	.
.	16ff	.	.	.	.	.	.
.	16aaJJ	.	.	.	.	.	.
*	*8va	*	*	*	*	*	*
4A 4F 4D	16fff\LL	.	.	4D	.	.	.
.	16ddd	.	.	.	.	.	.
.	16aaa	.	.	.	.	.	.
*Xped	*	*	*	*	*	*	*
.	16ffffJJ	.	[	.	.	.	.
=64	=64	=64	=64	=64	=64	=64	=64
*ped	*	*	*	*	*	*	*
4D 4DD	16eeeenLL	.	.	8GL	]	2rdd	.
.	16cccc#X	.	.	.	.	.	.
.	16bbb-	.	.	8GJ	.	.	.
.	16gggJJ	.	.	.	.	.	.
.	.	.	.	16qqG/LL	.	.	.
.	.	.	.	16qqF/JJ	.	.	.
4B- 4G 4D	16eeenLL	.	>	4En\	.	.	.
.	16ccc#X	.	.	.	.	.	.
.	16bb-	.	.	.	.	.	.
*Xped	*	*	*	*	*	*	*
.	16ggJJ	.	]	.	.	.	.
*	*X8va	*	*	*	*	*	*
=65	=65	=65	=65	=65	=65	=65	=65
!	!LO:TX:a:B:i:t=loco.	!	!	!	!	!	!
!	!LO:TX:B:i:t=staccato.	!	!	!	!	!	!
4A 4F 4D	16ffLL	.	.	4A	<	2rdd	.
.	16dd'	.	.	.	.	.	.
.	16cc#X'	.	.	.	.	.	.
.	16ccn'JJ	.	.	.	.	.	.
4G#X 4F 4D	16bn'/LL	.	.	(>4Bn	[	.	.
.	16b-X'	.	.	.	.	.	.
.	16a'	.	.	.	.	.	.
.	16a-X'JJ	.	.	.	.	.	.
=66	=66	=66	=66	=66	=66	=66	=66
4A 4F 4C	16g/LL	.	>	8dL	>	2rdd	.
.	16f#X	.	.	.	.	.	.
.	16fn	.	.	8c	.	.	.
.	16en'>JJ	.	.	.	.	.	.
4r	16e-XLL	.	.	8B-X	.	.	.
.	16d	.	.	.	.	.	.
.	16d-X	.	.	8AJ)	]	.	.
.	16cJJ	.	.	.	.	.	.
!!LO:PB:g=original
=67	=67	=67	=67	=67	=67	=67	=67
8F 8C	16A<LL	.	.	(>4c	>	2rdd	.
.	16dny<	.	.	.	.	.	.
8r	16c<	.	.	.	.	.	.
.	16A<JJ	.	.	.	.	.	.
4En 4BB- 4CC	(<16G<LL	.	.	8GL	]	.	.
.	16d<	.	fz	.	.	.	.
.	16c<	.	.	8cJ	.	.	.
.	16G<JJ)	.	.	.	.	.	.
=68	=68	=68	=68	=68	=68	=68	=68
4C 4FF	16F<^>LL	.	.	4A	.	2rdd	.
.	16B-<	.	.	.	.	.	.
.	16A<^>	.	.	.	.	.	.
.	16d<JJ	.	.	.	.	.	.
4A	16c^>\LL	.	.	4F)	.	.	.
.	16g	.	.	.	.	.	.
.	16f^>	.	.	.	.	.	.
.	16aJJ	.	.	.	.	.	.
=69	=69	=69	=69	=69	=69	=69	=69
*ped	*	*	*	*	*	*	*
4F 4FF	(>16d\LL	.	p	(>4B-	>	2rdd	.
.	16b-	.	.	.	.	.	.
.	16f	.	.	.	.	.	.
.	16ffJJ	.	.	.	.	.	.
4d 4B- 4F	16b-\LL	.	.	4F	]	.	.
.	16bb-	.	.	.	.	.	.
.	16dd	.	.	.	.	.	.
*Xped	*	*	*	*	*	*	*
.	16fffJJ)	.	.	.	.	.	.
=70	=70	=70	=70	=70	=70	=70	=70
*ped	*	*	*	*	*	*	*
4F 4FF	(>16c\LL	.	.	8A`>L)	.	2rdd	.
.	16a	.	.	.	.	.	.
.	16f	.	.	8AJ	.	.	.
.	16ccJJ	.	.	.	.	.	.
.	.	.	.	16qqA/LL	.	.	.
.	.	.	.	16qqG/JJ	.	.	.
4c 4A 4F	16a\LL	.	.	4F	.	.	.
.	16ff	.	.	.	.	.	.
.	16cc	.	.	.	.	.	.
*Xped	*	*	*	*	*	*	*
.	16fffJJ)	.	.	.	.	.	.
=71	=71	=71	=71	=71	=71	=71	=71
*ped	*	*	*	*	*	*	*
4F 4FF	(>16d\LL	.	.	(>4B-	>	2rdd	.
.	16b-	.	.	.	.	.	.
.	16f	.	.	.	.	.	.
.	16ffJJ	.	.	.	.	.	.
4d 4B- 4F	16b-\LL	.	.	4F	]	.	.
.	16bb-	.	.	.	.	.	.
.	16dd	.	.	.	.	.	.
*Xped	*	*	*	*	*	*	*
.	16fffJJ)	.	.	.	.	.	.
!!LO:LB:g=original
=72	=72	=72	=72	=72	=72	=72	=72
*ped	*	*	*	*	*	*	*
4F/ 4FF/	(>16c\LL	.	.	8A`>L)	.	2rdd	.
.	16a	.	.	.	.	.	.
.	16f	.	.	(>8AJ	.	.	.
.	16ccJJ	.	.	.	.	.	.
4c 4A 4F	16aLL	.	.	4F)	.	.	.
.	16ff	.	.	.	.	.	.
.	16cc	.	.	.	.	.	.
*Xped	*	*	*	*	*	*	*
.	16fffJJ)	.	.	.	.	.	.
=73	=73	=73	=73	=73	=73	=73	=73
4en 4B- 4G	(>16eeenLL	.	.	(>4G	>	2rdd	.
.	16bb-	.	.	.	.	.	.
.	16gg	.	.	.	.	.	.
.	16eenJJ	.	.	.	.	.	.
4f 4Bn 4G#X	16bnLL	.	.	4F	]	.	.
.	16dd	.	.	.	.	.	.
.	16ff	.	.	.	.	.	.
.	16dddJJ	.	.	.	.	.	.
!!LO:PB:g=original
=74	=74	=74	=74	=74	=74	=74	=74
4en 4c#X 4A	16ccc#XLL	.	.	4En)	.	2rdd	.
.	16aa	.	.	.	.	.	.
.	16een	.	.	.	.	.	.
.	16aJJ	.	.	.	.	.	.
8r	16cc#XLL	.	.	(>4A	.	.	.
.	16a	.	.	.	.	.	.
(<8AA	16en	.	<	.	.	.	.
.	16AJJ)	.	.	.	.	.	.
=75	=75	=75	=75	=75	=75	=75	=75
8BB-L)	16G<LL	.	[<	8GL	>	2rdd	.
.	16en	.	.	.	.	.	.
(>16AAL	16d	.	.	8F	.	.	.
16BB-JJ	16G<JJ	.	.	.	.	.	.
8BBn\L)	16G#X<LL	.	.	8En	.	.	.
.	16e	.	.	.	.	.	.
(>16AA#XL	16d	.	.	8DJ)	]	.	.
16BBJJ	16G#<JJ	.	.	.	.	.	.
=76	=76	=76	=76	=76	=76	=76	=76
!	!	!	!	!	!LO:DY:rj	!	!
2C#X)	16Gn<LL	.	fz	2En^<	p	4r	.
.	16A<	.	.	.	.	.	.
.	16en	.	<	.	.	.	.
.	16gJJ	.	.	.	.	.	.
.	16aLL	.	.	.	.	8r	.
.	16een	.	.	.	.	.	.
!	!	!	!	!	!	!LO:TX:B:a:i:t=espress.	!
.	16aa	.	.	.	.	(<8A	.
.	16aJJ	.	[	.	.	.	.
!!LO:LB:g=original
=77	=77	=77	=77	=77	=77	=77	=77
16DLL	16f`<LL	.	p	8D	.	4a	.
16d	(<16a 16f	.	<	.	.	.	.
16c#X	16b- 16g	.	.	8r	.	.	.
16dJJ	16aJJ 16f)	.	[	.	.	.	.
16ALL	16dd/`<LL	.	.	8r	.	4d	.
16d	16a 16f	.	.	.	.	.	.
16D	16ff`<	.	.	(>8A	<	.	.
16dJJ	16aJJ 16f	.	.	.	.	.	.
=78	=78	=78	=78	=78	=78	=78	=78
16DLL	16r	.	.	4B-X	[>	8gL)	.
16en	16b-\LL 16g\	.	.	.	.	.	.
16c#X	16cc#X	.	.	.	.	8gJ	.
16eJJ	16b-JJ 16g	.	.	.	.	.	.
16B-LL	16een\`>LL	.	.	4C#X)	]	4en	.
16e	16b- 16g	.	.	.	.	.	.
16C#X	16bb-`>	.	.	.	.	.	.
16eJJ	16b-JJ 16g	.	.	.	.	.	.
=79	=79	=79	=79	=79	=79	=79	=79
16CnLL	16r	.	.	2Cn^<	.	(<4a	.
16d	16aLL 16f#X	.	<	.	.	.	.
16A	16dd	.	.	.	.	.	.
16dJJ	16aJJ 16f#	.	[	.	.	.	.
16F#XLL	16ff#X/`<LL	.	<	.	.	4d	.
16d	16a 16f#	.	.	.	.	.	.
16D	16aa`<	.	.	.	.	.	.
16dJJ	16aJJ 16f#	.	.	.	.	.	.
=80	=80	=80	=80	=80	=80	=80	=80
16BBn`>LL	16r	.	.	(<4BBn	.	8gL)	.
(>16d	(<16gLL	.	.	.	.	.	.
16G	16dd	.	.	.	.	8gJ	.
16dJJ)	16gJJ)	.	.	.	.	.	.
.	.	.	.	.	.	16qqg/LL	.
.	.	.	.	.	.	16qqf/JJ	.
16BB-X`>LL	16r	.	.	4BB-X	.	4en	.
(>16d	(<16g#XLL	.	.	.	.	.	.
16G#X	16dd	.	.	.	.	.	.
16dJJ)	16g#JJ)	.	.	.	.	.	.
=81	=81	=81	=81	=81	=81	=81	=81
16AA`>LL	16r	.	.	4AA)	.	4a	.
(>16c#X	(>16gnyLL	.	.	.	.	.	.
16A	16een	.	.	.	.	.	.
16EnJJ	16aaJJ	.	.	.	.	.	.
16DLL)	16ff#XLL)	.	.	(</4D	.	4d	.
(>16d	(>16f#	.	.	.	.	.	.
16A	16ccny	.	.	.	.	.	.
16F#XJJ	16aaJJ	.	.	.	.	.	.
!!LO:LB:g=original
=82	=82	=82	=82	=82	=82	=82	=82
16GGLL)	16ddLL)	.	.	4GG)	.	8gL	.
(>16Bn	(>16fny	.	.	.	.	.	.
16G	16bn	.	.	.	.	8gJ	.
16DJJ	16ggJJ	.	.	.	.	.	.
16CLL)	16eenLL)	.	.	(<4C	.	4c	.
(>16c	(>16eny	.	.	.	.	.	.
16G	16b-X	.	.	.	.	.	.
16EnJJ	16ggJJ	.	.	.	.	.	.
=83	=83	=83	=83	=83	=83	=83	=83
16FFLL)	16ccLL)	.	.	4FF)	.	4f	.
(>16A	(>16e-X	.	.	.	.	.	.
16F	16a	.	.	.	.	.	.
16CJJ	16ffJJ	.	.	.	.	.	.
16BB-LL)	16ddLL)	.	.	[<4BB-^>	.	(<4B-	.
(16B-	(<16d	.	.	.	.	.	.
16F	16f	.	.	.	.	.	.
16DJJ	16gJJ	.	.	.	.	.	.
!!LO:LB:g=original
=84	=84	=84	=84	=84	=84	=84	=84
16BB-LL)	16g#XLL)	.	.	(>4BB-]	.	8dL	.
16B-	16d	.	.	.	.	.	.
!	!	!	!	!	!	!	!LO:HP:a
16G#X	16dd	.	.	.	.	16c#XL	.
16EnJJ	16eenJJ	.	.	.	.	16dJJ	.
16AALL	16gnLL	.	<	4AA	.	4en)	[
16A	16c#X	.	.	.	.	.	.
16Gn	16cc#X	.	.	.	.	.	.
16EJJ	16eeJJ	.	[	.	.	.	.
=85	=85	=85	=85	=85	=85	=85	=85
*^	*^	*	*	*	*	*	*
4D/	8DL	16r	16rffyy	.	f	4D	.	(<4a	.
.	.	8.aL	16fLL	.	.	.	.	.	.
.	8A\J 8F\	.	16d	.	.	.	.	.	.
.	.	.	16fJJ	.	.	.	.	.	.
4rAyy	8En\L	16g#XJk	16Bn	.	.	4En)	.	4d	.
.	.	8bbnL	16gg#XKL	.	.	.	.	.	.
.	8d\J 8Bn\	.	8eenJ	.	.	.	.	.	.
.	.	16eeenJk	.	.	.	.	.	.	.
*v	*v	*	*	*	*	*	*	*	*
=86	=86	=86	=86	=86	=86	=86	=86	=86
*	*	*8va	*	*	*	*	*	*
!	!	!	!	!	!	!LO:DY:rj	!	!
8AAL	8gggnyL	16ccc#XLL	.	.	8B-^'L	p	4c#X)	.
.	.	16ddd	.	.	.	.	.	.
8enJ 8G	8gggJ	16eeen	.	.	(>8B-J	.	.	.
.	.	16bb-XJJ	.	.	.	.	.	.
8C#XL	4eeeny	16aaLL	.	.	4C#X)	.	8r	.
.	.	16gg	.	.	.	.	.	.
!	!	!	!	!	!	!	!	!LO:DY:rj
8eJ 8A 8G	.	16ff	.	.	.	.	8b-	p
.	.	16eenJJ	.	.	.	.	.	.
!!LO:LB:g=original
=87	=87	=87	=87	=87	=87	=87	=87	=87
*	*	*X8va	*	*	*	*	*	*
!	!	!LO:TX:a:B:i:t=loco.	!	!	!	!	!	!
8DL	16r	16rByy	.	.	4D	<	(<4a	.
.	8.aL	16fLL	.	.	.	.	.	.
8AJ 8F	.	16d	.	.	.	.	.	.
.	.	16fJJ	.	.	.	.	.	.
8EnL	16g#XJk	16Bn\	.	.	4En	[	4d	.
.	8bbnL	16gg#XKL	.	.	.	.	.	.
8dJ 8Bn	.	8eenJ	.	.	.	.	.	.
.	16eeenJk	.	.	.	.	.	.	.
=88	=88	=88	=88	=88	=88	=88	=88	=88
*	*	*8va	*	*	*	*	*	*
8AAL	8gggnyL	16ccc#XLL	.	.	8B-'L	>	4c#X)	.
.	.	16ddd	.	.	.	.	.	.
8enJ 8G	8gggJ	16eeen	.	.	(>8B-J	.	.	.
.	.	16bb-XJJ	.	.	.	.	.	.
8C#XL	4eee	16aaLL	.	.	4C#X)	]	8r	.
.	.	16bb-	.	.	.	.	.	.
8eJ 8A	.	16gg	.	.	.	.	(<8b-	.
.	.	16aaJJ	.	.	.	.	.	.
!!LO:LB:g=original
=89	=89	=89	=89	=89	=89	=89	=89	=89
4D	16ddd/ 16ff/	16rGyy	.	ff	8D	]	4a	.
*	*	*X8va	*	*	*	*	*	*
!	!	!LO:TX:a:B:i:t=loco.	!	!	!	!	!	!
.	8aL	16f^<KL	.	.	.	.	.	.
.	.	8dJ	.	.	8r	.	.	.
!	!LO:TX:B:i:t=marcato.	!	!	!	!	!	!	!
.	16ddJk	.	.	.	.	.	.	.
4GG 4GGG	16raayy	16b- 16g	.	.	4r	.	8b-^>L	.
.	8bb-L	16gg^<KL	.	.	.	.	.	.
.	.	8ddJ	.	.	.	.	16aL	.
.	16dddJk	.	.	.	.	.	16gJJ)	.
=90	=90	=90	=90	=90	=90	=90	=90	=90
!	!	!	!	!	!LO:TX:a:B:t=1	!	!	!
8DL 8DD	16aa 16ff	16rAyy	.	.	2r	.	(<4f^<	.
.	8aL	16f^<KL	.	.	.	.	.	.
8DJ 8DD	.	8dJ	.	.	.	.	.	.
.	16ddJk	.	.	.	.	.	.	.
4BB-X 4BBB-X	16rcccyy	16g#X 16f	.	.	.	.	4d))	p
.	8gg#XL	16ff^<KL	.	.	.	.	.	.
.	.	8ddJ	.	.	.	.	.	.
.	16dddJk	.	.	.	.	.	.	.
=91	=91	=91	=91	=91	=91	=91	=91	=91
4AA 4AAA	16aa\ 16ff\	16rcyy	.	.	(>4F	p	2rdd	.
.	8aL	16fKL	.	.	.	.	.	.
.	.	8dJ	.	.	.	.	.	.
.	16ddJk	.	.	.	.	.	.	.
4GG#X 4GGG#X	16raayy	16bn 16f	.	.	4D)	.	.	.
!	!	!LO:TX:t=cres _:problem:dynamics with extention lines 	!	!	!	!	!	!
!	!	!	!	!LO:HP:Bi:t=cres	!	!	!	!
.	8bbnL	16ffKL	.	<	.	.	.	.
.	.	8ddJ	.	.	.	.	.	.
.	16dddJk	.	.	[	.	.	.	.
!!LO:PB:g=original
=92	=92	=92	=92	=92	=92	=92	=92	=92
!	!	!	!	!	!LO:TX:a:B:t=1	!	!	!
8FL 8FF	16ryy	16bbn 16gg#X	.	.	2r	.	2rdd	.
.	8bnL	16g#KL	.	.	.	.	.	.
8FJ 8FF	.	8dJ	.	.	.	.	.	.
.	16ddJk	.	.	.	.	.	.	.
4D 4DD	16b/ 16f/	16ryy	.	.	.	.	.	.
.	8bbL	16ffKL	.	.	.	.	.	.
.	.	8ddJ	.	.	.	.	.	.
.	16dddJk	.	.	.	.	.	.	.
*	*v	*v	*	*	*	*	*	*
=93	=93	=93	=93	=93	=93	=93	=93
*	*	*^	*	*	*	*	*
*ped	*	*	*	*	*	*	*	*
!	!	!	!	!	!	!	!LO:TX:B:a:i:t=poco a poco cres-cen-do.	!
2GG#X\ 2GGG#X\	16bbn 16ff	.	.	fz	[<2GG#X	p	(<4f	.
.	16r	.	.	.	.	.	.	.
!	!LO:TX:t=P:problem:palcowanie pod nutami	!	!	!	!	!	!	!
.	(<16D<LL	.	2	.	.	.	.	.
.	16F<JJ	.	1	.	.	.	.	.
.	16fLL	.	.	p	.	.	4d	.
.	16Bn	.	.	.	.	.	.	.
.	16d	.	.	.	.	.	.	.
*Xped	*	*	*	*	*	*	*	*
.	16bnJJ)	.	.	.	.	.	.	.
=94	=94	=94	=94	=94	=94	=94	=94	=94
*ped	*	*	*	*	*	*	*	*
2GG#X\ 2GGG#X\	8d#X`<	.	.	.	2GG#X_<	<	8f#XL	.
!	!LO:TX:t=P:problem:palcowanie pod nutami	!	!	!	!	!	!	!
.	(<16D#X<LL	.	2	.	.	.	8f#J	.
.	16F#X<JJ	.	1	.	.	.	.	.
.	16f#XLL	.	.	.	.	.	4d#X	.
.	16B#X	.	.	.	.	.	.	.
.	16d#	.	.	.	.	.	.	.
*Xped	*	*	*	*	*	*	*	*
.	16b#XJJ)	.	.	.	.	.	.	.
=95	=95	=95	=95	=95	=95	=95	=95	=95
*ped	*	*	*	*	*	*	*	*
2GG#X\ 2GGG#X\	8en`<	.	.	.	2GG#X_<	.	4g#X	.
!	!LO:TX:t=P:problem:palcowanie pod nutami	!	!	!	!	!	!	!
.	(<16En<LL	.	2	.	.	.	.	.
.	16G#X<JJ	.	1	.	.	.	.	.
.	16g#XLL	.	.	.	.	.	4en	.
.	16c#X	.	.	.	.	.	.	.
.	16en	.	.	.	.	.	.	.
*Xped	*	*	*	*	*	*	*	*
.	16cc#JJ)	.	.	<	.	.	.	.
=96	=96	=96	=96	=96	=96	=96	=96	=96
*ped	*	*	*	*	*	*	*	*
2GG#X/ 2GGG#X/	(>16dnyLL	.	2	.	2GG#X]	.	8bnL	.
.	16en	.	1	.	.	.	.	.
.	16een	.	.	.	.	.	8bJ	.
.	16bnJJ	.	.	.	.	.	.	.
!	!	!	!	!	!	!	!	!LO:DY:a
.	16ddLL	.	.	.	.	.	4en)	pp
.	16een	.	.	.	.	.	.	.
.	16eeen	.	.	[	.	.	.	.
*Xped	*	*	*	*	*	*	*	*
.	16bbnJJ)	.	.	.	.	.	.	.
*	*	*v	*v	*	*	*	*	*
!!LO:LB:g=original
=97	=97	=97	=97	=97	=97	=97	=97
*ped	*	*	*	*	*	*	*
!	!	!	!	!	!	!LO:TX:t=P:problem:brak zakończenia łuku	!
!	!	!	!	!	!	!	!LO:DY:rj
4AA`< 4AAA	(>16ccc#XLL	.	pp	4AA	p	(>4een	p
.	16een	.	.	.	.	.	.
.	16dd#X	.	.	.	.	.	.
.	16ddnJJ	.	.	.	.	.	.
4c#X 4A 4En	16aa^<LL 16cc#X	.	.	4r	.	4a	.
.	16ee	.	.	.	.	.	.
*Xped	*	*	*	*	*	*	*
.	16cc#	.	.	.	.	.	.
.	16aJJ)	.	.	.	.	.	.
!!LO:PB:g=original
=98	=98	=98	=98	=98	=98	=98	=98
*ped	*	*	*	*	*	*	*
!	!	!	!	!LO:TX:a:B:t=1	!	!	!
4AA	(>16bbn^<LL 16gg#X	.	.	2r	.	8ddL`>)	.
.	16ff	.	.	.	.	.	.
.	16een	.	.	.	.	(>8ddJ	.
.	16ddJJ	.	.	.	.	.	.
4d 4G#X 4F	16gg#^<LL 16ff	.	.	.	.	4bn)	.
.	16dd	.	.	.	.	.	.
*Xped	*	*	*	*	*	*	*
.	16cc#X	.	.	.	.	.	.
.	16bnJJ)	.	.	.	.	.	.
=99	=99	=99	=99	=99	=99	=99	=99
*ped	*	*	*	*	*	*	*
!	!LO:S:s=2:note:problem:note-level slur	!	!	!	!	!	!
4AA	(>16ccc#X^<LL 16aa	.	.	4r	.	[>2een	.
.	16een	.	.	.	.	.	.
.	16dd#X	.	.	.	.	.	.
.	16ddnJJ	.	.	.	.	.	.
4c#X 4A 4En	16aa^<LL 16cc#X	.	.	(<4AA	.	.	.
.	16ee	.	.	.	.	.	.
*Xped	*	*	*	*	*	*	*
.	16cc#	.	.	.	.	.	.
.	16aJJ	.	.	.	.	.	.
=100	=100	=100	=100	=100	=100	=100	=100
*ped	*	*	*	*	*	*	*
4BB-X	16een\LL 16gny\	.	>	2BB-	.	2eenX]	.
.	16cc#X	.	.	.	.	.	.
.	16b-	.	.	.	.	.	.
.	16gJJ	.	]	.	.	.	.
4G 4En	16c#XLL	.	.	.	.	.	.
.	16b-	.	.	.	.	.	.
*Xped	*	*	*	*	*	*	*
.	16g	.	.	.	.	.	.
.	16c#JJ)	.	.	.	.	.	.
=101	=101	=101	=101	=101	=101	=101	=101
*	*^	*	*	*	*	*	*
*ped	*	*	*	*	*	*	*	*
4BB-	4b-	(>16dLL	.	.	4BB-'<)	p	(>4ff	.
.	.	16e-	.	.	.	.	.	.
.	.	16en	.	.	.	.	.	.
.	.	16gJJ)	.	.	.	.	.	.
4d 4F	(<16dd'>LL	4f^	.	.	4r	.	4b-X	.
.	16ccny	.	.	.	.	.	.	.
.	16b-	.	.	.	.	.	.	.
*Xped	*	*	*	*	*	*	*	*
.	16dJJ)	.	.	.	.	.	.	.
!!LO:LB:g=original
=102	=102	=102	=102	=102	=102	=102	=102	=102
4BB-	4a	(>16e-LL	.	.	4r	.	8ee-`>L)	.
.	.	16en	.	<	.	.	.	.
.	.	16f	.	.	.	.	(>8ee-J	.
.	.	16a-XJJ)	.	.	.	.	.	.
*	*	*	*	*	*clefC4	*	*	*
4e- 4Any 4G-X	(>16ee-XLL	4g-X	.	>	(>4e-	.	4cc)	.
.	16cc	.	.	.	.	.	.	.
.	16an	.	.	.	.	.	.	.
.	16e-yJJ)	.	.	]	.	.	.	.
*	*v	*v	*	*	*	*	*	*
=103	=103	=103	=103	=103	=103	=103	=103
!	!	!	!	!	!LO:DY:rj	!	!
4BB-	(<16b-LL	.	.	4f	pp>	(>4dd^<	.
.	16d	.	.	.	.	.	.
.	16e-	.	.	.	.	.	.
.	16enJJ	.	.	.	.	.	.
4d 4B- 4F	16fLL	.	.	4B-	]	8ccL	.
.	16dd	.	.	.	.	.	.
.	16b-	.	.	.	.	8b-J	.
.	16dJJ	.	.	.	.	.	.
=104	=104	=104	=104	=104	=104	=104	=104
*	*^	*	*	*	*	*	*
!	!	!	!	!	!LO:TX:B:i:t=sempre delicato.	!	!	!
4BB-	16aLL	4.rAyy	.	.	8e-L)	.	4.cc)	.
.	16e-X	.	.	.	.	.	.	.
.	16en	.	.	.	(>8e-J	.	.	.
.	16fJJ	.	.	.	.	.	.	.
4e- 4A 4G-X	16g-XLL	.	.	.	4c^>)	.	.	.
.	16ee-	.	.	.	.	.	.	.
.	16a	8a	.	.	.	.	(>8dd	.
.	16e-XJJ)	.	.	.	.	.	.	.
=105	=105	=105	=105	=105	=105	=105	=105	=105
4B- 4BB-	16b-LL 16d	4rAyy	.	.	4d	.	8b-)	.
.	16e-	.	.	.	.	.	.	.
.	16gny	.	.	.	.	.	8r	.
!	!LO:TX:B:i:t=con forza.	!	!	!	!	!	!	!
.	16fJJ	.	.	.	.	.	.	.
4D 4DD	8.aL	16aLL	.	.	8cL	.	4r	.
.	.	16B-	.	.	.	.	.	.
.	.	16f	.	.	8B-J	.	.	.
.	16b-Jk	16b-JJ	.	.	.	.	.	.
=106	=106	=106	=106	=106	=106	=106	=106	=106
8E-L 8EE-	4cc	16gLL	.	.	4.G	.	2rdd	.
.	.	16a	.	.	.	.	.	.
8E-J 8EE-	.	16g	.	.	.	.	.	.
.	.	16cJJ	.	.	.	.	.	.
4C 4CC	4ee-	16gLL	.	.	.	.	.	.
.	.	16a	.	.	.	.	.	.
.	.	16g	.	.	8c	.	.	.
.	.	16e-JJ	.	.	.	.	.	.
!!LO:LB:g=original
=107	=107	=107	=107	=107	=107	=107	=107	=107
4D 4DD	4dd	16f#XLL	.	.	2A	.	2rdd	.
.	.	16g	.	.	.	.	.	.
.	.	16b-	.	.	.	.	.	.
.	.	16aJJ	.	.	.	.	.	.
4d 4D	8.ff#XL	16ff#XLL	.	.	.	.	.	.
.	.	16f#X	.	.	.	.	.	.
.	.	16a	.	.	.	.	.	.
.	16ddJk	16ddJJ	.	.	.	.	.	.
=108	=108	=108	=108	=108	=108	=108	=108	=108
8e-XL 8E-X	4cc	16gLL	.	.	4.G	.	2rdd	.
.	.	16g#X	.	.	.	.	.	.
8e-J 8E-	.	16a	.	.	.	.	.	.
.	.	16b-JJ	.	.	.	.	.	.
4c 4C	8.aaL	16bnLL	.	<	.	.	.	.
.	.	16cc	.	.	.	.	.	.
.	.	16dd	.	.	8c	.	.	.
.	16ggnyJk	16ee-JJ	.	.	.	.	.	.
*	*v	*v	*	*	*	*	*	*
=109	=109	=109	=109	=109	=109	=109	=109
8d: 8A: 8F#X: 8D:	8ff#X:/ 8dd:/ 8a:/ 8f#X:/	.	.	8A	.	2rdd	.
8ryy	8r	.	.	8r	.	.	.
4rEE	16C#X<LL	.	p	4r	.	.	.
.	16D<	.	.	.	.	.	.
.	16E-<T<	.	.	.	.	.	.
.	16D<JJ	.	.	.	.	.	.
=110	=110	=110	=110	=110	=110	=110	=110
2rD	16G<^>LL	.	.	2r	.	2rdd	.
.	16F#X<	.	.	.	.	.	.
.	16B-<^>	.	.	.	.	.	.
.	16A<JJ	.	.	.	.	.	.
.	16e-^<LL	.	.	.	.	.	.
.	16d	.	.	.	.	.	.
.	16g^<	.	.	.	.	.	.
.	16f#XJJ	.	.	.	.	.	.
=111	=111	=111	=111	=111	=111	=111	=111
2rF	16b-LL	.	.	2r	.	2rdd	.
.	16a	.	.	.	.	.	.
.	16ee-	.	.	.	.	.	.
.	16ddJJ	.	.	.	.	.	.
.	16ggLL	.	<	.	.	.	.
.	16ff#X	.	.	.	.	.	.
.	16bb-	.	.	.	.	.	.
.	[>16aaJJ	.	.	.	.	.	.
!!LO:LB:g=original
=112	=112	=112	=112	=112	=112	=112	=112
*	*^	*	*	*	*	*	*
2rF	[>4ccc	16aaLL]	.	.	2r	.	2rdd	.
.	.	16gg#X	.	.	.	.	.	.
.	.	16aa	.	.	.	.	.	.
.	.	16ggnJJ	.	.	.	.	.	.
.	16cccLL]	8ff#XL	.	.	.	.	.	.
.	16bb-	.	.	.	.	.	.	.
.	(<16aa	8aaJ	.	.	.	.	.	.
.	16dddJJ	.	.	.	.	.	.	.
=113	=113	=113	=113	=113	=113	=113	=113	=113
!	!	!	!	!LO:HP:B:t=diminuendo.	!	!	!	!
2rF	[>4ccc	16aaLL)	.	>	2r	.	2rdd	.
.	.	16gg#X	.	.	.	.	.	.
.	.	16aa	.	.	.	.	.	.
.	.	16ggnJJ	.	.	.	.	.	.
.	16cccLL]	8ff#XL	.	.	.	.	.	.
.	16bb-	.	.	.	.	.	.	.
.	16aa	[<8aaJ	.	.	.	.	.	.
.	16dddJJ	.	.	.	.	.	.	.
=114	=114	=114	=114	=114	=114	=114	=114	=114
2rF	8.cccL	16aaLL]	.	.	2r	.	2rdd	.
.	.	16ggJ	.	.	.	.	.	.
.	.	[<8ff#XJ	.	.	.	.	.	.
.	16eee-Jk	.	.	.	.	.	.	.
.	4ddd	16ff#LL]	.	.	.	.	.	.
.	.	16gg	.	.	.	.	.	.
.	.	16gg#X	.	.	.	.	.	.
.	.	[>16aaJJ	.	.	.	.	.	.
=115	=115	=115	=115	=115	=115	=115	=115	=115
2rF	8.cccL	16aaLL]	.	.	2r	.	2rdd	.
.	.	16ggnyJ	.	.	.	.	.	.
.	.	[<8ff#XJ	.	.	.	.	.	.
.	16eee-Jk	.	.	.	.	.	.	.
.	4ddd	16ff#LL]	.	.	.	.	.	.
.	.	16gg	.	.	.	.	.	.
.	.	16gg#X	.	.	.	.	.	.
.	.	[>16aaJJ	.	.	.	.	.	.
=116	=116	=116	=116	=116	=116	=116	=116	=116
!	!	!LO:TX:i:B:t=rallentando.	!	!	!LO:TX:B:a:i:t=rallent.	!	!LO:TX:B:a:i:t=rallent.	!
2rF	2ccc	16aaLL]	.	.	2r	.	2rdd	.
.	.	16aa'>	.	.	.	.	.	.
.	.	16gg#X'>	.	.	.	.	.	.
.	.	16ggn'>JJ	.	.	.	.	.	.
.	.	16ff#X'>LL	.	p	.	.	.	.
.	.	16ffn'>	.	.	.	.	.	.
.	.	16een'>	.	.	.	.	.	.
.	.	16ee-X'>JJ	.	.	.	.	.	.
*	*v	*v	*	*	*	*	*	*
!	!	!	!	!LO:TX:B:b:t=1.	!	!LO:TX:B:b:t=1	!
!!LO:PB:g=original
=117	=117	=117	=117	=117	=117	=117	=117
*^	*	*	*	*	*	*	*
!	!	!LO:TX:a:i:B:t=a Tempo.	!	!	!LO:TX:t=P:problem: liczby: "6", "2" i "12" pod pięciolinią	!	!LO:TX:B:a:i:t=Tempo 1|o.	!
!	!	!	!	!	!LO:TX:B:a:i:t=Tempo 1|o.	!	!	!
.	.	8qdd/	.	.	.	.	.	.
8DD/L	8rFFFyy	4ddd	.	.	2r	.	2rdd	.
8D/J	4.D\	.	.	.	.	.	.	.
4d\ 4cny\ 4A\	.	(>16ccc#XLL	.	.	.	.	.	.
.	.	16ddd	.	.	.	.	.	.
.	.	16eeen	.	.	.	.	.	.
.	.	16fff#XJJ	.	.	.	.	.	.
=118	=118	=118	=118	=118	=118	=118	=118	=118
8GGL	8rBBByy	8ggg`>L)	.	.	2r	.	2rdd	.
8DJ	4.D	8bb-`>J	.	.	.	.	.	.
4d\ 4B-\ 4G\	.	4ddd^^>	.	.	.	.	.	.
=119	=119	=119	=119	=119	=119	=119	=119	=119
8GGL	8rFFFyy	4aa	.	.	2r	.	2rdd	.
8DJ	4.D	.	.	.	.	.	.	.
4d\ 4c\ 4F#X\	.	(>16gg#XLL	.	.	.	.	.	.
.	.	16aa	.	.	.	.	.	.
.	.	16bb-	.	.	.	.	.	.
.	.	16aaJJ)	.	.	.	.	.	.
=120	=120	=120	=120	=120	=120	=120	=120	=120
8GGL	8rAAAyy	8ggn`>L	.	.	2r	.	2rdd	.
8DJ	4.D	8bb-`>J	.	.	.	.	.	.
4d\ 4B-\ 4G\	.	4dd^^>	.	.	.	.	.	.
=121	=121	=121	=121	=121	=121	=121	=121	=121
8GGL	8rAAAyy	4ddd	.	.	2r	.	2rdd	.
8DJ	4.D	.	.	.	.	.	.	.
4d\ 4c\ 4A\	.	(>16ccc#XLL	.	.	.	.	.	.
.	.	16ddd	.	.	.	.	.	.
.	.	16eee-	.	.	.	.	.	.
.	.	16dddJJ	.	.	.	.	.	.
=122	=122	=122	=122	=122	=122	=122	=122	=122
*	*	*	*	*	*	*	*^	*
*	*	*	*	*	*	*	*cue	*	*
!	!	!	!	!	!	!	!LO:TX:B:t=Pfte.	!	!
8GGL	8rAAAyy	8ggg`>L)	.	.	2r	.	8ggg\L	2rg	.
8DJ	4.D	8bb-`>J	.	.	.	.	8bb-J	.	.
!	!	!LO:TX:B:i:t=poco ritenuto.	!	!	!	!	!	!	!
4d\ 4B-\ 4G\	.	4ddd^^>	.	.	.	.	4ddd\	.	.
=123	=123	=123	=123	=123	=123	=123	=123	=123	=123
!	!	!	!	!	!LO:TX:B:a:i:t=rallent.	!	!LO:TX:B:i:t=ritenuto.	!	!
8BB-L	8rCCyy	8dddL	.	.	2r	.	8ddd\L	2rg	.
8DJ	4.D	8bb-J	.	.	.	.	8bb-J	.	.
4d\ 4B-\ 4F\	.	[>4ddd	.	.	.	.	4ddd\	.	.
!!LO:LB:g=original
*	*	*	*	*	*	*	*Xcue	*	*
*	*	*	*	*	*	*	*v	*v	*
=124	=124	=124	=124	=124	=124	=124	=124	=124
8BBB-/L	8rDDDyy	16dddLL]	.	>	2r	.	8r	.
.	.	(>16bb-	.	.	.	.	.	.
8D/J	4.D\	16ff	.	]	.	.	8b-	.
.	.	16ddJJ	.	.	.	.	.	.
8d\ 8B-\ 8F\	.	16b-LL	.	.	.	.	[>4dd^<	.
.	.	16f	.	.	.	.	.	.
8r	.	16d	.	.	.	.	.	.
.	.	16B-JJ)	.	.	.	.	.	.
=125	=125	=125	=125	=125	=125	=125	=125	=125
*ped	*	*	*	*	*	*	*	*
!	!	!LO:TX:B:a:i:t=a Tempo.	!	!	!LO:TX:B:a:i:t=Tempo 1|o.	!	!LO:TX:B:a:i:t=Tempo 1|o.	!
!	!LO:N:vis=8.	!	!	!	!	!	!	!
8rFyy	8AAAL	(>16D<LL	.	.	2r	.	4dd]	.
.	.	16F#<X	.	.	.	.	.	.
8AAL	8.AAJ	16c<	.	.	.	.	.	.
.	.	16d<JJ	.	.	.	.	.	.
16DJk	.	16f#XLL	.	.	.	.	(>16cc#XLL	.
*Xped	*	*	*	*	*	*	*	*
16r	16rCCyy	16a	.	.	.	.	16dd	.
8r	8rCCyy	16dd	.	.	.	.	16een	.
.	.	16dddJJ	.	[	.	.	16ff#XJJ	.
!!LO:LB:g=original
=126	=126	=126	=126	=126	=126	=126	=126	=126
*	*^	*	*	*	*	*	*	*
*ped	*	*	*	*	*	*	*	*	*
!	!LO:N:vis=8.	!	!	!	!	!	!	!	!
8rFyy	8GGGL	4.ryy	16bb-LL	.	.	2r	.	8ggL)	.
.	.	.	16gg	.	.	.	.	.	.
!	!LO:N:vis=8	!	!	!	!	!	!	!	!
8GGL	8.GGJ	.	16dd	.	.	.	.	8b-`>J	.
.	.	.	16ccJJ	.	.	.	.	.	.
16DJk	.	.	16b-\LL	.	>	.	.	4dd^>	.
16r	16rFFFyy	.	16g	.	.	.	.	.	.
*Xped	*	*	*	*	*	*	*	*	*
8r	8rEEEyy	8rGGGGyy	16d	.	.	.	.	.	.
.	.	.	16B-JJ)	.	]	.	.	.	.
=127	=127	=127	=127	=127	=127	=127	=127	=127	=127
!	!	!	!LO:TX:B:t=P:mixed beam:problem	!	!	!	!	!	!
*ped	*	*	*	*	*	*	*	*	*
!	!LO:N:vis=8.	!	!	!	!	!	!	!	!
8ryy	8GGGL	4.ryy	(>16E-</LL>	.	.	2r	.	4a	.
.	.	.	16F#X</	.	.	.	.	.	.
8GGL	8.GGJ	.	16A</	.	.	.	.	.	.
.	.	.	16e-\JJ	.	.	.	.	.	.
16E-Jk	.	.	16f#XLL	.	<	.	.	(<16g#XLL	.
*Xped	*	*	*	*	*	*	*	*	*
16r	16rDDyy	.	16a	.	.	.	.	16a	.
8r	8rDDyy	8rDDDyy	16ee-	.	.	.	.	16b-	.
*ped	*	*	*	*	*	*	*	*	*
.	.	.	16cccJJ	.	[	.	.	16aJJ	.
=128	=128	=128	=128	=128	=128	=128	=128	=128	=128
!	!LO:N:vis=8.	!	!	!	!	!	!	!	!
8rFyy	8GGGL	4.ryy	16bb-LL	.	.	2r	.	8gnyL)	.
.	.	.	16gg	.	.	.	.	.	.
8GGL	8.GGJ	.	16dd	.	.	.	.	8b-`<J	.
.	.	.	16ccJJ	.	.	.	.	.	.
16DJk	.	.	16b-\LL	.	>	.	.	(>4d^<	.
16r	16rCCyy	.	16g	.	.	.	.	.	.
*Xped	*	*	*	*	*	*	*	*	*
8r	8rBBByy	8rDDDyy	16d	.	.	.	.	.	.
.	.	.	16B-JJ)	.	]	.	.	.	.
!!LO:LB:g=original
=129	=129	=129	=129	=129	=129	=129	=129	=129	=129
*ped	*	*	*	*	*	*	*	*	*
8rFyy	8GGGL	4.GGG/	(>16D<LL	.	.	2r	.	4dd)	.
.	.	.	16A<	.	.	.	.	.	.
8GGL	8.GGJ	.	16c<	.	.	.	.	.	.
.	.	.	16d<JJ	.	.	.	.	.	.
16DJk	.	.	16aLL	.	<	.	.	(>16cc#XLL	<
16r	16rBBByy	.	16cc	.	.	.	.	16dd	.
*Xped	*	*	*	*	*	*	*	*	*
8r	8rBBByy	8rDDDyy	16dd	.	.	.	.	16een	.
*ped	*	*	*	*	*	*	*	*	*
.	.	.	16dddJJ	.	[	.	.	16ff#XJJ	[
=130	=130	=130	=130	=130	=130	=130	=130	=130	=130
8rFyy	8GGGL	4.GGG/	16bb-LL	.	.	2r	.	8gg`>L)	.
.	.	.	16gg	.	.	.	.	.	.
8GGL	8.GGJ	.	16dd	.	.	.	.	8b-J	.
.	.	.	16ccJJ	.	.	.	.	.	.
16DJk	.	.	16b-\LL	.	>	.	.	[>4dd	.
16r	16rDDyy	.	16g	.	.	.	.	.	.
8r	8rDDyy	8rCCCyy	16d	.	.	.	.	.	.
.	.	.	16B-JJ)	.	]	.	.	.	.
*	*v	*v	*	*	*	*	*	*	*
=131	=131	=131	=131	=131	=131	=131	=131	=131
4E-X\	2EE-X	(<16G<LL	.	.	2r	.	8ddL]	.
.	.	16c<^<	.	.	.	.	.	.
.	.	16g	.	.	.	.	(>8ccny	.
.	.	16ccJJ)	.	.	.	.	.	.
4E-\	.	(<16G<LL	.	.	.	.	8g	.
.	.	16c#X<	.	.	.	.	.	.
.	.	16g	.	.	.	.	8aJ	.
*ped	*	*	*	*	*	*	*	*
.	.	16cc#XJJ)	.	.	.	.	.	.
=132	=132	=132	=132	=132	=132	=132	=132	=132
8rByy	8DL 8DD	(<16A<LL	.	.	2r	.	4f#X/)	.
.	.	16d	.	.	.	.	.	.
4A	8A	16a	.	.	.	.	.	.
.	.	16ddJJ	.	.	.	.	.	.
.	8dJ	16f#X/LL	.	.	.	.	8dL	.
.	.	16a	.	.	.	.	.	.
!	!	!LO:TX:B:i:t=leggiero.	!	!	!	!	!	!
8r	8ryyyy	16dd	.	.	.	.	(<8AJ	.
*Xped	*	*	*	*	*	*	*	*
.	.	16ff#JJ)	.	.	.	.	.	.
=133	=133	=133	=133	=133	=133	=133	=133	=133
*ped	*	*	*	*	*	*	*	*
8AAL	8rAAAyy	(>16aLL	.	.	2r	.	4a	.
.	.	16aa	.	.	.	.	.	.
.	.	8qcc#/	.	.	.	.	.	.
8AJ	4.A	16bn	.	.	.	.	.	.
.	.	16aJJ	.	.	.	.	.	.
4g\ 4en\	.	16cc#XLL	.	.	.	.	16g#XLL	.
.	.	16een	.	<	.	.	16a	.
.	.	16aa	.	.	.	.	16bn	.
*Xped	*	*	*	*	*	*	*	*
.	.	16eeenJJ)	.	[	.	.	16cc#XJJ	.
!!LO:LB:g=original
=134	=134	=134	=134	=134	=134	=134	=134	=134
*ped	*	*	*	*	*	*	*	*
*	*	*8va	*	*	*	*	*	*
8DL	8rFFyy	16ddd^<LL	.	.	2r	.	8ddL)	.
.	.	16aaa	.	.	.	.	.	.
8AJ	4.A	16aa	.	.	.	.	8f#X`<J	.
.	.	16ddJJ	.	.	.	.	.	.
*	*	*X8va	*	*	*	*	*	*
!	!	!LO:TX:a:i:B:t=loco.	!	!	!	!	!	!
4f#X\ 4d\	.	16aaLL	.	.	.	.	4a^<	.
.	.	16ddd	.	.	.	.	.	.
.	.	16dd	.	.	.	.	.	.
*Xped	*	*	*	*	*	*	*	*
.	.	16aJJ	.	.	.	.	.	.
*ped	*	*	*	*	*	*	*	*
=135	=135	=135	=135	=135	=135	=135	=135	=135
8AAL	8rCCyy	(>16eenLL	.	.	2r	.	(<4en	.
.	.	16aa	.	.	.	.	.	.
.	.	8qcc#X/	.	.	.	.	.	.
8AJ	4.A	16bn	.	.	.	.	.	.
.	.	16aJJ	.	.	.	.	.	.
4g\ 4en\	.	16cc#XLL	.	.	.	.	16d#XLL	.
.	.	16ee	.	<	.	.	16e	.
.	.	16aa	.	.	.	.	16f#X	.
*Xped	*	*	*	*	*	*	*	*
.	.	16eeenJJ)	.	[	.	.	16eJJ)	.
=136	=136	=136	=136	=136	=136	=136	=136	=136
*ped	*	*	*	*	*	*	*	*
*	*	*8va	*	*	*	*	*	*
8DL	8rEEyy	16dddLL	.	.	2r	.	8dn`<L	.
.	.	16aaa	.	.	.	.	.	.
8AJ	4.A	16aa	.	.	.	.	8f#X`<J	.
.	.	16ddJJ	.	.	.	.	.	.
*	*	*X8va	*	*	*	*	*	*
!	!	!LO:TX:a:i:B:t=loco.	!	!	!	!	!	!
4f#X\ 4d\	.	16aaLL	.	.	.	.	4A	.
.	.	16ddd	.	.	.	.	.	.
.	.	16dd	.	.	.	.	.	.
.	.	16aJJ	.	.	.	.	.	.
!!LO:LB:g=original
*	*	*	*	*	*clefF4	*	*	*
=137	=137	=137	=137	=137	=137	=137	=137	=137
*	*	*	*	*	*clefF4	*	*	*
!	!	!	!	!	!LO:TX:t=P:problem: klucz F4 przed kreską taktową	!	!	!
*	*	*	*	*	*	*	*^	*
!	!	!	!	!	!	!	!	!	!LO:DY:a
8AAL	8rCCyy	8aat>L	.	.	[2A	<	[>2a	4rc	p
8AJ	4.A	(>16gg#XL	.	<	.	.	.	.	.
.	.	16aaJJ	.	.	.	.	.	.	.
4a\ 4g\ 4en\	.	16bbnLL	.	.	.	.	.	(<4g	.
.	.	16ccc#X	.	.	.	.	.	.	.
.	.	16ddd	.	.	.	.	.	.	.
.	.	16eeenJJ	.	[	.	.	.	.	.
=138	=138	=138	=138	=138	=138	=138	=138	=138	=138
*	*	*^	*	*	*	*	*	*	*
8DDL	8rGGGyy	4rccccyy	16gggnyLL	.	.	2A_	[>	2a])	2f#X	.
.	.	.	16fff#X	.	.	.	.	.	.	.
*ped	*	*	*	*	*	*	*	*	*	*
8AJ	4.A	.	16eeen	.	.	.	.	.	.	.
.	.	.	16dddJJ	.	.	.	.	.	.	.
4f#X\ 4d\	.	16raaayy	16ccc#XLL)	.	.	.	.	.	.	.
.	.	8ddd^>L	16ddd	.	.	.	.	.	.	.
*Xped	*	*	*	*	*	*	*	*	*	*
.	.	.	16ff#X	.	.	.	.	.	.	.
.	.	16ccc#Jk	16ccc#JJ	.	.	.	.	.	.	.
!!LO:LB:g=original
=139	=139	=139	=139	=139	=139	=139	=139	=139	=139	=139
*ped	*	*	*	*	*	*	*	*	*	*
8AAL	8rDDyy	4rdddyy	16bbnLL	.	.	2A]	]	(>2a/	(<2g	.
.	.	.	16aa	.	.	.	.	.	.	.
8AJ	4.A	.	16een	.	.	.	.	.	.	.
.	.	.	16ff#XJJ	.	.	.	.	.	.	.
4a\ 4g\ 4en\	.	16rcccyy	16aaLL	.	.	.	.	.	.	.
.	.	8gg^>L	16gg	.	.	.	.	.	.	.
*Xped	*	*	*	*	*	*	*	*	*	*
.	.	.	16bn	.	.	.	.	.	.	.
.	.	16ff#Jk	16cc#XJJ	.	.	.	.	.	.	.
*	*	*	*	*	*	*	*	*v	*v	*
=140	=140	=140	=140	=140	=140	=140	=140	=140	=140
4rayy	8f#X 8d	8dd	8ddL	.	.	8D	.	8f#X))	.
.	8r	8raayy	16cc#XL	.	.	8r	.	8r	.
.	.	.	16ddJJ	.	.	.	.	.	.
4cny 4A	(>8CnyL	8ee-L	16rf	.	.	(>8CL	>	4r	.
.	.	.	16a^<LL	.	.	.	.	.	.
.	16DL	8ccnJ	16anyn	.	.	16DL	.	.	.
.	16E-JJ	.	16gJJ	.	.	16E-JJ	]	.	.
=141	=141	=141	=141	=141	=141	=141	=141	=141	=141
4reyy	8c 8A 8D)	16ddLL	8f#X	.	.	8D`>)	.	2rdd	.
.	.	16a	.	.	.	.	.	.	.
.	8r	16cc#X	8re	.	.	8r	.	.	.
.	.	16ddJJ	.	.	.	.	.	.	.
4c 4A	(>8CL	8ee-L	16rd	.	.	(>8CL	>	.	.
.	.	.	16aLL	.	.	.	.	.	.
.	16DL	8ccnJ	16anyn	.	.	16DL	.	.	.
.	16E-'>JJ	.	16gJJ	.	.	16E-JJ	.	.	.
=142	=142	=142	=142	=142	=142	=142	=142	=142	=142
!	!LO:S:s=3:note:problem:note-level slur	!	!	!	!	!	!	!	!
4reyy	8c 8A 8D)	16ddLL 16f#X	4rByy	.	.	8D`>)	.	2rdd	.
.	.	16d	.	.	.	.	.	.	.
.	8r	16c#X	.	.	.	8r	.	.	.
.	.	16dJJ	.	.	.	.	.	.	.
4C 4AA	8CC/L	8e-L	16rG	.	.	4r	.	.	.
.	.	.	16A</LL	.	.	.	.	.	.
.	16DDL	8cnJ	16A<	.	.	.	.	.	.
.	16EE-JJ	.	16G<JJ	.	.	.	.	.	.
!!LO:LB:g=original
*	*	*v	*v	*	*	*	*	*	*
=143	=143	=143	=143	=143	=143	=143	=143	=143
16F#XLL	8AA 8DD	8dL	.	.	4r	.	2rdd	.
16AJJ	.	.	.	.	.	.	.	.
8r	4.rDDyy	16dL	.	.	.	.	.	.
.	.	16f#XJJ	.	<	.	.	.	.
4r	.	16aLL	.	.	8r	.	.	.
.	.	16dd	.	.	.	.	.	.
.	.	16ff#X	.	.	(>8D	.	.	.
.	.	16aaJJ	.	[	.	.	.	.
!!LO:LB:g=original
*	*	*	*	*	*clefC4	*	*	*
=144	=144	=144	=144	=144	=144	=144	=144	=144
*ped	*	*	*	*	*	*	*	*
8DDL	8rGGGyy	16eee-X`>LL	.	>	4d)	.	2rdd	.
.	.	16ff#X	.	.	.	.	.	.
8DJ	4.D	16ddd`>	.	.	.	.	.	.
.	.	16ddJJ	.	.	.	.	.	.
4d\ 4c\ 4A\	.	16ccc#X`>LL	.	.	(>16c#XLL	<	.	.
.	.	16ff#	.	]	16d	.	.	.
.	.	16cccn`>	.	.	16en	.	.	.
*Xped	*	*	*	*	*	*	*	*
.	.	16ddJJ	.	.	16f#XJJ	[	.	.
=145	=145	=145	=145	=145	=145	=145	=145	=145
8GGL	8rAAAyy	(>16bb-LL 16gg	.	.	8gL)	[	2rdd	.
*ped	*	*	*	*	*	*	*	*
.	.	16dd	.	.	.	.	.	.
8DJ	4.D	16gg 16b-	.	.	(>8B-J	.	.	.
.	.	16aJJ	.	.	.	.	.	.
8B-\ 8G\	.	16b-LL 16g	.	.	4d^<)	.	.	.
.	.	16d	.	.	.	.	.	.
*Xped	*	*	*	*	*	*	*	*
8r	.	16B-	.	.	.	.	.	.
.	.	16G<JJ)	.	.	.	.	.	.
*ped	*	*	*	*	*	*	*	*
=146	=146	=146	=146	=146	=146	=146	=146	=146
8DDL	8rFFFyy	(>16c<LL 16F#X<	.	.	4A	.	2rdd	.
.	.	16d	.	.	.	.	.	.
8DJ	4.D	16cc 16f#X	.	.	.	.	.	.
.	.	16ddJJ	.	.	.	.	.	.
4d\ 4A\	.	16cccLL 16ff#X	.	.	(>16G#XLL	>	.	.
.	.	16ee-	.	.	16A	.	.	.
*Xped	*	*	*	*	*	*	*	*
.	.	16dd	.	.	16B-	.	.	.
.	.	16ccJJ 16a	.	.	16AJJ	.	.	.
=147	=147	=147	=147	=147	=147	=147	=147	=147
8GGL	8rBBByy	16b-LL 16g	.	.	8GnL	.	2rdd	.
*ped	*	*	*	*	*	*	*	*
.	.	16dd	.	.	.	.	.	.
8DJ	4.D	16bb- 16gg	.	.	8B-J	.	.	.
.	.	16cccJJ 16aa	.	.	.	.	.	.
8d\ 8B-\ 8G\	.	16dddLL 16bb-	.	.	4D)	.	.	.
.	.	16gg	.	.	.	.	.	.
*Xped	*	*	*	*	*	*	*	*
8r	.	16ggg 16bb-)	.	.	.	.	.	.
*ped	*	*	*	*	*	*	*	*
.	.	(<16gJJ	.	.	.	.	.	.
*v	*v	*	*	*	*	*	*	*
=148	=148	=148	=148	=148	=148	=148	=148
8DD/	16f#X/LL	.	.	4d	.	2rdd	.
.	16cc	.	.	.	.	.	.
8c\ 8A\ 8D\	16ee-	.	.	.	.	.	.
*Xped	*	*	*	*	*	*	*
.	16ddJJ	.	.	.	.	.	.
8r	16cc#XLL	.	.	(>16c#XLL	.	.	.
.	16d	.	.	16d	.	.	.
(<8DD	16a	.	.	16e-	.	.	.
.	16ccnJJ	.	.	16dJJ)	.	.	.
!!LO:LB:g=original
=149	=149	=149	=149	=149	=149	=149	=149
8EE-'<)	16b-LL	.	.	8gL	.	2rdd	.
.	16g	.	.	.	.	.	.
4G	16e-	.	.	8B-J	.	.	.
.	16cJJ	.	.	.	.	.	.
.	16B-LL	.	.	(>4c#X^<	.	.	.
.	16e-	.	.	.	.	.	.
(<8EE-	16g	.	.	.	.	.	.
.	16b-JJ	.	.	.	.	.	.
=150	=150	=150	=150	=150	=150	=150	=150
8DD)	16B-LL	.	.	8d)	>	2rdd	.
.	16d	.	.	.	.	.	.
4D	16g	.	.	(>16B-LL	.	.	.
.	16cJJ	.	.	16AJJ	]	.	.
.	16B-LL	.	.	8GL	.	.	.
.	16d	.	.	.	.	.	.
8DD'<	16A	.	.	8F#XJ	.	.	.
.	16dJJ)	.	.	.	.	.	.
=151	=151	=151	=151	=151	=151	=151	=151
!	!LO:TX:a:i:B:t=Con fuoco.	!	!	!	!	!	!
8GG'</L	(<16gLL 16B-	.	.	4G)	.	4r	.
.	16d	.	.	.	.	.	.
8GGG'</J	16B-< 16G<)	.	.	.	.	.	.
.	16A<JJ 16D<	.	.	.	.	.	.
*	*	*	*	*clefF4	*	*	*
!	!	!	!	!	!	!	!LO:DY:rj
8rCC	8G< 8BB-<	.	f	8r	.	8d\`>L	f
!	!	!	!	!	!LO:DY:rj	!LO:TX:a:i:B:t=con fuoco.	!
8D 8DD	/8a 8f#X/ 8d/ 8A/	.	.	8DD`<	ff	(>16ddL	.
.	.	.	.	.	.	16ccJJ	.
=152	=152	=152	=152	=152	=152	=152	=152
8GG	16b-^<LL 16d 16B-	.	.	8GG`<	.	8b-\L	.
.	16g	.	.	.	.	.	.
8rBB	16d 16B-	.	.	8r	.	8gJ)	.
.	16cJJ 16A	.	.	.	.	.	.
!	!	!	!	!	!LO:DY:rj	!	!
8rBB	8B-</ 8G</	.	.	(>8DL	p	8r	.
!	!	!	!LO:DY:a:rj	!	!	!	!
!	!LO:S:s=1:note:problem:note-level slur	!	!	!	!	!	!
8d\ 8D\	(>8ff#X/ 8dd/ 8a/ 8f#X/	.	f	16dL	.	(<8a	.
.	.	.	.	16cJJ	.	.	.
!!LO:LB:g=original
=153	=153	=153	=153	=153	=153	=153	=153
8G/ 8GG/	16gg\LL 16b-\ 16g\)	.	.	8B-L	.	8g)	.
.	16dd	.	.	.	.	.	.
8r	16b- 16g	.	.	8GJ)	.	8r	.
.	16aJJ 16d	.	.	.	.	.	.
8r	8g/ 8B-/	.	.	8r	.	8d\`>L	.
8d\ 8D\	8aa'> 8ff#X 8dd 8a	.	ff	8D\	.	(>16ddL	.
.	.	.	.	.	.	16ccJJ	.
=154	=154	=154	=154	=154	=154	=154	=154
!	!	!	!	!	!LO:DY:rj	!	!
8GL 8GG	8bb-'>L 8dd 8b-	.	.	(<8GGL	ff	8b-L	.
8B- 8BB-	8een'> 8cc#X 8g	.	.	8BB-	.	16aL	.
.	.	.	.	.	.	16gJJ	.
8A 8AA	8ffny'> 8ccn 8fny	.	.	8AA	.	16fLL	.
.	.	.	.	.	.	16g	.
8cJ 8C	8ee-X'>J 8a 8f	.	.	8CJ	.	16e-	.
.	.	.	.	.	.	16fJJ	.
!!LO:PB:g=original
=155	=155	=155	=155	=155	=155	=155	=155
(>16B-LL 16BB-	8dd/ 8b-/ 8f/	.	.	8BB-)	.	8dL)	.
16F	.	.	.	.	.	.	.
16D	8r	.	.	8r	.	8B-J	.
16CJJ)	.	.	.	.	.	.	.
!	!	!	!	!	!LO:DY:rj	!	!
8BB-/	8r	.	.	8FL	p	8r	.
!	!	!	!LO:DY:rj	!	!	!	!
!LO:TX:t=P:cross-measure beam:problem	!	!	!	!	!	!	!
8F/ 8FF/	8cc/ 8a/ 8f/ 8c/	.	f	(>16fL	>	8a	.
.	.	.	.	16e-JJ	]	.	.
=156	=156	=156	=156	=156	=156	=156	=156
8BB-/ 8BBB-/	16dd^<LL 16f 16d	.	.	8dL	.	8b-	.
.	16b-	.	.	.	.	.	.
8r	(<16f 16d	.	.	8B-J)	.	8r	.
.	16e-JJ 16c)	.	.	.	.	.	.
8r	8d 8B-	.	.	8r	.	\8fL	.
!LO:TX:t=P:cross-measure beam:problem	!	!	!	!	!LO:DY:rj	!	!
8F/ 8FF/	8aa\ 8ff\ 8cc\ 8a\	.	.	8FF'<	ff	(>16ffL	.
.	.	.	.	.	.	16ee-JJ	.
=157	=157	=157	=157	=157	=157	=157	=157
8BB-/	(>16bb-^<LL 16dd 16b-	.	.	8BB-'<	.	8ddL	.
.	16ff	.	.	.	.	.	.
8r	16dd 16b-	.	.	8r	.	8b-J)	.
.	16ccJJ 16f)	.	.	.	.	.	.
!	!	!	!	!	!LO:DY:rj	!	!
8r	8b- 8d	.	.	8FL	f	8r	.
!	!	!	!LO:DY:rj	!	!	!	!
8F\	8cc/ 8a/ 8f/ 8c/	.	f	(>16fL	>	(>8a	.
.	.	.	.	16e-JJ	]	.	.
!!LO:LB:g=original
=158	=158	=158	=158	=158	=158	=158	=158
*	*^	*	*	*	*	*	*
8B-L	8dd 8b- 8f 8d	8rAyy	.	.	16dLL	.	8b-)	.
.	.	.	.	.	16A	.	.	.
(>8B- 8BB-	4dd^>	8gL 8en	.	.	16B-	.	4dd	.
.	.	.	.	.	16GJJ	.	.	.
8A 8AA)	.	8a 8f	.	.	16ALL	.	.	.
.	.	.	.	.	16G#X	.	.	.
8AAJ 8AAA	8cc#X	8aJ 8e	.	.	16A^<	.	(>8een	.
.	.	.	.	.	16AAJJ	.	.	.
=159	=159	=159	=159	=159	=159	=159	=159	=159
(<16DLL	8dd 8a 8f	4rcyy	.	.	8D`>)	.	8ff)	.
16AA	.	.	.	.	.	.	.	.
16FF	8r	.	.	.	8r	.	8r	.
16EEnJJ)	.	.	.	.	.	.	.	.
*	*	*	*	*	*clefC4	*	*	*
8DL 8AA 8FF 8DD	16ffLL	8aL 8f	.	<	(>8AL	>	8r	.
.	16dd	.	.	.	.	.	.	.
8EnJ 8C 8GG 8EEn	16ccny	8gJ	.	[	16aL	.	[</8c	.
.	16b-JJ	.	.	.	16gJJ	]	.	.
=160	=160	=160	=160	=160	=160	=160	=160	=160
(<16FLL 16FF	4rdddyy	8aa 8ff 8cc 8a	.	<	8f)	.	8c^<L]	.
16C	.	.	.	.	.	.	.	.
*	*	*	*	*	*clefF4	*	*	*
16AA	.	8r	.	.	[<8C^	.	(<16ccL	.
16GGJJ)	.	.	.	.	.	.	16b-JJ	.
8FL 8C 8AA 8FF	16aaLL	8ccL 8a	.	.	8CL]	.	8aL)	.
.	16ff	.	.	.	.	.	.	.
8G#XJ 8En 8BBn 8GG#	16een	8bnJ	.	.	(>16cL	.	[<8en^<J	.
.	16dd/JJ	.	.	.	16BnJJ	.	.	.
!!LO:LB:g=original
=161	=161	=161	=161	=161	=161	=161	=161	=161
(<16ALL 16AA	4reeeyy	8ccc 8aa 8een 8cc	.	.	8A)	.	8enXL]	.
16En	.	.	.	.	.	.	.	.
16C	.	8r	.	.	[>8En	.	(>16eenL	.
)16BBnJJ	.	.	.	.	.	.	16ddJJ	.
8AL 8E 8C 8AA	16cccLL	8eeL 8cc	.	<	8EL]	.	8cc\L)	.
.	16aa	.	.	.	.	.	.	.
8BnJ 8Gny 8D 8BBn	16gg	8ddJ	.	[	(>16enL	.	[>8gJ	.
.	16ffJJ	.	.	.	16dJJ	.	.	.
*	*v	*v	*	*	*	*	*	*
=162	=162	=162	=162	=162	=162	=162	=162
8c 8C	8eee-X 8ccc 8gg 8ee-X	.	.	8c)	.	16gLL]	.
.	.	.	.	.	.	16cc	.
*clefG2	*	*	*	*	*	*	*
*	*8va	*	*	*	*	*	*
(>16ggLL 16ee-	(>16gggLL 16eee-	.	.	8C	.	(>16ee-X	.
16ffJJ 16dd	16fffJJ 16ddd	.	.	.	.	16ffJJ	.
8ee- 8cc)	8eee- 8ccc)	.	.	8r	.	16ggLL	.
.	.	.	.	.	.	16ff#X	.
*	*X8va	*	*	*	*	*	*
!	!LO:TX:a:B:i:t=loco.	!	!	!	!LO:DY:rj	!	!
8e- 8c	8ee- 8cc	.	.	(<8C	ff	16gg	.
.	.	.	.	.	.	16aaJJ	[
*clefF4	*	*	*	*	*	*	*
=163	=163	=163	=163	=163	=163	=163	=163
*	*^	*	*	*	*	*	*
16GGLL 16G	4rcccyy	8gg 8dd 8b- 8g	.	.	8GGL)	.	8bb-X)	.
16D	.	.	.	.	.	.	.	.
16BB-	.	8r	.	.	[8DJ	f	8r	.
16AAJJ	.	.	.	.	.	.	.	.
(</8GL 8D/ 8BB-/ 8GG/	16bb-LL	8ddL 8b-	.	<	8D^<L]	.	8r	.
.	16gg	.	.	.	.	.	.	.
8AJ 8F 8C 8AA	16ff	8ccJ	.	.	(>16dL	.	8f^<	.
.	16ee-JJ	.	.	[	16cJJ	.	.	.
=164	=164	=164	=164	=164	=164	=164	=164	=164
!	!	!LO:TX:B:t=sempre_:dur=1qs:ext=ud:problem:text with extention lines	!	!	!	!	!	!
16B-/LL 16BB-/)	4rbbbyy	8ddd 8bb- 8ff 8dd	.	.	8B-)	.	8fL	.
16F	.	.	.	.	.	.	.	.
*	*	*	*	*	*clefC4	*	*	*
16D	.	8r	.	.	[8F	.	(>16ffL	.
16CJJ	.	.	.	.	.	.	16ee-JJ	.
!	!	!LO:TX:B:t=P:problem:belkowanie od 8ff 8dd do 8een	!	!	!	!	!	!
8B-L 8F 8D 8BB-	16dddLL	8ff 8ddL	.	.	8FL]	.	8ddL)	.
!	!	!LO:TX:B:t=cres-cen-do.:dur=2q3s:ext=ud:problem:text with extention lines	!	!	!	!	!	!
.	16bb-	.	.	.	.	.	.	.
8c#XJ 8A 8En 8C#X	16aa	8eenJ	.	.	(>16fL	.	[>8aJ	.
.	16ggJJ	.	.	.	16enJJ	.	.	.
=165	=165	=165	=165	=165	=165	=165	=165	=165
*	*	*8va	*	*	*	*	*	*
16dLL 16D	4rbbyy	8fff 8ddd 8aa 8ff	.	.	8dL)	.	8aL]	.
16A	.	.	.	.	.	.	.	.
!	!	!	!	!	!	!LO:HP:a	!	!
16F	.	8r	.	.	[>8AJ	>	(>16aaL	.
16EnJJ	.	.	.	.	.	.	16ggJJ	.
8dL 8A 8F 8D	16fffLL	8aaL 8ff	.	.	8AL]	]	8ffL)	.
.	16ddd	.	.	.	.	.	.	.
8enJ 8c 8G 8En	16ccc	8ggJ	.	.	(>16aL	.	[8ccJ	.
.	16bb-JJ	.	.	.	16gJJ	.	.	.
*	*v	*v	*	*	*	*	*	*
=166	=166	=166	=166	=166	=166	=166	=166
8F	8aa-X 8ff	.	.	8f)	.	16ccLL]	.
.	.	.	.	.	.	(>16een	.
*clefG2	*	*	*	*	*	*	*
(>16aa-XLL 16ff	(>16aaa-XLL 16fff	.	.	8F	.	16ff	.
16ggJJ 16een	16gggJJ 16eeen	.	.	.	.	16ggJJ	.
8ff)	8fff)	.	.	8r	.	16aa-XLL	.
.	.	.	.	.	.	16gg	.
*	*X8va	*	*	*clefF4	*	*	*
!	!LO:TX:a:i:B:t=loco.	!	!	!	!LO:DY:rj	!	!
8a-X 8f	(>8aa-X 8ff	.	.	(<8FF	p	16aa-	.
.	.	.	.	.	.	16bb-JJ	.
!!LO:LB:g=original
*clefF4	*	*	*	*	*	*	*
!!LO:LB:g=original
=167	=167	=167	=167	=167	=167	=167	=167
8C`>L	8gg 8ee-)	.	.	4C)	.	8ccc)	.
*	*8va	*	*	*	*	*	*
8e-J 8c	(>16gggLL 16eee-	.	.	.	.	8r	.
.	16fffJ 16ddd	.	.	.	.	.	.
8E-`>L	8eee-J 8ccc)	.	.	(>4E-	<	(<16f#XLL	<
.	.	.	.	.	.	16g	.
8e-J 8c	8ggT>	.	.	.	.	16cc	.
.	.	.	.	.	.	16b-JJ	.
=168	=168	=168	=168	=168	=168	=168	=168
*	*	*	*	*	*	*^	*
8FL	16ff/LL	.	.	4F)	[	4any)	8rc	[
.	16ggg 16eee-	.	>	.	.	.	.	.
8aJ 8e-	16fff 16ddd	.	.	.	.	.	8c	.
.	16eee-JJ 16ccc	.	]	.	.	.	.	.
*clefG2	*	*	*	*	*	*	*	*
8B-L	16ddd/LL 16bb-/	.	.	(>4B-	.	4b-	4d	.
.	16eee- 16ccc	.	.	.	.	.	.	.
8b-J 8d	16fff 16ddd	.	.	.	.	.	.	.
.	(<16ffJJ	.	.	.	.	.	.	.
*clefF4	*	*	*	*	*	*	*	*
*	*	*	*	*	*	*v	*v	*
=169	=169	=169	=169	=169	=169	=169	=169
8BB-`>L	8b-)	.	.	4BB-)	.	(<4d-X	<
8d-XJ 8B-	(>16fff\LL 16ddd-X\	.	.	.	.	.	.
.	16eee-JJ 16ccc	.	.	.	.	.	.
8D-X`>L	8ddd- 8bb-)	.	.	(>4D-X	<	16enLL	.
.	.	.	.	.	.	16f	.
8d-J 8B-	(<8ffT>	.	.	.	.	16b-	.
.	.	.	.	.	.	16a-XJJ)	[[
=170	=170	=170	=170	=170	=170	=170	=170
*	*	*	*	*	*	*^	*
8E-X`>L	16ee-/LL)	.	.	4E-)	[	4g	8rc	.
.	(<16fff 16ddd-X	.	.	.	.	.	.	.
8gJ 8d-X	16eee- 16ccc	.	.	.	.	.	8B-	.
.	16ddd-JJ 16bb-	.	.	.	.	.	.	.
8A-X`>L	16cccLL 16aa-X	.	.	4A-X	.	[<4a-X	4c	.
.	16ddd- 16bb-	.	.	.	.	.	.	.
8a-J 8c	16eee- 16ccc)	.	.	.	.	.	.	.
.	(<16ee-JJ	.	.	.	.	.	.	.
*	*	*	*	*clefC4	*	*	*	*
*	*	*	*	*	*	*v	*v	*
=171	=171	=171	=171	=171	=171	=171	=171
*^	*^	*	*	*	*	*	*
*	*	*X8va	*	*	*	*	*	*	*
!	!	!LO:TX:a:B:i:t=loco.	!	!	!	!	!	!	!
8A-XL	4A-X/	8cc)	16ccLL	.	.	4g-X	>	4a-X]	.
.	.	.	16g-X	.	.	.	.	.	.
8e-\J	.	8reeeyy	(>16aa-y	.	.	.	.	.	.
.	.	.	16gg-XJJ	.	.	.	.	.	.
!	!	!LO:TX:B:t=poco.\ a-poco-:dur=3q::ext=ud:problem:text with extention lines	!	!	!	!	!	!	!
8D-XL	4D-X/	8ffL	16ffLL)	.	.	4f	]	(<16g/LL	.
.	.	.	16f	.	.	.	.	16a-	.
8d-X\J 8A-\	.	8dd-XJ	16b-	.	.	.	.	16cc	.
.	.	.	16a-XJJ	.	.	.	.	16dd-XJJ)	[[
!!LO:LB:g=original
*v	*v	*	*	*	*	*	*	*	*
!!LO:LB:g=original
=172	=172	=172	=172	=172	=172	=172	=172	=172
8AA-X`>L	8g-X	16g-XLL	.	.	4c	.	8ee-`>L	[
.	.	16cc	.	.	.	.	.	.
8e-J 8A-X	8reeeyy	16aa-X	.	.	.	.	8a-X`>J	.
.	.	16gg-XJJ	.	.	.	.	.	.
8DD-X\`>L	8ffL	16ffLL	.	.	16d-XLL	.	4ff^<	.
.	.	16f	.	.	16e-	.	.	.
8d-XJ 8A-X	8dd-XJ	16b-	.	.	16en	.	.	.
.	.	16fJJ	.	.	16fJJ	[	.	.
=173	=173	=173	=173	=173	=173	=173	=173	=173
!	!	!LO:TX:B:t=cres-cen-do.:dur=3q2s:ext=ud:problem:text with extention lines	!	!	!	!	!	!
8B-`>L	8ddn	16ddnLL	.	.	4a-X	]	4b-	.
.	.	16a-X	.	.	.	.	.	.
8fJ	8rdddyy	16bb-	.	.	.	.	.	.
.	.	16aa-JJ	.	.	.	.	.	.
8E-`>L	8ggnyL	16ggnyLL	.	.	4gny	.	(>16anLL	.
.	.	16g	.	.	.	.	16b-	.
8e-J 8B-	8ee-J	16cc	.	.	.	.	16ddny	.
.	.	16b-JJ	.	.	.	.	16ee-JJ	[[
=174	=174	=174	=174	=174	=174	=174	=174	=174
8BB-L	8a-X	(>16a-XLL	.	.	(>4dn	.	8ffL)	.
.	.	16dd	.	.	.	.	.	.
8fJ 8B-	8reeeyy	16bb-	.	.	.	.	8b-J	.
.	.	16aa-JJ	.	.	.	.	.	.
8EE-L	16rdddyy	16ggLL	.	.	4e-	.	8ggL	>
.	8dd-X	16dd-X	.	.	.	.	.	.
8e-J 8B-	.	16aa-X	.	.	.	.	16ffL	.
.	16reeeyy	16bb-JJ)	.	.	.	.	16ee-JJ	]
*	*v	*v	*	*	*	*	*	*
=175	=175	=175	=175	=175	=175	=175	=175
!	!	!	!LO:DY:rj	!	!	!	!
8A-XL	16cccLL	.	f	8A-X)	.	8aa-	.
.	(>16cc	.	.	.	.	.	.
16a-L	16ee-	.	.	8r	.	8r	.
(>16gJJ	16bb-JJ	.	.	.	.	.	.
8fL)	16aa-XLL	.	.	8r	.	(<16enLL	<
.	16dd-X)	.	.	.	.	16f	.
*	*	*	*	*clefF4	*	*	*
!	!	!	!	!	!LO:DY:rj	!	!
(>8FJ	(>16ddd-	.	.	(>8F	f	16g	.
.	16cccJJ	.	.	.	.	16a-XJJ)	[[
!!LO:LB:g=original
=176	=176	=176	=176	=176	=176	=176	=176
8G)	16bb-XLL)	.	.	8G)	.	(>\8b-L	.
.	16b-	.	.	.	.	.	.
(<16GGLL	16dd-X	.	.	(<16GGLL	.	8gJ))	.
16FFJJ	16aa-XJJ	.	.	16FFJJ	.	.	.
8EEn)	16ggLL	.	.	8EEn)	.	4cc^>	.
.	16b-	.	.	.	.	.	.
(>8En	16ff	.	.	(>8En	.	.	.
.	16ggJJ	.	.	.	.	.	.
!!LO:LB:g=original
=177	=177	=177	=177	=177	=177	=177	=177
8F)	16aa-XLL	.	.	8F)	.	8a-X/	.
.	16a-	.	.	.	.	.	.
(>16fLL	16cc	.	.	8r	.	8r	.
16e-JJ	16ggJJ	.	.	.	.	.	.
8d-X)	16ffLL	.	.	8r	.	(<16cLL	<
.	16b-	.	.	.	.	16d-X	.
(>8D-X	(>16bb-	.	.	(>8D-X\	.	16e-	.
.	16aa-JJ	.	.	.	.	16fJJ	[[
=178	=178	=178	=178	=178	=178	=178	=178
8E-X/LL)	16ggLL)	.	.	8E-)	.	8gL)	.
.	16g	.	.	.	.	.	.
(<16EE-/	16b-	.	.	(<16EE-LL	.	8e-`<J	.
16DD-XJJ	16ffJJ	.	.	16DD-XJJ	.	.	.
8CC)	16ee-XLL	.	.	8CCL)	.	4a-X^<	.
.	16a-X	.	.	.	.	.	.
(<8C	16dd-X	.	.	(>8CJ	.	.	.
.	16ee-JJ	.	.	.	.	.	.
=179	=179	=179	=179	=179	=179	=179	=179
*	*^	*	*	*	*	*	*
8D-X/)	4..ff^>	16ffLL	.	.	8D-X)	.	8f	.
.	.	16f	.	.	.	.	.	.
4d-X^>	.	16b-	.	.	4d-X^<	.	4b-^</	.
.	.	16dd-XJJ	.	.	.	.	.	.
.	.	16gLL	.	.	.	.	.	.
.	.	16b-	.	.	.	.	.	.
(>8c	.	16a-X	.	.	(>8c	.	8a-X	.
.	16ee-	16ee-JJ	.	.	.	.	.	.
=180	=180	=180	=180	=180	=180	=180	=180	=180
8B-)	4..dd-X	16dd-XLL	.	.	8B-)	.	(<4a-X	>
.	.	16d-X	.	.	.	.	.	.
(<4BB-^>	.	16en	.	.	4BB-^<	.	.	.
.	.	16a-XJJ	.	.	.	.	.	.
.	.	16enLL	.	.	.	.	8gL	.
.	.	16g	.	.	.	.	.	.
8AA-X)	.	16f	.	.	8AA-X	.	8fJ)	]
.	16cc	16ccJJ	.	.	.	.	.	.
=181	=181	=181	=181	=181	=181	=181	=181	=181
!	!	!	!	!	!	!LO:DY:rj	!	!LO:HP:a
8GG	8.b-L	16b-LL	.	.	8GG	p	4.en	>
.	.	16d-X	.	.	.	.	.	.
4G^>	.	16en	.	.	4G	.	.	.
.	16ccJk	16ccJJ	.	.	.	.	.	.
.	8.b-L	16b-LL	.	.	.	.	.	.
.	.	16d-	.	.	.	.	.	.
(>8F	.	16f	.	.	(>8F	.	(<8f	<
.	16anyJk	16anyJJ	.	.	.	.	.	.
!!LO:LB:g=original
=182	=182	=182	=182	=182	=182	=182	=182	=182
(>4En)	8.b-L	16b-LL	.	.	4En	.	8gL)	[
.	.	16d-X	.	.	.	.	.	.
.	.	16g	.	.	.	.	8B-J	.
.	16aJk	16aJJ	.	.	.	.	.	.
4D-X)	8.b-L	16b-LL	.	<	4D-X)	.	[<4g^<	.
.	.	16f	.	.	.	.	.	.
.	.	16g	.	.	.	.	.	.
.	16bnJk	16bnJJ	.	[	.	.	.	.
!!LO:LB:g=original
=183	=183	=183	=183	=183	=183	=183	=183	=183
!	!	!	!	!LO:DY:rj	!	!	!	!
!	!	!LO:TX:i:B:t=marcato.	!	!	!	!	!	!
8CL	8.ccL	16ccLL	.	f	8CL	.	4g]	.
.	.	16en	.	.	.	.	.	.
(<8CCJ	.	16g	.	.	16c^<L	.	.	.
.	16ccJk	16ccJJ	.	.	16B-JJ	.	.	.
[<4C)	8dd-XL	16dd-XLL	.	.	8A-XL	.	(<16enLL	.
.	.	16fJ	.	.	.	.	16f	.
.	16ee-L	8a-XJ	.	.	8FJ	.	16g	.
.	16dd-JJ	.	.	.	.	.	16a-XJJ	[[
=184	=184	=184	=184	=184	=184	=184	=184	=184
8C]	8.ccL	16ccLL	.	.	4En	.	8gL)	[
.	.	16c	.	.	.	.	.	.
8r	.	16g	.	.	.	.	8c`<J	.
.	16ccJk	16ccJJ	.	.	.	.	.	.
4D-X^>	8b-L	16b-LL	.	.	(<4D-X	.	8gL	.
.	.	16f	.	.	.	.	.	.
.	16a-XL	16a-X	.	.	.	.	8fJ	.
.	16b-JJ	16b-JJ	.	.	.	.	.	.
=185	=185	=185	=185	=185	=185	=185	=185	=185
8CL	8.ccL	16ccLL	.	.	8CL)	f	4en	.
.	.	16c	.	.	.	.	.	.
!	!	!	!	!	!LO:TX:a:B:i:t=Pizz.	!	!	!
(>16cL	.	16g	.	.	8CC'<	.	.	.
16B-JJ	16ccJk	16ccJJ	.	.	.	.	.	.
8A-XL)	8dd-XL	16dd-XLL	.	.	8C'<J	.	(<16eLL	<
.	.	16fJ	.	.	.	.	16f	.
(>8FJ	16ee-L	8a-XJ	.	.	8r	.	16g	.
.	16dd-JJ	.	.	.	.	.	16a-XJJ)	[[
!!LO:LB:g=original
*	*v	*v	*	*	*	*	*	*
=186	=186	=186	=186	=186	=186	=186	=186
4En	16ccLL	.	.	4r	.	2g	<[
.	16c	.	<	.	.	.	.
.	16g	.	.	.	.	.	.
.	16ccJJ	.	.	.	.	.	.
!	!	!	!	!LO:TX:a:B:i:t=Arco.	!	!	!
4E-X)	16cc#X/LL	.	.	4E-X	.	.	.
.	16g	.	.	.	.	.	.
.	16ccn	.	.	.	.	.	.
.	16cc#XJJ	.	[	.	.	.	.
!!LO:LB:g=original
=187	=187	=187	=187	=187	=187	=187	=187
*	*^	*	*	*	*	*	*
8DL	8.ddL	16ddLL	.	<	8DL	.	[<4f#X	.
.	.	16f#X	.	.	.	.	.	.
(<8DDJ	.	16a	.	.	16dL	.	.	.
.	16ddJk	16ddJJ	.	[	16cJJ	.	.	.
[>4D\)	8ee-XL	16ee-XLL	.	.	8B-^<L	.	16f#LL]	<
.	.	16gJ	.	.	.	.	16g	.
.	16ff#L	8b-J	.	.	8GJ	.	16a	.
.	16ee-JJ	.	.	.	.	.	16b-JJ	[[
=188	=188	=188	=188	=188	=188	=188	=188	=188
!	!	!	!	!	!	!LO:DY:rj	!	!
8D\]	8.ddL	16ddLL	.	.	4F#X	p	4.a^<	.
.	.	16f#X	.	.	.	.	.	.
8r	.	16a	.	.	.	.	.	.
.	16ddJk	16ddJJ	.	.	.	.	.	.
4E-X^	8ccL	16ccLL	.	.	4E-	.	.	.
.	.	16g	.	.	.	.	.	.
.	16b-L	16b-	.	.	.	.	8g 8c#X	.
.	16ccJJ	16ccJJ	.	.	.	.	.	.
=189	=189	=189	=189	=189	=189	=189	=189	=189
8D/`<L	16dd/LL	4ryy	.	.	8DL	.	4f#X 4d	.
.	16f#X	.	.	.	.	.	.	.
8DDJ	16a	.	.	.	16dL	.	.	.
.	16ddJJ	.	.	.	16cJJ	.	.	.
4GG	8.ee-L	16ee-LL	.	<	[>4Bn	.	(<16enLL	<
.	.	16fny	.	.	.	.	16fn	[
.	.	16bn	.	.	.	.	16g	>
.	16ddJk	16ddJJ	.	[	.	.	16fJJ	]
*	*v	*v	*	*	*	*	*	*
=190	=190	=190	=190	=190	=190	=190	=190
!LO:TX:t=P:dwa łuki:problem	!	!	!	!	!	!	!
!LO:S:s=1:note:problem:note-level slur	!	!	!	!	!	!	!
!LO:S:s=2:note:problem:note-level slur	!	!	!	!	!	!	!
(</2AA-X (<2AAA-/	(<16dLL	.	<	8BnXL]	pp	4f)	>
.	16dd	.	.	.	.	.	.
.	16f	.	.	8dJ	.	.	.
.	16bnJJ	.	[	.	.	.	.
.	16ccLL	.	>	4c	.	(<4e-X	]
.	16b-X	.	.	.	.	.	.
.	16a-X	.	.	.	.	.	.
.	16e-JJ)	.	]	.	.	.	.
=191	=191	=191	=191	=191	=191	=191	=191
!LO:S:s=1:note:problem:note-level slur	!	!	!	!	!	!	!
!LO:S:s=2:note:problem:note-level slur	!	!	!	!	!	!	!
8FF'<) 8FFF)	16d-XLL	.	.	2F	<[	8d-X)	.
.	16a-X	.	.	.	.	.	.
8r	16dd-X	.	.	.	.	8r	.
.	16ccJJ	.	.	.	.	.	.
4r	(>16dnLL	.	.	.	.	[<4a-^<X	.
.	16a-	.	.	.	.	.	.
.	16b-	.	.	.	.	.	.
.	16cc-XJJ	.	.	.	.	.	.
!!LO:PB:g=original
=192	=192	=192	=192	=192	=192	=192	=192
!	!	!	!	!	!LO:DY:rj	!	!
4.e- 4.c 4.A-X 4.G-X	16ccnLL	.	.	2G-X	f	4a-X]	.
.	16ee-	.	.	.	.	.	.
.	16bb-	.	.	.	.	.	.
.	16aanyJJ	.	.	.	.	.	.
.	16aa-XLL	.	.	.	.	(>\16gLL	<
.	16cc	.	.	.	.	16a-	.
(<8GG-X	16dd-X	.	.	.	.	16b-	.
.	16ee-JJ)	.	.	.	.	16ccJJ)	[[
=193	=193	=193	=193	=193	=193	=193	=193
4FF)	16dd-X\LL	.	>	2F^<	.	8dd-X\`>L	.
.	16f	.	.	.	.	.	.
.	16a-y	.	]	.	.	8f`>J	.
.	16ccJJ	.	.	.	.	.	.
4F	16dn\LL	.	.	.	.	4a-^>X/	.
.	16a-X	.	.	.	.	.	.
.	16b-	.	.	.	.	.	.
.	16cc-XJJ	.	.	.	.	.	.
=194	=194	=194	=194	=194	=194	=194	=194
!	!	!	!	!	!LO:DY:rj	!	!
4e- 4c 4A-X 4G-X	(>16ccnLL	.	.	(>4G-X	p<	4a-X	.
.	16ee-X	.	.	.	.	.	.
.	16ccc	.	.	.	.	.	.
.	16bb-JJ	.	.	.	.	.	.
4e- 4c 4An 4F#X	16aanLL	.	.	4F#X)	[	[<4an^<	.
.	16ff#X	.	.	.	.	.	.
.	16ee-	.	.	.	.	.	.
.	16ccJJ	.	.	.	.	.	.
=195	=195	=195	=195	=195	=195	=195	=195
!	!	!	!	!	!LO:DY:rj	!	!
8en 8c#X 8A 8En	16cc#XLL	.	.	4En`>	f	8aL]	.
.	16dd	.	.	.	.	.	.
8r	16dd#X	.	.	.	.	8c#XJ	.
.	16ff#XJJ	.	.	.	.	.	.
[>4e^< [>4c# 4A	16eenLL	.	.	4AA	.	[<4en^<	.
.	16dd#	.	.	.	.	.	.
.	16cc#	.	.	.	.	.	.
.	16ff##XJJ	.	.	.	.	.	.
=196	=196	=196	=196	=196	=196	=196	=196
*^	*	*	*	*	*	*	*
2enX] 2c#X]	4G#X	16gg#XLL	.	.	(<4GG#X	.	4enX]	.
.	.	16cc#X	.	.	.	.	.	.
.	.	16dd#X	.	.	.	.	.	.
.	.	16ff#XJJ	.	.	.	.	.	.
!	!	!	!	!	!	!	!	!LO:DY:rj
.	4F##X	16eenLL	.	<	4FF##X	.	4c#X	p
.	.	16dd#	.	.	.	.	.	.
.	.	16cc#	.	.	.	.	.	.
.	.	16ccc#JJ)	.	.	.	.	.	.
!!LO:LB:g=original
=197	=197	=197	=197	=197	=197	=197	=197	=197
*	*	*8va	*	*	*	*above	*	*
!	!	!	!	!LO:HP:b=2	!	!	!	!
[>2en [>2c#X	4G#X	(>16ggg#XLL	.	<	4GG#X	<	[<2en^	.
.	.	16ccc#X	.	[	.	.	.	.
.	.	16ddd#X	.	.	.	.	.	.
.	.	16fff#XJJ	.	.	.	.	.	.
.	4An	16eeenLL	.	[[	4AAn	[	.	.
.	.	16ddd#	.	.	.	.	.	.
.	.	16ccc#	.	.	.	.	.	.
.	.	16ff##XJJ	.	.	.	.	.	.
=198	=198	=198	=198	=198	=198	=198	=198	=198
*	*	*X8va	*	*	*	*	*	*
!	!	!LO:TX:B:i:a:t=loco.	!	!	!	!	!	!
2enX] 2c#X]	4G#X^<	16gg#XLL	.	[	4GG#	>	4enX]	.
.	.	16cc#X	.	.	.	.	.	.
.	.	16dd#X	.	.	.	.	.	.
.	.	16ff#XJJ	.	.	.	.	.	.
.	4F##X	16eenLL	.	[[	4FF##X)	]	(<4c#X	.
.	.	16dd#	.	.	.	.	.	.
.	.	16cc#	.	.	.	.	.	.
.	.	16a#XJJ	.	.	.	.	.	.
*v	*v	*	*	*	*	*	*	*
=199	=199	=199	=199	=199	=199	=199	=199
16d#X 16B#X 16G#X	16b#X`>)	.	[	(<4GG#X	<	8B#X)	.
16r	16r	.	.	.	.	.	.
!	!	!	!LO:DY:rj	!	!	!	!
8r	(>\16f#XLL	.	p	.	.	8r	.
.	16ccnyJJ	.	.	.	.	.	.
[>4e-X^< [>4cny 4A-X	16ee-XLL	.	.	4AA-X)	[	[<4e-X	.
.	16ddny	.	.	.	.	.	.
.	16cc	.	.	.	.	.	.
.	16ff#XJJ	.	.	.	.	.	.
=200	=200	=200	=200	=200	=200	=200	=200
*^	*	*	*	*	*	*	*
2e-] 2c]	4G	16ggLL)	.	.	4GGn	>	4e-^>]	.
*	*	*8va	*	*	*	*	*	*
.	.	16ccc	.	<	.	.	.	.
.	.	16ddd	.	.	.	.	.	.
.	.	16fffnJJ	.	.	.	.	.	.
.	4F#X	16eee-LL	.	.	4FF#X	]	(<4c	.
.	.	16ddd	.	.	.	.	.	.
.	.	16ccc	.	[	.	.	.	.
.	.	16ccccJJ	.	.	.	.	.	.
=201	=201	=201	=201	=201	=201	=201	=201	=201
*	*	*	*	*	*	*below	*	*
2e- 2c	4G	16gggLL	.	.	4GG	<	4e-^>	.
.	.	16ccc	.	.	.	.	.	.
.	.	16ddd	.	.	.	.	.	.
.	.	16fffJJ	.	.	.	.	.	.
.	4A-X	16eee-LL	.	>	4AA-X	[	4c	.
.	.	16ddd	.	.	.	.	.	.
.	.	16ccc	.	.	.	.	.	.
.	.	16ff#XJJ	.	]	.	.	.	.
!!LO:LB:g=original
=202	=202	=202	=202	=202	=202	=202	=202	=202
*	*	*X8va	*	*	*	*	*	*
!	!	!LO:TX:i:B:a:t=loco.	!	!	!	!	!	!
2e- 2c	4G	16ggLL	.	.	4GG	.	8e-L)	.
.	.	(>16cc	.	.	.	.	.	.
.	.	16dd	.	.	.	.	8e-`J	.
.	.	16ffJJ	.	.	.	.	.	.
.	4F#X	16ee-LL	.	.	4FF#X	]	(<4c	.
.	.	16dd	.	.	.	.	.	.
.	.	16cc	.	.	.	.	.	.
.	.	16anyJJ)	.	.	.	.	.	.
*v	*v	*	*	*	*	*	*	*
=203	=203	=203	=203	=203	=203	=203	=203
8d 8Bn 8G	8g	.	.	8GG	[	8Bn)	.
8rGG	(>16d<LL 16B-<	.	.	8r	.	8r	.
.	16G<JJ	.	.	.	.	.	.
4rGG	16A<LL	.	.	4r	.	4r	.
.	16c<	.	.	.	.	.	.
.	16d< 16B-<	.	.	.	.	.	.
.	16G<JJ	.	.	.	.	.	.
=204	=204	=204	=204	=204	=204	=204	=204
*	*^	*	*	*	*	*	*
4r	16cLL	8cL	.	.	4r	.	2rdd	.
.	16e-J	.	.	.	.	.	.	.
.	8enJ	16c#XL	.	.	.	.	.	.
.	.	16GJJ	.	.	.	.	.	.
!	!	!LO:TX:B:t=P:mixed beam:problem	!	!	!	!LO:DY:rj	!	!
8r	16dLL	8d\L<	.	.	(>8DL	p	.	.
.	16fJ	.	.	.	.	.	.	.
!LO:TX:t=P:cross-measure beam:problem	!	!	!	!	!	!	!	!
(>8D\ 8DD\	8f#XJ	16A</L	.	.	16dL	.	.	.
.	.	16d</JJ	.	.	16cJJ	.	.	.
*	*v	*v	*	*	*	*	*	*
=205	=205	=205	=205	=205	=205	=205	=205
8GG\)	8g 8G<)	.	.	8BnL	.	2rdd	.
!	!LO:TX:t=P:problem:brak zakończenia łuku	!	!	!	!	!	!
8r	(>\16ddLL 16bn\	.	.	8GJ)	.	.	.
.	16gJJ	.	.	.	.	.	.
4r	16a\LL	.	.	4r	.	.	.
.	16cc	.	.	.	.	.	.
.	16dd 16b	.	.	.	.	.	.
.	16gJJ	.	.	.	.	.	.
=206	=206	=206	=206	=206	=206	=206	=206
*	*^	*	*	*	*	*	*
4r	16ccLL	8ccL	.	.	2r	.	4r	.
.	16ee-J	.	.	[	.	.	.	.
.	8eenJ	16cc#XL	.	<	.	.	.	.
.	.	16gJJ	.	.	.	.	.	.
!	!	!	!	!	!	!	!	!LO:DY:rj
8r	16ddLL	8ddL	.	.	.	.	8d\`>^<L	p
.	16ffJ	.	.	.	.	.	.	.
(<8D 8DD	8ff#XJ	16aL	.	.	.	.	(>16ddL	.
.	.	16ddJJ	.	.	.	.	16ccJJ	.
*	*v	*v	*	*	*	*	*	*
!!LO:LB:g=original
=207	=207	=207	=207	=207	=207	=207	=207
8GG)	8gg 8g)	.	.	2r	.	8bn\L	.
*	*8va	*	*	*	*	*	*
8r	16ddd\LL 16bbn\	.	.	.	.	8gJ)	.
.	16ggJJ	.	.	.	.	.	.
4r	16aa\LL	.	.	.	.	4r	.
.	16ccc	.	.	.	.	.	.
.	16ddd 16bb	.	.	.	.	.	.
.	16ggJJ	.	.	.	.	.	.
=208	=208	=208	=208	=208	=208	=208	=208
*	*^	*	*	*	*	*	*
4r	16cccLL	8cccL	.	.	4r	.	2rdd	.
.	16eee-J	.	.	.	.	.	.	.
.	8eeenJ	16ccc#XL	.	.	.	.	.	.
.	.	16ggJJ	.	.	.	.	.	.
!	!	!	!	!	!	!LO:DY:rj	!	!
8r	16dddLL	8dddL	.	.	8DL	p	.	.
.	16fffJ	.	.	.	.	.	.	.
(</8D 8DD/	8fff#XJ	16aaL	.	.	(>16BnL	.	.	.
.	.	16dddJJ	.	.	16AJJ	.	.	.
*	*v	*v	*	*	*	*	*	*
=209	=209	=209	=209	=209	=209	=209	=209
8GG/)	8ggg 8bbn	.	.	4G)	.	2rdd	.
8r	16dddd^<LL 16bbbn	.	.	.	.	.	.
.	16aaaJJ 16ddd	.	.	.	.	.	.
4r	8bbb 8ggg	.	.	4r	.	.	.
*	*X8va	*	*	*	*	*	*
!	!LO:TX:B:i:a:t=loco.	!	!	!	!	!	!
.	16ddd^<LL 16bbny	.	.	.	.	.	.
.	16ddJJ	.	.	.	.	.	.
=210	=210	=210	=210	=210	=210	=210	=210
2rF	8bbn 8gg	.	.	2r	.	2rdd	.
.	16ddLL (<16bn	.	.	.	.	.	.
.	16aJJ 16d)	.	.	.	.	.	.
.	8b/ 8g/	.	.	.	.	.	.
.	8G<	.	.	.	.	.	.
=211	=211	=211	=211	=211	=211	=211	=211
!	!	!	!LO:DY:a	!	!	!	!LO:DY:rj
!	!	!	!LO:HP:a	!	!	!	!
2GG 2GGG	[<2d [<2Bn [>2G< [>2D<	.	>	2r	.	4d	f
.	.	.	.	.	.	4G	.
=212	=212	=212	=212	=212	=212	=212	=212
2GG 2GGG	2d_< 2BnX_< 2G<_> 2D<_>	.	]	2r	.	8fL	.
.	.	.	.	.	.	8fJ	.
.	.	.	.	.	.	4Bn	.
!!LO:LB:g=original
=213	=213	=213	=213	=213	=213	=213	=213
!	!LO:TX:B:a:i:t=calando.	!	!	!	!	!	!
2GG 2GGG	2d_< 2Bn_< 2G<_> 2D<_>	.	.	2r	.	4a-X^>	.
.	.	.	.	.	.	4Bn	.
=214	=214	=214	=214	=214	=214	=214	=214
!	!	!	!	!LO:TX:B:a:i:t=calando.	!	!LO:TX:a:B:i:t=calando.	!
4GG 4GGG	4d] 4Bn] 4G<] 4D<]	.	.	2r	.	4g^<	.
4r	4r	.	.	.	.	4Bn	.
!!LO:LB:g=original
!	!	!	!	!LO:TX:B:t=1	!	!	!
!!LO:LB:g=original
=215	=215	=215	=215	=215	=215	=215	=215
!	!LO:TX:B:a:i:t=a Tempo.	!	!	!LO:TX:B:a:i:t=Tempo 1|o.	!	!LO:TX:a:B:i:t=a Tempo.	!
!	!	!	!	!LO:TX:B:i:t=espress.	!	!	!
(>16CLL	4r	.	.	(>4G	>	4g^<	.
16G	.	.	.	.	.	.	.
16D	.	.	.	.	.	.	.
!LO:TX:B:i:t=marcato.	!	!	!	!	!	!	!
16E-JJ	.	.	.	.	.	.	.
!	!LO:S:s=1:note:problem:note-level slur	!	!	!	!	!	!
16A-XLL	(>4ee- 4cc 4e-	.	.	4C	]	(<4c	.
16G	.	.	.	.	.	.	.
16E-	.	.	.	.	.	.	.
16CJJ	.	.	.	.	.	.	.
=216	=216	=216	=216	=216	=216	=216	=216
!	!LO:S:s=1:note:problem:note-level slur	!	!	!	!	!	!
16GGLL	4dd) 4bn 4f	.	.	8F`>L)	.	8fL)	.
16AA-X	.	.	.	.	.	.	.
16GG	.	.	.	(>8FJ	.	8f`<J	.
16DJJ	.	.	.	.	.	.	.
16GGLL	4r	.	.	4D)	.	4d	.
16G)	.	.	.	.	.	.	.
(>16AAn	.	.	.	.	.	.	.
16BBnJJ	.	.	.	.	.	.	.
=217	=217	=217	=217	=217	=217	=217	=217
16CLL	4r	.	.	(>4G	>	4g	.
16G	.	.	.	.	.	.	.
16D	.	.	.	.	.	.	.
16EnJJ	.	.	.	.	.	.	.
!	!LO:S:s=1:note:problem:note-level slur	!	!	!	!	!	!
16A-XLL	(>4ee- 4cc 4e-	.	.	4C	]	(<4c	.
16G	.	.	.	.	.	.	.
16E-y	.	.	.	.	.	.	.
16CJJ)	.	.	.	.	.	.	.
=218	=218	=218	=218	=218	=218	=218	=218
!	!LO:S:s=1:note:problem:note-level slur	!	!	!	!	!	!
(<16GGLL	4dd/) 4bn/ 4f/	.	.	8F`>L)	.	8fL)	.
16AA-X	.	.	.	.	.	.	.
16GG	.	.	.	8FJ	.	8f`<J	.
16DJJ	.	.	.	.	.	.	.
16GGLL	4g/ 4f/	.	.	4D	.	4d	.
16G	.	.	.	.	.	.	.
16AAn	.	.	.	.	.	.	.
16BBnJJ)	.	.	.	.	.	.	.
=219	=219	=219	=219	=219	=219	=219	=219
(>16CLL	(>4e-	.	.	(>4G	<	(>4g	<
16G	.	.	.	.	.	.	.
16D	.	.	.	.	.	.	.
16E-XJJ	.	.	.	.	.	.	.
16G-XLL	[>/4ee- [</4e-	.	.	4An	[	4an	[[
16E-	.	.	[	.	.	.	.
16D	.	.	.	.	.	.	.
16CJJ)	.	.	.	.	.	.	.
!!LO:LB:g=original
=220	=220	=220	=220	=220	=220	=220	=220
16BB-LL	4ee-] 4e-]	.	.	8cL	[	8cc\L	.
16Gny	.	.	.	.	.	.	.
16D	.	.	.	8B-	.	8b-	.
16E-JJ	.	.	.	.	.	.	.
16B-LL	4g 4e-	.	.	8A-X	.	8a-X	>
16BB-	.	.	.	.	.	.	.
16c	.	.	.	8GJ)	.	8gJ	.
16B-JJ	.	.	.	.	.	.	.
=221	=221	=221	=221	=221	=221	=221	=221
*	*^	*	*	*	*	*	*
16GLL	4.b-	4e-	.	.	4B-^<	.	4b-	]
16BB-	.	.	.	.	.	.	.	.
16A-X	.	.	.	.	.	.	.	.
16GJJ	.	.	.	.	.	.	.	.
16FLL	.	4d	.	.	(>8FL	.	8fL	.
16BB-	.	.	.	.	.	.	.	.
16G	8a-X	.	.	.	8B-J	.	8b-J	.
16FJJ	.	.	.	.	.	.	.	.
*	*v	*v	*	*	*	*	*	*
=222	=222	=222	=222	=222	=222	=222	=222
(<16E-/LL	4g 4e-)	.	.	4G	.	4g	.
16D	.	.	.	.	.	.	.
16D-X	.	.	.	.	.	.	.
16CJJ	.	.	.	.	.	.	.
16C-XLL	[4e- 4G	.	.	4E-	.	4e-)	.
16BB-	.	.	.	.	.	.	.
16GG	.	.	.	.	.	.	.
16EE-JJ)	.	.	.	.	.	.	.
=223	=223	=223	=223	=223	=223	=223	=223
16E-LL	4e-] 4c	.	.	4A-X	<[	4a-X^<	.
16AA-X	.	.	.	.	.	.	.
16C	.	.	.	.	.	.	.
16E-JJ	.	.	.	.	.	.	.
16A-LL	4r	.	.	4E-)	>]	(<4e-	.
16c	.	.	.	.	.	.	.
16A-	.	.	.	.	.	.	.
16FJJ	.	.	.	.	.	.	.
=224	=224	=224	=224	=224	=224	=224	=224
!	!LO:TX:t=P:problem:brak zakończenia łuku	!	!	!	!	!	!
!	!LO:S:s=1:note:problem:note-level slur	!	!	!	!	!	!
16E-LL	&(>4g 4B-	.	.	8GL	.	8gL)	.
16D	.	.	.	.	.	.	.
16D-X	.	.	.	8GJ	.	8g`<J	.
16CJJ	.	.	.	.	.	.	.
!	!LO:TX:t=P:brak zakończenia łuku:problem	!	!	!	!	!	!
16C-X/LL	[>/4e- (<4G/	.	.	4E-	.	(<4e-	.
16BB-	.	.	.	.	.	.	.
16GG	.	.	.	.	.	.	.
16EE-JJ	.	.	.	.	.	.	.
!!LO:LB:g=original
=225	=225	=225	=225	=225	=225	=225	=225
!	!	!	!LO:HP:b=2	!	!	!	!
16E-X\LL	4e-]&) 4c)	.	<	4A-X^<	.	4a-X^<	.
16AA-X	.	.	.	.	.	.	.
16C	.	.	.	.	.	.	.
16E-JJ	.	.	.	.	.	.	.
16A-X\LL	4r	.	[	4E-	.	4e-	.
16c	.	.	.	.	.	.	.
16A-	.	.	.	.	.	.	.
16FJJ	.	.	.	.	.	.	.
!!LO:LB:g=original
=226	=226	=226	=226	=226	=226	=226	=226
!	!LO:S:s=1:note:problem:note-level slur	!	!	!	!	!	!
(>16E-LL	(>4g 4B-	.	.	8GL	.	8gL)	.
16D	.	.	.	.	.	.	.
16D-X	.	.	.	8GJ	.	8g`<J	.
16CJJ	.	.	.	.	.	.	.
!	!LO:S:s=1:note:problem:note-level slur	!	!	!	!	!	!
16C-X/LL	4g) 4e- 4G	.	.	4E-	.	(<4e-	.
16BB-	.	.	.	.	.	.	.
16AA-y	.	.	.	.	.	.	.
16GGJJ	.	.	.	.	.	.	.
=227	=227	=227	=227	=227	=227	=227	=227
16FFLL	(>4a-X 4d	.	.	(>4F	.	4f	>
16F)	.	.	.	.	.	.	.
16En	.	.	.	.	.	.	.
16FJJ	.	.	.	.	.	.	.
16F#X/LL	4an 4c	.	.	4E-	.	4e-	]
16FF#X	.	.	.	.	.	.	.
16EE#X	.	.	.	.	.	.	.
16FF#JJ	.	.	.	.	.	.	.
=228	=228	=228	=228	=228	=228	=228	=228
16GGLL	2d) 2Bn	.	.	4.D)	.	4.d)	.
16AA-X	.	.	.	.	.	.	.
16GG	.	.	.	.	.	.	.
16GJJ	.	.	.	.	.	.	.
16Bn/LL	.	.	.	.	.	.	.
16G	.	.	.	.	.	.	.
16D	.	.	.	(>8G	.	(<8g	.
16GGJJ	.	.	.	.	.	.	.
=229	=229	=229	=229	=229	=229	=229	=229
*	*^	*	*	*	*	*	*
16AA-X\LL	(>2c	4rD	.	.	8FL	>	8fL	.
16A-X	.	.	.	.	.	.	.	.
16G	.	.	.	.	8E-	.	8e-	.
16A-JJ	.	.	.	.	.	.	.	.
16B-\LL	.	4f#X/	.	.	8D	.	8d	.
16A-	.	.	.	.	.	.	.	.
16BB-	.	.	.	.	8CJ	]	8cJ	.
16AA-JJ	.	.	.	.	.	.	.	.
!!LO:PB:g=original
!!LO:LB:g=original
=230	=230	=230	=230	=230	=230	=230	=230	=230
(>16GGLL	2g	4Bn	.	.	4.D)	.	4.d)	.
16AA-X	.	.	.	.	.	.	.	.
!	!	!	!	!LO:HP:b=2	!	!	!	!
16FF#X	.	.	.	<	.	.	.	.
16GGJJ	.	.	.	.	.	.	.	.
16AA-LL	.	4G)	.	.	.	.	.	.
16AAn	.	.	.	[	.	.	.	.
16BB-	.	.	.	.	8G	[[	8g	.
16BBnJJ	.	.	.	.	.	.	.	.
*	*v	*v	*	*	*	*	*	*
=231	=231	=231	=231	=231	=231	=231	=231
16CLL	4g 4e- 4c	.	.	4G^<	.	4g^<	.
16G	.	.	.	.	.	.	.
16D	.	.	.	.	.	.	.
16E-JJ	.	.	.	.	.	.	.
16A-XLL	4ee- 4cc 4e-	.	.	4C	.	(<4c	.
16G	.	.	.	.	.	.	.
16E-	.	.	.	.	.	.	.
16CJJ)	.	.	.	.	.	.	.
=232	=232	=232	=232	=232	=232	=232	=232
(<16GGLL	4dd 4bn 4f	.	.	8FL	.	8fL)	.
16AA-X	.	.	.	.	.	.	.
16GG	.	.	.	8FJ	.	8f`<J	.
16DJJ	.	.	.	.	.	.	.
16GGLL	[>4g 4f	.	.	4D	.	4d	.
16G)	.	.	.	.	.	.	.
(>16AAn	.	.	.	.	.	.	.
16BBnJJ	.	.	.	.	.	.	.
=233	=233	=233	=233	=233	=233	=233	=233
16CLL	4g] 4e-	.	.	4G	.	(<4g	.
16G	.	.	.	.	.	.	.
16D	.	.	.	.	.	.	.
16E-JJ	.	.	.	.	.	.	.
16A-XLL	4ee- 4cc 4e-	.	.	4C	.	4c	.
16G	.	.	.	.	.	.	.
16E-	.	.	.	.	.	.	.
16CJJ)	.	.	.	.	.	.	.
=234	=234	=234	=234	=234	=234	=234	=234
(16GG\LL	4dd 4bn 4f	.	.	8FL	.	8fL)	.
16D	.	.	.	.	.	.	.
16GG	.	.	.	8FJ	.	8f`<J	.
16GJJ	.	.	.	.	.	.	.
!LO:TX:B:t=P:mixed beam:problem	!	!	!	!	!	!	!
16GG/LL	4g 4f	.	<	4D	.	4d	.
16Bn\	.	.	.	.	.	.	.
16GG/	.	.	.	.	.	.	.
16d\JJ)	.	.	[	.	.	.	.
!!LO:LB:g=original
=235	=235	=235	=235	=235	=235	=235	=235
*^	*	*	*	*	*	*	*
*	*^	*	*	*	*	*	*	*
!	!	!	!	!	!	!	!	!LO:TX:i:a:B:t=stretto.	!
8rfyy	2C/	8CL	(<16e-LL	.	.	4G	.	4g^<	.
.	.	.	16g	.	.	.	.	.	.
!	!	!LO:N:vis=8.	!	!	!	!	!	!	!
4.G	.	8E-J	16cc	.	.	.	.	.	.
.	.	.	16ddJJ	.	.	.	.	.	.
.	.	[>4c^<	16ee-/LL	.	.	4C	.	(<4c	.
.	.	.	16gg	.	.	.	.	.	.
!	!	!	!LO:TX:B:t=cres-cen-do.:dur=6q3s:ext=ud:problem:text with extention lines	!	!	!	!	!	!
.	.	.	16cc	.	.	.	.	.	.
.	.	.	16gJJ)	.	.	.	.	.	.
=236	=236	=236	=236	=236	=236	=236	=236	=236	=236
!	!	!	!	!	!	!LO:TX:B:i:t=poco stretto crescendo.	!	!LO:TX:a:t=P:problem:cres. nad nutami	!LO:HP:a
8c/L]	2F/	8F\L	(>/16fLL	.	.	8A-XL	.	8a-XL	<
.	.	.	16a-X	.	.	.	.	.	.
8Bn/J	.	8A- 8FJ	16dd	.	.	8A-J	.	8a-J	.
.	.	.	16ee-JJ	.	.	.	.	.	.
4rEEyy	.	4d^>\	16ff\LL	.	.	4F	.	4f	.
.	.	.	16aa-X	.	.	.	.	.	.
.	.	.	16dd	.	.	.	.	.	.
.	.	.	16a-JJ)	.	.	.	.	.	.
=237	=237	=237	=237	=237	=237	=237	=237	=237	=237
8dL	2En/	8E\L	(>/16gLL	.	.	4B-	.	4b-/	.
.	.	.	16b-	.	.	.	.	.	.
8c#XJ	.	8B- 8G\J	16cc#X	.	.	.	.	.	.
.	.	.	16ff#XJJ	.	.	.	.	.	.
4en^<\	.	4rFFyy	16gg\LL	.	.	4G	.	4g	.
.	.	.	16bb-	.	.	.	.	.	.
.	.	.	16cc#	.	.	.	.	.	.
.	.	.	16b-JJ)	.	.	.	.	.	.
=238	=238	=238	=238	=238	=238	=238	=238	=238	=238
8reyy	2Fny/	8FL	(>16a-X\LL	.	.	8cL	.	8ccL	.
.	.	.	16ccny	.	.	.	.	.	.
!	!	!LO:N:vis=8.	!	!	!	!	!	!	!
4.c	.	8A-J	16ff	.	.	8cJ	.	8ccJ	.
.	.	.	16ggJJ	.	.	.	.	.	.
.	.	4f	16aa-X\LL	.	.	4A-X	.	4a-X	.
.	.	.	16ccc	.	.	.	.	.	.
.	.	.	16ff	.	.	.	.	.	.
.	.	.	16ccJJ)	.	.	.	.	.	.
*v	*v	*v	*	*	*	*	*	*	*
=239	=239	=239	=239	=239	=239	=239	=239
8G'L	(</16bnLL	.	.	[>2G	p	4g)	.
.	16ff	.	.	.	.	.	.
8GG'J	16dd	.	.	.	.	.	.
.	16fJJ	.	.	.	.	.	.
!	!	!	!	!	!	!	!LO:DY:rj
8GGG'	16bLL	.	.	.	.	(<4d	p
.	16dd	.	.	.	.	.	.
8r	16f	.	.	.	.	.	.
.	16dJJ)	.	.	.	.	.	.
!!LO:LB:g=original
=240	=240	=240	=240	=240	=240	=240	=240
8CC'<L	(<16b-XLL	.	.	4G]	.	8gL	.
.	16een	.	.	.	.	.	.
8C'<J	16g	.	.	.	.	8g`<J	.
.	16enJJ	.	.	.	.	.	.
8c'>	16b-LL	.	.	(>16AnLL	<	4en)	.
.	16cc	.	.	16B-	[	.	.
8r	16g	.	.	16c)	>	.	.
.	16eJJ)	.	.	16B-JJ	]	.	.
=241	=241	=241	=241	=241	=241	=241	=241
8F'<L	(<16ccLL	.	>	2A	.	(<4f	.
.	16ee-X	.	.	.	.	.	.
8FF'<J	16f	.	.	.	.	.	.
.	16e-yJJ	.	.	.	.	.	.
8FFF'<	16aLL	.	.	.	.	4c)	.
.	16cc	.	.	.	.	.	.
8r	16f	.	.	.	.	.	.
.	16e-JJ)	.	.	.	.	.	.
=242	=242	=242	=242	=242	=242	=242	=242
8BBB-'<L	(<16b-XLL	.	.	2A-X^<	.	(<4f	.
.	16dd	.	.	.	.	.	.
8BB-'<J	16f	.	.	.	.	.	.
.	16dJJ	.	.	.	.	.	.
8B-'>	16a-XLL	.	.	.	.	16gLL	.
.	16b-	.	.	.	.	16a-X	.
8r	16f	.	.	.	.	16b-	.
.	16dJJ)	.	.	.	.	16a-JJ)	.
=243	=243	=243	=243	=243	=243	=243	=243
!	!LO:TX:B:t=sempre. _:dur=2q:ext=ud:problem:text with extention lines	!	!	!	!	!	!
(<4E-	(<16b-LL	.	.	4G	.	(>4ee-^<	.
.	16dd-X	.	.	.	.	.	.
.	16e-	.	.	.	.	.	.
.	16d-XJJ	.	.	.	.	.	.
!LO:TX:B:t=P:mixed beam:problem	!	!	!	!	!	!	!
8EE-/L)	16gLL	.	.	(>16DLL	.	4b-)	.
.	16b-	.	.	16E-	.	.	.
(>16E-L\	16e-	.	.	16F	.	.	.
16D-XJJ\	16B-JJ)	.	.	16GJJ)	.	.	.
=244	=244	=244	=244	=244	=244	=244	=244
!	!LO:TX:B:i:t=ben marcato.	!	!	!	!	!	!
4C\)	(<16a-XLL	.	.	8A-XL	.	8ee-L	.
.	16cc	.	.	.	.	.	.
.	16e-	.	.	(>8CJ	.	8ee-`>J	.
.	16cJJ	.	.	.	.	.	.
(<16GGLL	16a-LL	.	.	4E-)	.	(>4cc	.
16AA-X	16cc	.	.	.	.	.	.
16BB-	16e-	.	.	.	.	.	.
16AA-JJ)	16cJJ)	.	.	.	.	.	.
!!LO:LB:g=original
=245	=245	=245	=245	=245	=245	=245	=245
4EE-	(<16gLL	.	.	4.E-^<	.	4ee-^>	.
.	16b-X	.	.	.	.	.	.
.	16e-	.	.	.	.	.	.
.	16d-XJJ	.	.	.	.	.	.
(<16DDnyLL	16gLL	.	.	.	.	4b-	.
16EE-	16b-	.	.	.	.	.	.
16FF	16e-	.	.	(>16e-^<LL	.	.	.
16GGJJ)	16B-JJ)	.	.	16d-XJJ	.	.	.
=246	=246	=246	=246	=246	=246	=246	=246
(<4AA	(<16gLL	.	.	4c	.	8ee-L)	.
.	16cc	.	.	.	.	.	.
.	16e-	.	.	.	.	8ee-`>J	.
.	16cJJ	.	.	.	.	.	.
16GG#XLL	16gnyLL	.	.	4A-)	.	(>4cc	.
16AA	16a	.	.	.	.	.	.
16BB-	16e-	.	.	.	.	.	.
16AAJJ)	16cJJ)	.	.	.	.	.	.
=247	=247	=247	=247	=247	=247	=247	=247
4D	(<16f#XLL	.	.	4.D^<	.	4dd^<	.
.	16cc	.	.	.	.	.	.
.	16d	.	.	.	.	.	.
.	16cJJ	.	.	.	.	.	.
(>16C#XLL	16f#LL	.	.	.	.	4a	.
16D	16a	.	.	.	.	.	.
16En	16d	.	.	(>16d^<LL	.	.	.
16F#XJJ)	16AJJ)	.	.	16cJJ	.	.	.
=248	=248	=248	=248	=248	=248	=248	=248
8GL	(<16gLL	.	.	4B-	.	8ddL)	.
.	16b-	.	.	.	.	.	.
8BB-J	16d	.	.	.	.	8dd`>J	.
.	16B-JJ	.	.	.	.	.	.
4D	16gLL	.	.	4G)	.	4b-	.
.	16b-	.	.	.	.	.	.
.	16d	.	.	.	.	.	.
.	16B-JJ)	.	.	.	.	.	.
=249	=249	=249	=249	=249	=249	=249	=249
[<4DD	(<16f#XLL	.	.	4D	.	(>4dd^<	.
.	16cc	.	.	.	.	.	.
.	16d	.	.	.	.	.	.
.	16AJJ	.	.	.	.	.	.
8DDL]	16f#LL	.	.	(>16C#XLL	<	4a	.
.	16cc	.	.	16D	.	.	.
(<16DL	16d	.	.	16En	.	.	.
16CJJ)	16AJJ)	.	.	16F#XJJ	[[	.	.
!!LO:LB:g=original
=250	=250	=250	=250	=250	=250	=250	=250
8BB-L	(<16gLL	.	.	8GL)	[>	8ddL)	.
.	16b-	.	.	.	.	.	.
8GGJ	16d	.	.	(>8BB-J	]	8dd`>J	.
.	16B-JJ	.	.	.	.	.	.
(<16FF#XLL	16gLL	.	.	4D)	.	4b-	.
16GG	16b-	.	.	.	.	.	.
16AA	16d	.	.	.	.	.	.
16BB-JJ	16B-JJ)	.	.	.	.	.	.
=251	=251	=251	=251	=251	=251	=251	=251
4C)	(<16e-LL	.	.	4C/	.	[<2g^<	.
.	16b-	.	.	.	.	.	.
.	16c	.	.	.	.	.	.
.	16B-JJ	.	.	.	.	.	.
(<16BBnLL	16e-LL	.	.	4B-	.	.	.
16C	16b-	.	.	.	.	.	.
16D	16c	.	.	.	.	.	.
16E-JJ)	16B-JJ)	.	.	.	.	.	.
=252	=252	=252	=252	=252	=252	=252	=252
8FL	(<16e-LL	.	.	(>4A-	<	4g]	.
.	16a	.	.	.	.	.	.
8FFJ	16c	.	.	.	.	.	.
.	16AJJ	.	.	.	.	.	.
4F^^>	16e-LL	.	.	4e-	[	4f	.
.	16a	.	.	.	.	.	.
.	16c	.	.	.	.	.	.
.	16AJJ)	.	.	.	.	.	.
=253	=253	=253	=253	=253	=253	=253	=253
4BB-	(<16dLL	.	.	4d	>	[<2f^<	.
.	16a	.	.	.	.	.	.
.	16B-	.	.	.	.	.	.
.	16AJJ	.	.	.	.	.	.
(<16AALL	16dLL	.	.	4A-	]	.	.
16BB-	16a	.	.	.	.	.	.
16C	16B-	.	.	.	.	.	.
16DJJ	16AJJ)	.	.	.	.	.	.
!!LO:LB:g=original
=254	=254	=254	=254	=254	=254	=254	=254
8E-L)	(<16dLL	.	.	4G	<	4f]	.
.	16g	.	.	.	.	.	.
8EE-J	16B-	.	.	.	.	.	.
.	16GJJ	.	.	.	.	.	.
4E-^>	16dLL	.	.	4d)	[	4e-	.
.	16g	.	.	.	.	.	.
.	16B-	.	.	.	.	.	.
.	16GJJ)	.	.	.	.	.	.
=255	=255	=255	=255	=255	=255	=255	=255
4AA	(<16cLL	.	.	[>2c	>	[2e-^<	.
.	16g	.	.	.	.	.	.
.	16A	.	.	.	.	.	.
.	16GJJ	.	.	.	.	.	.
16GG#XLL	16cLL	.	.	.	.	.	.
16AA	16g	.	.	.	.	.	.
16BB-	16A	.	.	.	.	.	.
16CJJ	16GJJ)	.	.	.	.	.	.
!!LO:LB:g=original
=256	=256	=256	=256	=256	=256	=256	=256
!	!	!	!LO:DY:rj	!	!	!	!
!LO:TX:t=P:problem:2 łuki	!	!	!	!	!	!	!
!LO:S:s=1:note:problem:note-level slur	!	!	!	!	!	!	!
!LO:S:s=2:note:problem:note-level slur	!	!	!	!	!	!	!
(<4E- (<4C	16F#X<LL	.	>p	4c]	]p	4e-^<]	.
.	16G<	.	.	.	.	.	.
.	16G#X<	.	]	.	.	.	.
.	16A<JJ	.	.	.	.	.	.
!LO:S:s=1:note:problem:note-level slur	!	!	!	!	!	!	!
!LO:S:s=2:note:problem:note-level slur	!	!	!	!	!	!	!
4D) 4BB-)	(<16Gn<LL	.	>	4B-	.	4d	p
.	16G#X<	.	.	.	.	.	.
.	16A<	.	]	.	.	.	.
.	16B-<JJ)	.	.	.	.	.	.
=257	=257	=257	=257	=257	=257	=257	=257
*	*	*	*^	*	*	*	*
!LO:TX:t=P:problem:2 łuki	!	!	!	!	!	!	!	!
!LO:S:s=1:note:problem:note-level slur	!	!	!	!	!	!	!	!
!LO:S:s=2:note:problem:note-level slur	!	!	!	!	!	!	!	!
(<4A-X (<4F	16Bn<LL	.	>	.	2r	.	2rdd	.
.	16c<	.	.	.	.	.	.	.
.	16c#X<	.	]	.	.	.	.	.
.	16d<JJ	.	.	.	.	.	.	.
!	!	!	!	!LO:HP:a	!	!	!	!
!LO:S:s=1:note:problem:note-level slur	!	!	!	!	!	!	!	!
!LO:S:s=2:note:problem:note-level slur	!	!	!	!	!	!	!	!
!	!LO:TX:t=cres _:problem:dynamics with extention lines 	!	!	!	!	!	!	!
!	!	!	!LO:HP:iB:t=cres	!	!	!	!	!
4G) 4E-)	(<16cnLL	.	<	>	.	.	.	.
.	16c#X	.	.	.	.	.	.	.
.	16d	.	.	]	.	.	.	.
.	16e-JJ)	.	.	.	.	.	.	.
*	*	*	*	*	*clefC4	*	*	*
=258	=258	=258	=258	=258	=258	=258	=258	=258
*	*	*^	*	*	*	*	*	*
!	!	!	!	!	!LO:HP:a	!	!	!	!
!LO:TX:t=P:problem:2 łuki	!	!	!	!	!	!	!	!	!
!LO:S:s=1:note:problem:note-level slur	!	!	!	!	!	!	!	!	!
!LO:S:s=2:note:problem:note-level slur	!	!	!	!	!	!	!	!	!
(>4e- (>4c	(<16f#XLL	.	5	.	>	2r	.	2rdd	.
.	16g	.	1	.	.	.	.	.	.
.	16g#X	.	.	.	]	.	.	.	.
.	16aJJ)	.	.	.	.	.	.	.	.
!	!	!	!	!	!LO:HP:a	!	!	!	!
!LO:S:s=1:note:problem:note-level slur	!	!	!	!	!	!	!	!	!
!LO:S:s=2:note:problem:note-level slur	!	!	!	!	!	!	!	!	!
4d) 4B-)	(<16gnLL	.	.	.	>	.	.	.	.
.	16g#X	.	.	.	.	.	.	.	.
.	16a	.	.	.	]	.	.	.	.
.	16b-JJ)	.	.	.	.	.	.	.	.
*clefG2	*	*	*	*	*	*	*	*	*
*	*	*v	*v	*	*	*	*	*	*
*	*	*	*v	*v	*	*	*	*
=259	=259	=259	=259	=259	=259	=259	=259
!LO:TX:t=P:problem:2 łuki	!	!	!	!	!	!	!
!LO:S:s=1:note:problem:note-level slur	!	!	!	!	!	!	!
!LO:S:s=2:note:problem:note-level slur	!	!	!	!	!	!	!
(<4a-X (<4f	(>16bnLL	.	.	2r	.	2rdd	.
.	16cc	.	.	.	.	.	.
.	16cc#X	.	.	.	.	.	.
.	16ddJJ)	.	.	.	.	.	.
!LO:S:s=1:note:problem:note-level slur	!	!	!	!	!	!	!
!LO:S:s=2:note:problem:note-level slur	!	!	!	!	!	!	!
4g) 4e-)	(>16ccnLL	.	.	.	.	.	.
.	16cc#X	.	.	.	.	.	.
.	16dd	.	.	.	.	.	.
.	16ee-JJ	.	.	.	.	.	.
=260	=260	=260	=260	=260	=260	=260	=260
!LO:TX:t=P:problem:2 łuki	!	!	!	!	!	!	!
!LO:S:s=1:note:problem:note-level slur	!	!	!	!	!	!	!
!LO:S:s=2:note:problem:note-level slur	!	!	!	!	!	!	!
(>4ee- (>4cc	16ff#XLL)	5	.	2r	.	2rdd	.
.	(>16gg	1	.	.	.	.	.
.	16gg#X	.	.	.	.	.	.
.	16aaJJ	.	.	.	.	.	.
!LO:S:s=1:note:problem:note-level slur	!	!	!	!	!	!	!
!LO:S:s=2:note:problem:note-level slur	!	!	!	!	!	!	!
4dd) 4b-)	16ggnLL)	.	.	.	.	.	.
.	(>16gg#X	.	.	.	.	.	.
.	16aa	.	.	.	.	.	.
.	16bb-JJ	.	.	.	.	.	.
!!LO:LB:g=original
=261	=261	=261	=261	=261	=261	=261	=261
*	*8va	*	*	*	*	*	*
!LO:TX:t=P:problem:2 łuki	!	!	!	!	!	!	!
!LO:S:s=1:note:problem:note-level slur	!	!	!	!	!	!	!
!LO:S:s=2:note:problem:note-level slur	!	!	!	!	!	!	!
(>4aa-X (>4ff	16bbnLL)	.	.	2r	.	2rdd	.
.	16ccc	.	.	.	.	.	.
.	16ccc#X	.	.	.	.	.	.
.	16dddJJ	.	.	.	.	.	.
!LO:S:s=1:note:problem:note-level slur	!	!	!	!	!	!	!
!LO:S:s=2:note:problem:note-level slur	!	!	!	!	!	!	!
4gg) 4ee-)	16cccnLL	.	.	.	.	.	.
.	16ccc#X	.	.	.	.	.	.
.	16ddd	.	.	.	.	.	.
.	16eee-JJ	.	.	.	.	.	.
=262	=262	=262	=262	=262	=262	=262	=262
!LO:S:s=2:note:problem:note-level slur	!	!	!	!	!	!	!
(>4eee- 4ccc	16fff#XLL	.	.	2r	.	2rdd	.
.	16ggg	.	.	.	.	.	.
.	16ggg#X	.	.	.	.	.	.
.	16aaaJJ	.	.	.	.	.	.
4ddd 4bb-	16gggnLL	.	.	.	.	.	.
.	16ggg#X	.	.	.	.	.	.
.	16aaa	.	.	.	.	.	.
.	16bbb-JJ	.	.	.	.	.	.
*	*	*	*	*clefC4	*	*	*
=263	=263	=263	=263	=263	=263	=263	=263
*	*	*	*^	*	*	*	*^
!	!	!	!	!	!	!	!LO:TX:a:t=P:problem:crescendo nad nutami	!LO:HP:a	!
4bb- 4gg 4ee-)	16dddd-XLL	.	.	.	4e-	f	4b-/	<	ff
.	16ggg	.	.	.	.	.	.	.	.
.	16aaa	.	.	.	.	.	.	.	.
.	16ccccJJ	.	.	.	.	.	.	.	.
*clefF4	*	*	*	*	*	*	*	*	*
!	!	!	!	!LO:DY:rj	!	!	!	!	!
4E-	16bbb-LL	.	.	f	(>16dLL	.	4g	.	.
.	16bb-	.	.	.	16e-	.	.	.	.
.	16aaa	.	.	.	16f	.	.	.	.
.	16ccccJJ	.	.	.	16e-JJ	.	.	.	.
!!LO:LB:g=original
*	*	*	*v	*v	*	*	*	*	*
*	*	*	*	*	*	*	*v	*v
=264	=264	=264	=264	=264	=264	=264	=264
*^	*	*	*	*	*	*	*
8qDDny/	.	.	.	.	.	.	.	.
*ped	*	*	*	*	*	*	*	*
2Dny/	4Dny\	16bbb-LL	.	.	8gL)	.	8b-L	.
.	.	16ggg	.	.	.	.	.	.
.	.	16aaa	.	.	8B-`>J	>	8b-J	.
.	.	16ccccJJ	.	.	.	.	.	.
.	4B-\ 4G\	16bbb-LL	.	.	4d	]	4g	.
.	.	16bb-	.	.	.	.	.	.
.	.	16aaa	.	.	.	.	.	.
*Xped	*	*	*	*	*	*	*	*
.	.	16ccccJJ	.	.	.	.	.	.
=265	=265	=265	=265	=265	=265	=265	=265	=265
!	!	!	!	!	!LO:TX:B:i:t=sempre	!	!	!
8qDD-/	.	.	.	.	.	.	.	.
*ped	*	*	*	*	*	*	*	*
2D-X/	4D-\	16bbb-LL	.	.	4d-X	.	4b-	.
.	.	16ggg	.	.	.	.	.	.
.	.	16aaa	.	.	.	.	.	.
.	.	16ccccJJ	.	.	.	.	.	.
.	4B-\ 4G\	16bbb-LL	.	.	(>16cLL	.	4g	.
.	.	16bb-	.	.	16d-	.	.	.
.	.	16aaa	.	.	16e-	.	.	.
*Xped	*	*	*	*	*	*	*	*
.	.	16ccccJJ	.	[	16d-JJ	f	.	.
*v	*v	*	*	*	*	*	*	*
=266	=266	=266	=266	=266	=266	=266	=266
4D-X 4DD-X	16bbb-LL	.	ff	8gL	.	8b-L	.
!	!LO:TX:i:B:t=con forza.	!	!	!	!	!	!
.	16ggg	.	.	.	.	.	.
.	16aaa	.	.	8B-`J)	.	8b-J	.
.	16ccccJJ	.	.	.	.	.	.
4GG 4GGG	16bbb-LL	.	.	(>4e-^<	.	4g	.
.	16ccc	.	.	.	.	.	.
.	16aaa	.	.	.	.	.	.
.	16ccccJJ	.	.	.	.	.	.
!!LO:PB:g=original
=267	=267	=267	=267	=267	=267	=267	=267
!	!	!	!	!	!	!	!LO:DY:rj
2EE-X/	8bbb-	.	.	4d-X)	.	[>2b-^<	f
*	*X8va	*	*	*	*	*	*
!	!LO:TX:a:B:i:t=loco.	!	!	!	!	!	!
.	8r	.	.	.	.	.	.
*ped	*	*	*	*	*	*	*
.	(>16GG<LL	.	.	4r	.	.	.
.	16G<	.	.	.	.	.	.
!	!LO:TX:a:i:B:t=con forza.	!	!	!	!	!	!
.	16C#<X	.	.	.	.	.	.
.	16F#<XJJ	.	.	.	.	.	.
=268	=268	=268	=268	=268	=268	=268	=268
!	!	!	!	!LO:TX:a:B:t=1	!	!	!
[</2EE-	16G<LL	.	.	2r	.	[>2b-]	.
.	16g	.	<	.	.	.	.
.	16c#X	.	.	.	.	.	.
.	16f#XJJ	.	[	.	.	.	.
.	16gLL	.	.	.	.	.	.
.	16gg	.	.	.	.	.	.
.	16cc#X	.	.	.	.	.	.
.	16ggJJ	.	.	.	.	.	.
*	*	*	*	*clefF4	*	*	*
=269	=269	=269	=269	=269	=269	=269	=269
!	!	!	!	!	!LO:DY:rj	!	!
[<2EE-]	16bb-LL	.	.	4e-	f>	8b-]	.
.	16cc#X	.	.	.	.	.	.
.	16gg	.	.	.	.	8r	.
.	16b-JJ	.	.	.	.	.	.
.	16cc#\LL	.	>	4E-	]	4r	.
.	16g	.	.	.	.	.	.
.	16b-	.	.	.	.	.	.
.	16c#XJJ	.	]	.	.	.	.
=270	=270	=270	=270	=270	=270	=270	=270
!	!	!	!	!	!	!LO:TX:a:B:t=1	!
2EE-]	16gLL	.	.	8E-'>L	.	2rdd	.
.	16gg	.	.	.	.	.	.
.	16cc#X	.	.	8E-'>J	.	.	.
.	16ff#XJJ	.	.	.	.	.	.
*	*8va	*	*	*	*	*	*
.	16ggLL	.	.	4EE-	.	.	.
.	16ggg	.	.	.	.	.	.
.	16bb-	.	.	.	.	.	.
*ped	*	*	*	*	*	*	*
.	16ccc#XJJ)	.	.	.	.	.	.
=271	=271	=271	=271	=271	=271	=271	=271
*^	*	*	*	*	*	*	*
8DDL	8rGGGyy	16dddLL	.	.	4DD	.	4dd	.
.	.	16dddd	.	.	.	.	.	.
8DJ	4.D	16bbb-	.	.	.	.	.	.
.	.	16aaaJJ	.	.	.	.	.	.
4d\ 4cny\ 4A\	.	16dddLL	.	.	4r	.	(>16cc#XLL	.
.	.	16ddd	.	.	.	.	16dd	.
.	.	16bb-	.	.	.	.	16een	.
*Xped	*	*	*	*	*	*	*	*
.	.	16aaJJ	.	.	.	.	16ff#XJJ	.
*	*	*X8va	*	*	*	*	*	*
=272	=272	=272	=272	=272	=272	=272	=272	=272
!	!	!LO:TX:a:B:i:t=loco.	!	!	!	!	!	!
*ped	*	*	*	*	*	*	*	*
8GGL	8rGGGyy	16dd^<LL	.	.	2r	.	8gg`>L)	.
.	.	16ddd	.	.	.	.	.	.
8DJ	4.D	(>16aa	.	.	.	.	(>8b-J	.
.	.	16ggJJ	.	.	.	.	.	.
*	*	*8va	*	*	*	*	*	*
4d\ 4B-\ 4G\	.	16dddLL)	.	.	.	.	4dd)	.
.	.	(>16dddd	.	.	.	.	.	.
.	.	16aaa	.	.	.	.	.	.
*Xped	*	*	*	*	*	*	*	*
.	.	16gggJJ	.	.	.	.	.	.
!!LO:LB:g=original
=273	=273	=273	=273	=273	=273	=273	=273	=273
*ped	*	*	*	*	*	*	*	*
8DDL	8rGGGyy	16dddLL)	.	.	2r	.	(<4a	.
.	.	(>16dddd	.	.	.	.	.	.
8DJ	4.D	16ggg^<	.	.	.	.	.	.
.	.	16fff#XJJ	.	.	.	.	.	.
4d\ 4c\ 4A\	.	16ddd\LL)	.	.	.	.	16g#XLL	.
.	.	(>16ddd	.	.	.	.	16a	.
.	.	16gg	.	.	.	.	16b-	.
*Xped	*	*	*	*	*	*	*	*
.	.	16ff#XJJ	.	.	.	.	16aJJ)	.
!!LO:LB:g=original
=274	=274	=274	=274	=274	=274	=274	=274	=274
*ped	*	*	*	*	*	*	*	*
8GGL	8rGGGyy	16dd\LL)	.	<	2r	.	8gnyL	.
.	.	(>16ddd	.	.	.	.	.	.
8DJ	4.D	16aa	.	.	.	.	8b-J	.
.	.	16ggJJ	.	[	.	.	.	.
4d\ 4B-\ 4G\	.	16dddLL)	.	.	.	.	(>4d^<	.
.	.	(>16dddd	.	.	.	.	.	.
.	.	16aaa	.	.	.	.	.	.
*Xped	*	*	*	*	*	*	*	*
.	.	16gggJJ	.	.	.	.	.	.
=275	=275	=275	=275	=275	=275	=275	=275	=275
*ped	*	*	*	*	*	*	*	*
8DDL	8rFFFyy	16dddLL)	.	.	2r	.	4dd)	.
.	.	(>16dddd	.	.	.	.	.	.
8DJ	4.D	16bbb-	.	.	.	.	.	.
.	.	16aaaJJ	.	.	.	.	.	.
4d\ 4c\ 4A\	.	16ddd^<LL)	.	.	.	.	(>16cc#XLL	.
.	.	(>16ddd	.	.	.	.	16dd	.
.	.	16bb-	.	.	.	.	16een	.
*Xped	*	*	*	*	*	*	*	*
.	.	16aaJJ	.	.	.	.	16ff#XJJ	.
=276	=276	=276	=276	=276	=276	=276	=276	=276
*ped	*	*	*	*	*	*	*	*
8GGL	8rBBByy	16dd\LL)	.	<	2r	.	8ggL)	.
.	.	(>16ddd	.	.	.	.	.	.
8DJ	4.D	16aa	.	.	.	.	8b-J	.
.	.	16ggJJ	.	.	.	.	.	.
4d\ 4B-\ 4G\	.	16dddLL)	.	.	.	.	4dd^<	.
.	.	(>16dddd	.	.	.	.	.	.
.	.	16aaa	.	.	.	.	.	.
*Xped	*	*	*	*	*	*	*	*
.	.	16gggJJ	.	.	.	.	.	.
*v	*v	*	*	*	*	*	*	*
=277	=277	=277	=277	=277	=277	=277	=277
*ped	*	*	*	*	*	*	*
4c 4G 4E-	16cccLL)	.	.	2r	.	(>4cc	.
.	(>16dddd	.	.	.	.	.	.
.	16aaa	.	.	.	.	.	.
.	16gggJJ	.	.	.	.	.	.
4r	16ccc\LL)	.	.	.	.	4g)	.
.	(>16ccc	.	.	.	.	.	.
.	16aa	.	.	.	.	.	.
.	16ggJJ	.	.	.	.	.	.
!!LO:LB:g=original
=278	=278	=278	=278	=278	=278	=278	=278
*	*X8va	*	*	*	*	*	*
!	!LO:TX:a:B:i:t=loco.	!	!	!	!	!LO:TX:i:a:B:t=appassionato.	!
16r	16cc\LL)	.	.	2r	.	4cc	<
16cLL	(>16cc	.	.	.	.	.	.
16A	16a	.	.	.	.	.	.
16GJJ	16gJJ	.	.	.	.	.	.
16CLL	16c<LL)	.	.	.	.	(>16bnLL	<
16C	(>16c<	.	.	.	.	16cc	.
16AA	16A<	.	.	.	.	16.dd	.
16GGJJ	16G<JJ	.	.	.	.	.	.
.	.	.	.	.	.	32ee-JJk	[[
=279	=279	=279	=279	=279	=279	=279	=279
!	!	!	!	!	!LO:DY:rj	!	!
16CCLL	16C<LL)	.	.	(>\4C	f	4ee-	>
!	!	!	!LO:DY:a	!	!	!	!
16C	(>16c<	.	f	.	.	.	.
16AA	16A<	.	.	.	.	.	.
*Xped	*	*	*	*	*	*	*
16GGJJ	16G<JJ	.	.	.	.	.	.
16CCLL	16E-<LL	.	.	4E-	.	4cc)	]
16E-	16e-<)	.	.	.	.	.	.
16AA	16A<	.	.	.	.	.	.
16GGJJ	16G<JJ	.	.	.	.	.	.
=280	=280	=280	=280	=280	=280	=280	=280
16CCLL	16C<LL	.	.	4C\	.	8ee-L	[
16C	16c<	.	.	.	.	.	.
16AA	16A<	.	.	.	.	8ee-J	.
16GGJJ	16G<JJ	.	.	.	.	.	.
16DDLL	16D<LL	.	.	4D\)	.	4f#X^<	.
16D	16d<	.	.	.	.	.	.
16BB-	16B-<	.	.	.	.	.	.
16AAJJ	16A<JJ	.	.	.	.	.	.
=281	=281	=281	=281	=281	=281	=281	=281
*ped	*	*	*	*	*	*	*
!	!	!	!	!	!	!	!LO:DY:a
4GG\	(<16G<LL	.	sf	(>4GG'<	.	4b-: 4d: 4G:	ff
.	16g	.	.	.	.	.	.
.	16e-	.	.	.	.	.	.
.	16dJJ)	.	.	.	.	.	.
4r	16dLL	.	p	4BB-'<	.	4r	.
.	(<16dd	.	.	.	.	.	.
.	16a	.	.	.	.	.	.
*Xped	*	*	*	*	*	*	*
.	16gJJ	.	.	.	.	.	.
=282	=282	=282	=282	=282	=282	=282	=282
*ped	*	*	*	*	*	*	*
8D`>L	16f#XLL	.	.	4D	.	2rdd	.
.	16ff#X	.	.	.	.	.	.
8dJ 8c 8A	16ee-	.	.	.	.	.	.
.	16ddJJ)	.	.	.	.	.	.
!LO:TX:B:t=P:mixed beam:problem	!	!	!	!	!	!	!
8DD/`<L	(>16ddLL	.	.	16C#XLL	<	.	.
.	16ddd	.	.	16D	.	.	.
8d\J 8c\ 8A\	16bb-	.	.	16En	.	.	.
*Xped	*	*	*	*	*	*	*
.	16aaJJ)	.	.	16F#XJJ	[	.	.
=283	=283	=283	=283	=283	=283	=283	=283
*ped	*	*	*	*	*	*	*
8GG`>L	8ggg`> 8gg	.	.	8GL)	.	2rdd	.
8dJ 8B- 8G	8r	.	.	8BB-`>J	.	.	.
8BB-`>L	(<16dLL	.	.	4D^<	.	.	.
.	16dd	.	.	.	.	.	.
8dJ 8B- 8G	16a	.	.	.	.	.	.
*Xped	*	*	*	*	*	*	*
.	16gJJ)	.	.	.	.	.	.
!!LO:LB:g=original
=284	=284	=284	=284	=284	=284	=284	=284
*ped	*	*	*	*	*	*	*
8D`>L	(>16f#XLL	.	.	(>4c	.	(<4d	.
.	16ff#X	.	.	.	.	.	.
8dJ 8c 8A	16b-	.	.	.	.	.	.
.	16aJJ)	.	.	.	.	.	.
!LO:TX:B:t=P:mixed beam:problem	!	!	!	!	!	!	!LO:HP:a
8DD/`<L	16ddLL	.	.	4A	.	16c#XLL	.
.	(>16ddd	.	.	.	.	16d	.
8c\J 8A\	16bb-	.	.	.	.	16en	.
*Xped	*	*	*	*	*	*	*
.	16aanyJJ	.	.	.	.	16f#XJJ)	[
!!LO:LB:g=original
=285	=285	=285	=285	=285	=285	=285	=285
!	!LO:S:s=2:note:problem:note-level slur	!	!	!	!	!	!
*ped	*	*	*	*	*	*	*
8GG`>L	8ggg`< 8gg)	.	.	4G	>	8gL	.
8dJ 8B- 8G	8r	.	.	.	.	8B-J	.
8BB-`>L	(<16dLL	.	.	8FL	]	4d^<	.
.	16dd	.	.	.	.	.	.
8dJ 8B- 8G	16a	.	.	8E-J)	.	.	.
*Xped	*	*	*	*	*	*	*
.	16gJJ)	.	.	.	.	.	.
=286	=286	=286	=286	=286	=286	=286	=286
*ped	*	*	*	*	*	*	*
!	!	!	!	!	!	!LO:TX:t=P:problem: łuk kończy się skierowany w dół	!
8D`>L	(>16f#XLL	.	.	4D	.	(>4cc	p
.	16ff#X	.	.	.	.	.	.
8dJ 8c 8A	16b-	.	<	.	.	.	.
.	16aJJ)	.	.	.	.	.	.
!LO:TX:B:t=P:mixed beam:problem	!	!	!	!	!	!	!
8DD/`>L	16ddLL	.	[	16C#XLL	.	4a^<	[[
.	16ddd	.	.	16D	.	.	.
8d'>\J 8c\ 8A\	(>16bb-	.	.	16En	.	.	.
*Xped	*	*	*	*	*	*	*
.	16aaJJ	.	.	16F#XJJ	.	.	.
!!LO:LB:g=original
=287	=287	=287	=287	=287	=287	=287	=287
*ped	*	*	*	*	*	*	*
8GG`>L	16ggLL)	.	.	8GL	[	4g	[
.	(>16ggg	.	>	.	.	.	.
8dJ 8B- 8G	16gg	.	.	8BB-J	.	.	.
.	16ddJJ	.	]	.	.	.	.
8BB-`>L	16gLL)	.	.	4D	.	8fL	.
.	(>16gg	.	.	.	.	.	.
8dJ 8B- 8G	16ee-	.	.	.	.	8e-J)	.
*Xped	*	*	*	*	*	*	*
.	16ddJJ	.	.	.	.	.	.
=288	=288	=288	=288	=288	=288	=288	=288
*ped	*	*	*	*	*	*	*
8D`>L	16f#XLL)	.	.	4c	.	4d	.
.	(>16ff#X	.	.	.	.	.	.
8dJ 8c 8A	16ee-	.	.	.	.	.	.
.	16ddJJ	.	.	.	.	.	.
!LO:TX:B:t=P:mixed beam:problem	!	!	!	!	!	!	!
8DD`>/L	16ddLL)	.	.	4A	.	16enLL	<
.	(>16ddd	.	.	.	.	16f#X	.
8d\J 8c\ 8A\	16bb-	.	.	.	.	16g	.
.	16aaJJ	.	.	.	.	16aJJ	[
=289	=289	=289	=289	=289	=289	=289	=289
*	*ped	*	*	*	*	*	*
*	*	*	*	*^	*	*	*
!	!	!	!	!	!	!	!	!LO:DY:rj
8B-: 8D: 8GG:	8ggg 8gg)	.	.	8B-	2D 2GG	.	(<4b- 4d	f
8r	8r	.	.	8r	.	.	.	.
*clefG2	*	*	*	*	*	*	*	*
!	!LO:TX:i:B:t=sempre.	!	!	!	!	!	!LO:TX:i:B:t=sempre più animato.	!
(>16gLL	(>16ggLL	.	.	4r	.	.	4g 4B-	.
16gg	16ggg	.	.	.	.	.	.	.
16ee-	16eee-	.	.	.	.	.	.	.
16ddJJ)	16dddJJ	.	.	.	.	.	.	.
!!LO:LB:g=original
*	*	*	*	*v	*v	*	*	*
=290	=290	=290	=290	=290	=290	=290	=290
!	!	!	!	!	!LO:DY:rj	!	!
(<16gLL	16ggLL)	.	.	(>4D [<4GG	p	8b-L 8d)	.
16g	(>16gg	.	.	.	.	.	.
16e-	16ee-	.	.	.	.	8b-`<J 8d	.
16dJJ)	16ddJJ	.	.	.	.	.	.
*clefF4	*	*	*	*	*	*	*
!	!	!	!	!LO:S:s=1:note:problem:note-level slur	!	!	!
!	!	!	!	!LO:TX:B:i:t=sempre più	!	!	!
16GLL	16gLL)	.	.	(>4G) 4GG_<	.	(>4g^> 4B-	.
16G	(16g	.	.	.	.	.	.
16E-	16e-	.	.	.	.	.	.
16DJJ	16dJJ	.	.	.	.	.	.
=291	=291	=291	=291	=291	=291	=291	=291
8GG	8G<)	.	.	(>4D) 4GG_<	.	4b- 4d	.
8r	8r	.	.	.	.	.	.
*clefG2	*	*	*	*	*	*	*
*	*8va	*	*	*	*	*	*
!	!LO:TX:B:t=più _:dur=1qs:ext=ud:problem:text with extention lines	!	!	!LO:S:s=1:note:problem:note-level slur	!	!	!
(>16gLL	16bb-LL	.	.	(>4G) 4GG_<	.	4g 4B-	.
16gg	16bbb-	.	.	.	.	.	.
16ee-	16eee-	.	.	.	.	.	.
16ddJJ)	16dddJJ	.	.	.	.	.	.
*	*X8va	*	*	*	*	*	*
=292	=292	=292	=292	=292	=292	=292	=292
!	!LO:TX:a:i:B:t=loco.	!	!	!	!	!	!LO:DY:rj
(<16gLL	16bb-LL	.	.	(>4D) 4GG_<	.	8b-L 8d)	f
!LO:TX:a:B:t=cres-cen-do.:dur=5qs:ext=ud:problem:text with extention lines	!	!	!	!	!	!	!
16g	16bb-	.	.	.	.	.	.
16e-	(>16ee-	.	.	.	.	8b-`<J 8d	.
16dJJ)	16ddJJ	.	.	.	.	.	.
*clefF4	*	*	*	*	*	*	*
!	!	!	!	!LO:S:s=1:note:problem:note-level slur	!LO:HP:B:i:t=cres.	!	!
16GLL	16b-LL)	.	.	(>4G) 4GG_	<	4g^> 4B-	.
(>16G	(<16b-	.	.	.	.	.	.
16E-	16e-	.	.	.	.	.	.
16DJJ	16dJJ)	.	.	.	.	.	.
=293	=293	=293	=293	=293	=293	=293	=293
!	!	!	!	!	!	!	!LO:DY:rj
8GG)	8B-<	.	.	(>4D) 4GG_<	.	(>4b- 4d	f
8r	8r	.	.	.	.	.	.
*clefG2	*	*	*	*	*	*	*
*	*8va	*	*	*	*	*	*
!	!	!	!	!LO:S:s=1:note:problem:note-level slur	!	!	!
(>16b-LL	16ddd\LL	.	.	(>4G) 4GG_<	.	4g 4B-	.
16bb-	16dddd	.	.	.	.	.	.
16gg	16aaa	.	.	.	.	.	.
16ddJJ)	16gggJJ	.	.	.	.	.	.
=294	=294	=294	=294	=294	=294	=294	=294
*	*X8va	*	*	*	*	*	*
!	!LO:TX:a:i:B:t=loco.	!	!	!	!	!	!LO:DY:rj
16b-LL	16dddLL	.	.	(>4D) 4GG_<	.	8b-L) 8d	ff
(<16b-	(>16ddd	.	.	.	.	.	.
16g	16aa	.	.	.	.	8b-`<J 8d	.
16dJJ)	16ggJJ)	.	.	.	.	.	.
*clefF4	*	*	*	*	*	*	*
!	!	!	!	!LO:S:s=1:note:problem:note-level slur	!	!	!
16B-LL	16dd/LL	.	.	(>4G) 4GG_<	.	(<4g 4B-	.
(>16B-	(<16dd	.	.	.	.	.	.
16G	16a	.	.	.	.	.	.
16DJJ	16gJJ	.	.	.	.	.	.
=295	=295	=295	=295	=295	=295	=295	=295
8BB-)	8d)	.	.	8D) 8GG])	.	8b-`< 8d)	.
*	*Xped	*	*	*	*	*	*
8r	8r	.	.	8r	.	8r	.
4r	4r	.	.	4r	.	4r	.
!!LO:LB:g=original
=296	=296	=296	=296	=296	=296	=296	=296
!	!	!	!LO:DY:rj	!LO:TX:a:B:t=1	!	!LO:TX:a:B:t=1	!
4C`< 4CC	4ee-/`< 4g/ 4e-/	.	ff	2r	.	2rdd	.
4D`< 4DD	4f#X/`< 4c/ 4A/	.	.	.	.	.	.
!	!	!	!	!LO:TX:B:i:t=sempre più	!	!	!
=297	=297	=297	=297	=297	=297	=297	=297
4GG'< 4GGG	4g/ 4B-/ 4G/	.	.	[>2D [<2GG	.	[>2g [<2B-	.
*	*clefF4	*	*	*	*	*	*
!	!LO:TX:B:i:t=con forza.	!	!	!	!	!	!
16CC#XLL	16C#X\LL	.	.	.	.	.	.
16DD	16D	.	.	.	.	.	.
16EEn	16En	.	.	.	.	.	.
16FF#XJJ	16F#XJJ	.	.	.	.	.	.
=298	=298	=298	=298	=298	=298	=298	=298
!	!	!	!	!	!	!LO:TX:a:t=P:problem:cres. nad nutami	!
!	!	!	!	!	!	!	!LO:HP:a
16GGLL	16GLL	.	.	[>2D] [<2GG]	.	2g_> 2B-_<	<
16AA	16A	.	.	.	.	.	.
16BB-	16B-	.	.	.	.	.	.
16CJJ	16cJJ	.	.	.	.	.	.
*	*clefG2	*	*	*	*	*	*
16C#X\LL	16c#XLL	.	.	.	.	.	.
16D	16d	.	.	.	.	.	.
16En	16en	.	.	.	.	.	.
16F#XJJ	16f#XJJ	.	.	.	.	.	.
=299	=299	=299	=299	=299	=299	=299	=299
16GLL	16gLL	.	.	[>2D] [<2GG]	.	2g_> 2B-_<	.
16A	16a	.	.	.	.	.	.
16B-	16b-	.	.	.	.	.	.
16cJJ	16ccJJ	.	.	.	.	.	.
*clefG2	*	*	*	*	*	*	*
16c#XLL	16cc#XLL	.	<	.	.	.	.
16d	16dd	.	.	.	.	.	.
16en	16een	.	.	.	.	.	.
16f#XJJ	16ff#XJJ	.	.	.	.	.	.
=300	=300	=300	=300	=300	=300	=300	=300
16g\LL	16ggLL	.	.	[>2D] [<2GG]	f	2g_> 2B-_	.
16a	16aa	.	.	.	.	.	.
16b-	16bb-	.	.	.	.	.	.
16ccJJ	16cccJJ	.	.	.	.	.	.
16cc#XLL	16ccc#XLL	.	.	.	.	.	.
16dd	16ddd	.	.	.	.	.	.
16een	16eeen	.	.	.	.	.	.
16ff#XJJ	16fff#XJJ	.	[	.	.	.	.
=301	=301	=301	=301	=301	=301	=301	=301
8gg	8ggg	.	./	8D] 8GG]	.	8g] 8B-]	.
8r	8r	.	.	8r	.	8r	.
!	!	!	!	!LO:TX:B:t=FINE.	!	!	!
4r	4r	.	.	4r	.	4r	ff
=302	=302	=302	=302	=302	=302	=302	=302
*ped	*	*	*	*	*	*	*
!LO:TX:B:t=FINE.	!	!	!	!	!LO:DY:rj	!LO:TX:B:t=FINE.	!
4g 4d 4B- 4G	4bb- 4gg 4dd 4b-	.	fz	4B-\ 4D\ 4GG\	ff	4gg/ 4b-/ 4d/ 4G/	.
4r	4r	.	.	4r	.	4r	.
*clefF4	*	*	*	*	*	*	*
=303	=303	=303	=303	=303	=303	=303	=303
!LO:TX:t=P:dolna oktawa zapisana przez "8":problem	!	!	!	!	!	!	!
2GG;< 2GGG<	2G<;>	.	fz	2GG/;<	.	2G/;	.
*Xped	*	*	*	*	*	*	*
==	==	==	==	==	==	==	==
*-	*-	*-	*-	*-	*-	*-	*-
!!!system-decoration: s1,s2{(s3,s4)}
!!!RDF**kern: > = above
!!!RDF**kern: < = below
!!title: @{OTL}; @{OPS} @{ONM} publisher: @{PPR}
!!!RDF**kern: N = linked
!!!RDF**dynam: > = "dimin.", fontstyle = "italic"
!!!RDF**dynam: < = "cres.", fontstyle = "italic"
!!!RDF**kern: i = editorial accidental
!!!ENC: Mateusz Mrugas
!!!END: 2019-10-27
!!!EED: Jędrzej Mróz
!!!EST: revision finished 2019-10-29
!!!rism-genre: Trio
!!!rism-key: G minor
!!!rism-opus: op.  8
!!!rism-title: Trio in G minor op.  8
!!!rism-permalink: https://opac.rism.info/search?id=1001002848&View=rism
!!!RDF**dynam: > = "dimin.", fontstyle = "normal"
!!!END: 2019-10-26
!!!EST: revision finished 2019-10-28
!!!RDF**dynam: > = "decres.", fontstyle = "italic"
!!!END: 2019-10-25
!!!EST: revision finished 2019-10-27
